luts/cine-tealorange.cube
# cine-tealorange  (original film-style LUT, free for any use)
LUT_3D_SIZE 5
0.00000 0.02050 0.06800
0.19366 0.03007 0.06922
0.44344 0.04056 0.06992
0.69686 0.05117 0.07060
0.91943 0.06114 0.07179
0.00555 0.23163 0.06623
0.21879 0.24268 0.06744
0.46923 0.25460 0.06813
0.72240 0.26660 0.06882
0.94381 0.27791 0.07004
0.03252 0.48085 0.06339
0.24723 0.49247 0.06460
0.49823 0.50491 0.06532
0.75105 0.51739 0.06605
0.97120 0.52914 0.06732
0.05986 0.73369 0.06048
0.27594 0.74497 0.06173
0.52739 0.75703 0.06250
0.77976 0.76908 0.06329
0.99855 0.78036 0.06464
0.08453 0.95570 0.05853
0.30186 0.96574 0.05985
0.55367 0.97651 0.06068
0.80548 0.98723 0.06157
1.00000 0.99713 0.06302
0.00000 0.02720 0.26822
0.20397 0.03687 0.27079
0.45431 0.04742 0.27282
0.70739 0.05809 0.27483
0.92870 0.06809 0.27735
0.01458 0.23979 0.26778
0.22927 0.25091 0.27031
0.48025 0.26287 0.27232
0.73305 0.27490 0.27432
0.95319 0.28622 0.27684
0.04167 0.48955 0.26627
0.25780 0.50121 0.26878
0.50932 0.51368 0.27079
0.76174 0.52617 0.27281
0.98059 0.53790 0.27536
0.06906 0.74203 0.26470
0.28652 0.75334 0.26723
0.53847 0.76539 0.26927
0.79041 0.77743 0.27133
1.00000 0.78866 0.27393
0.09368 0.96279 0.26409
0.31238 0.97282 0.26666
0.56465 0.98356 0.26875
0.81601 0.99424 0.27088
1.00000 1.00000 0.27356
0.00037 0.03427 0.50461
0.21494 0.04403 0.50766
0.46581 0.05465 0.51017
0.71851 0.06536 0.51266
0.93853 0.07538 0.51563
0.02430 0.24829 0.50463
0.24040 0.25947 0.50763
0.49188 0.27147 0.51009
0.74427 0.28352 0.51255
0.96309 0.29484 0.51550
0.05150 0.49857 0.50359
0.26901 0.51027 0.50656
0.52100 0.52275 0.50900
0.77299 0.53523 0.51144
0.99050 0.54693 0.51441
0.07891 0.75066 0.50250
0.29773 0.76198 0.50545
0.55012 0.77403 0.50791
0.80160 0.78603 0.51037
1.00000 0.79721 0.51337
0.10347 0.97012 0.50237
0.32349 0.98014 0.50534
0.57619 0.99085 0.50783
0.82706 1.00000 0.51034
1.00000 1.00000 0.51339
0.01002 0.04143 0.74444
0.22599 0.05126 0.74712
0.47735 0.06194 0.74925
0.72962 0.07268 0.75134
0.94832 0.08271 0.75391
0.03413 0.25684 0.74407
0.25159 0.26807 0.74667
0.50353 0.28011 0.74873
0.75548 0.29216 0.75077
0.97294 0.30347 0.75330
0.06141 0.50760 0.74264
0.28026 0.51933 0.74519
0.53268 0.53182 0.74721
0.78420 0.54429 0.74922
1.00000 0.55595 0.75173
0.08881 0.75928 0.74116
0.30895 0.77060 0.74368
0.56175 0.78263 0.74568
0.81273 0.79459 0.74769
1.00000 0.80571 0.75022
0.11330 0.97741 0.74065
0.33461 0.98741 0.74317
0.58769 0.99808 0.74518
0.83803 1.00000 0.74721
1.00000 1.00000 0.74978
0.01920 0.04837 0.95498
0.23652 0.05827 0.95643
0.48833 0.06899 0.95732
0.74014 0.07976 0.95815
0.95747 0.08980 0.95947
0.04345 0.26514 0.95336
0.26224 0.27642 0.95471
0.51461 0.28847 0.95550
0.76606 0.30053 0.95627
0.98214 0.31181 0.95752
0.07080 0.51636 0.95068
0.29095 0.52811 0.95195
0.54377 0.54059 0.95268
0.79477 0.55303 0.95340
1.00000 0.56465 0.95461
0.09819 0.76759 0.94796
0.31960 0.77890 0.94918
0.57277 0.79090 0.94987
0.82321 0.80282 0.95056
1.00000 0.81387 0.95177
0.12257 0.98436 0.94621
0.34514 0.99433 0.94740
0.59856 1.00000 0.94808
0.84834 1.00000 0.94878
1.00000 1.00000 0.95000
