luts/cine-tealorange.cube
# cine-tealorange  (original film-style LUT, free for any use)
LUT_3D_SIZE 9
0.00000 0.02050 0.06800
0.08091 0.02513 0.06871
0.19366 0.03007 0.06922
0.31594 0.03525 0.06960
0.44344 0.04056 0.06992
0.57185 0.04590 0.07023
0.69686 0.05117 0.07060
0.81415 0.05629 0.07110
0.91943 0.06114 0.07179
0.00000 0.11915 0.06732
0.09252 0.12421 0.06802
0.20562 0.12958 0.06852
0.32813 0.13517 0.06890
0.45574 0.14089 0.06921
0.58415 0.14664 0.06952
0.70905 0.15232 0.06990
0.82612 0.15782 0.07040
0.93105 0.16307 0.07110
0.00555 0.23163 0.06623
0.10536 0.23700 0.06693
0.21879 0.24268 0.06744
0.34151 0.24858 0.06781
0.46923 0.25460 0.06813
0.59763 0.26064 0.06844
0.72240 0.26660 0.06882
0.83923 0.27239 0.06933
0.94381 0.27791 0.07004
0.01880 0.35363 0.06488
0.11904 0.35920 0.06558
0.23278 0.36508 0.06609
0.35571 0.37117 0.06647
0.48352 0.37737 0.06679
0.61189 0.38359 0.06711
0.73653 0.38973 0.06750
0.85311 0.39569 0.06802
0.95732 0.40137 0.06874
0.03252 0.48085 0.06339
0.13318 0.48650 0.06409
0.24723 0.49247 0.06460
0.37035 0.49863 0.06499
0.49823 0.50491 0.06532
0.62657 0.51119 0.06565
0.75105 0.51739 0.06605
0.86736 0.52341 0.06658
0.97120 0.52914 0.06732
0.04634 0.60897 0.06188
0.14740 0.61460 0.06259
0.26174 0.62053 0.06311
0.38504 0.62666 0.06351
0.51298 0.63289 0.06384
0.64127 0.63913 0.06419
0.76559 0.64528 0.06460
0.88163 0.65123 0.06515
0.98507 0.65690 0.06591
0.05986 0.73369 0.06048
0.16132 0.73918 0.06120
0.27594 0.74497 0.06173
0.39940 0.75095 0.06214
0.52739 0.75703 0.06250
0.65562 0.76311 0.06286
0.77976 0.76908 0.06329
0.89551 0.77487 0.06386
0.99855 0.78036 0.06464
0.07272 0.85070 0.05933
0.17456 0.85595 0.06006
0.28944 0.86147 0.06060
0.41305 0.86719 0.06103
0.54108 0.87300 0.06140
0.66923 0.87881 0.06178
0.79318 0.88451 0.06224
0.90863 0.89001 0.06283
1.00000 0.89521 0.06363
0.08453 0.95570 0.05853
0.18673 0.96058 0.05928
0.30186 0.96574 0.05985
0.42561 0.97108 0.06029
0.55367 0.97651 0.06068
0.68173 0.98193 0.06109
0.80548 0.98723 0.06157
0.92060 0.99233 0.06219
1.00000 0.99713 0.06302
0.00000 0.02378 0.16154
0.08563 0.02843 0.16264
0.19870 0.03341 0.16354
0.32118 0.03860 0.16431
0.44876 0.04393 0.16502
0.57714 0.04928 0.16571
0.70201 0.05457 0.16647
0.81905 0.05969 0.16736
0.92396 0.06455 0.16843
0.00000 0.12286 0.16124
0.09730 0.12793 0.16233
0.21070 0.13333 0.16323
0.33341 0.13894 0.16399
0.46111 0.14467 0.16469
0.58949 0.15043 0.16538
0.71424 0.15612 0.16614
0.83105 0.16163 0.16703
0.93562 0.16688 0.16811
0.00994 0.23565 0.16055
0.11018 0.24104 0.16163
0.22391 0.24673 0.16252
0.34683 0.25265 0.16328
0.47463 0.25868 0.16398
0.60299 0.26472 0.16467
0.72762 0.27069 0.16543
0.84419 0.27649 0.16632
0.94840 0.28201 0.16741
0.02323 0.35784 0.15958
0.12389 0.36343 0.16066
0.23793 0.36932 0.16155
0.36105 0.37542 0.16231
0.48894 0.38163 0.16301
0.61728 0.38786 0.16371
0.74176 0.39400 0.16448
0.85808 0.39996 0.16538
0.96192 0.40564 0.16647
0.03698 0.48514 0.15848
0.13805 0.49081 0.15956
0.25240 0.49678 0.16045
0.37571 0.50296 0.16121
0.50366 0.50924 0.16192
0.63196 0.51553 0.16263
0.75629 0.52172 0.16340
0.87234 0.52774 0.16431
0.97580 0.53346 0.16541
0.05081 0.61323 0.15735
0.15229 0.61887 0.15844
0.26692 0.62481 0.15934
0.39040 0.63095 0.16011
0.51842 0.63718 0.16082
0.64666 0.64342 0.16154
0.77082 0.64956 0.16233
0.88659 0.65551 0.16325
0.98966 0.66117 0.16437
0.06434 0.73781 0.15635
0.16621 0.74331 0.15744
0.28112 0.74910 0.15834
0.40476 0.75508 0.15913
0.53282 0.76116 0.15985
0.66100 0.76723 0.16058
0.78498 0.77321 0.16139
0.90046 0.77898 0.16233
1.00000 0.78446 0.16347
0.07720 0.85456 0.15558
0.17944 0.85981 0.15668
0.29461 0.86534 0.15760
0.41840 0.87106 0.15839
0.54649 0.87686 0.15913
0.67459 0.88266 0.15988
0.79838 0.88835 0.16071
0.91355 0.89384 0.16167
1.00000 0.89903 0.16283
0.08899 0.95919 0.15517
0.19159 0.96407 0.15629
0.30701 0.96923 0.15722
0.43093 0.97457 0.15804
0.55905 0.97999 0.15880
0.68706 0.98540 0.15957
0.81064 0.99069 0.16041
0.92549 0.99578 0.16140
1.00000 1.00000 0.16258
0.00000 0.02720 0.26822
0.09059 0.03187 0.26960
0.20397 0.03687 0.27079
0.32664 0.04208 0.27184
0.45431 0.04742 0.27282
0.58266 0.05279 0.27380
0.70739 0.05809 0.27483
0.82417 0.06322 0.27600
0.92870 0.06809 0.27735
0.00210 0.12669 0.26820
0.10231 0.13179 0.26957
0.21602 0.13720 0.27074
0.33892 0.14283 0.27178
0.46670 0.14857 0.27276
0.59504 0.15434 0.27373
0.71965 0.16004 0.27476
0.83620 0.16556 0.27592
0.94039 0.17081 0.27728
0.01458 0.23979 0.26778
0.11523 0.24519 0.26914
0.22927 0.25091 0.27031
0.35238 0.25683 0.27135
0.48025 0.26287 0.27232
0.60858 0.26893 0.27329
0.73305 0.27490 0.27432
0.84936 0.28070 0.27548
0.95319 0.28622 0.27684
0.02790 0.36217 0.26709
0.12898 0.36778 0.26845
0.24332 0.37368 0.26961
0.36663 0.37979 0.27065
0.49458 0.38601 0.27162
0.62288 0.39224 0.27259
0.74721 0.39838 0.27363
0.86326 0.40434 0.27479
0.96672 0.41002 0.27615
0.04167 0.48955 0.26627
0.14316 0.49523 0.26762
0.25780 0.50121 0.26878
0.38129 0.50740 0.26982
0.50932 0.51368 0.27079
0.63757 0.51997 0.27177
0.76174 0.52617 0.27281
0.87752 0.53217 0.27399
0.98059 0.53790 0.27536
0.05552 0.61760 0.26543
0.15740 0.62326 0.26678
0.27233 0.62920 0.26795
0.39599 0.63534 0.26899
0.52407 0.64158 0.26997
0.65227 0.64781 0.27095
0.77627 0.65395 0.27200
0.89176 0.65990 0.27319
0.99444 0.66555 0.27457
0.06906 0.74203 0.26470
0.17133 0.74754 0.26606
0.28652 0.75334 0.26723
0.41034 0.75932 0.26828
0.53847 0.76539 0.26927
0.66660 0.77146 0.27026
0.79041 0.77743 0.27133
0.90561 0.78320 0.27253
1.00000 0.78866 0.27393
0.08190 0.85853 0.26421
0.18454 0.86378 0.26558
0.30000 0.86931 0.26676
0.42396 0.87503 0.26782
0.55212 0.88083 0.26882
0.68017 0.88662 0.26983
0.80379 0.89230 0.27091
0.91867 0.89777 0.27213
1.00000 0.90294 0.27355
0.09368 0.96279 0.26409
0.19668 0.96767 0.26547
0.31238 0.97282 0.26666
0.43647 0.97815 0.26773
0.56465 0.98356 0.26875
0.69260 0.98896 0.26978
0.81601 0.99424 0.27088
0.93057 0.99931 0.27212
1.00000 1.00000 0.27356
0.00000 0.03071 0.38394
0.09573 0.03540 0.38550
0.20941 0.04042 0.38686
0.33228 0.04565 0.38808
0.46002 0.05101 0.38924
0.58834 0.05639 0.39038
0.71291 0.06170 0.39159
0.82943 0.06684 0.39292
0.93359 0.07171 0.39444
0.00687 0.13061 0.38408
0.10750 0.13573 0.38563
0.22151 0.14116 0.38698
0.34459 0.14680 0.38819
0.47245 0.15256 0.38933
0.60075 0.15834 0.39048
0.72520 0.16404 0.39168
0.84149 0.16957 0.39300
0.94530 0.17482 0.39452
0.01939 0.24401 0.38384
0.12046 0.24943 0.38537
0.23479 0.25516 0.38671
0.35808 0.26110 0.38791
0.48603 0.26715 0.38905
0.61431 0.27321 0.39019
0.73863 0.27919 0.39139
0.85466 0.28499 0.39271
0.95811 0.29051 0.39423
0.03275 0.36659 0.38332
0.13423 0.37220 0.38485
0.24887 0.37812 0.38618
0.37235 0.38424 0.38738
0.50038 0.39046 0.38852
0.62863 0.39670 0.38965
0.75280 0.40284 0.39085
0.86857 0.40880 0.39218
0.97165 0.41447 0.39370
0.04654 0.49404 0.38267
0.14843 0.49973 0.38419
0.26336 0.50572 0.38552
0.38703 0.51191 0.38672
0.51512 0.51820 0.38785
0.64333 0.52449 0.38899
0.76733 0.53068 0.39019
0.88284 0.53668 0.39152
0.98552 0.54240 0.39305
0.06040 0.62205 0.38200
0.16268 0.62772 0.38352
0.27790 0.63367 0.38485
0.40173 0.63981 0.38605
0.52988 0.64604 0.38719
0.65802 0.65228 0.38833
0.78185 0.65841 0.38954
0.89707 0.66434 0.39088
0.99935 0.66999 0.39242
0.07394 0.74633 0.38145
0.17660 0.75185 0.38297
0.29209 0.75764 0.38430
0.41607 0.76362 0.38550
0.54426 0.76970 0.38665
0.67233 0.77576 0.38780
0.79598 0.78172 0.38902
0.91089 0.78747 0.39037
1.00000 0.79293 0.39192
0.08677 0.86256 0.38113
0.18981 0.86782 0.38266
0.30555 0.87335 0.38399
0.42968 0.87906 0.38521
0.55789 0.88485 0.38636
0.68587 0.89063 0.38753
0.80932 0.89630 0.38876
0.92392 0.90176 0.39013
1.00000 0.90691 0.39170
0.09853 0.96644 0.38118
0.20192 0.97132 0.38272
0.31790 0.97647 0.38406
0.44216 0.98179 0.38529
0.57039 0.98720 0.38646
0.69827 0.99258 0.38764
0.82151 0.99785 0.38889
0.93578 1.00000 0.39027
1.00000 1.00000 0.39186
0.00037 0.03427 0.50461
0.10096 0.03899 0.50623
0.21494 0.04403 0.50766
0.33800 0.04928 0.50895
0.46581 0.05465 0.51017
0.59409 0.06004 0.51139
0.71851 0.06536 0.51266
0.83476 0.07050 0.51405
0.93853 0.07538 0.51563
0.01174 0.13459 0.50482
0.11278 0.13973 0.50643
0.22708 0.14517 0.50784
0.35035 0.15083 0.50912
0.47828 0.15660 0.51032
0.60654 0.16239 0.51153
0.73083 0.16809 0.51279
0.84684 0.17362 0.51417
0.95027 0.17887 0.51575
0.02430 0.24829 0.50463
0.12577 0.25373 0.50623
0.24040 0.25947 0.50763
0.36387 0.26542 0.50890
0.49188 0.27147 0.51009
0.62012 0.27754 0.51129
0.74427 0.28352 0.51255
0.86004 0.28932 0.51393
0.96309 0.29484 0.51550
0.03769 0.37105 0.50418
0.13957 0.37668 0.50577
0.25450 0.38260 0.50716
0.37816 0.38873 0.50842
0.50625 0.39496 0.50961
0.63445 0.40119 0.51080
0.75845 0.40734 0.51206
0.87395 0.41329 0.51344
0.97663 0.41896 0.51501
0.05150 0.49857 0.50359
0.15379 0.50427 0.50517
0.26901 0.51027 0.50656
0.39285 0.51646 0.50781
0.52100 0.52275 0.50900
0.64915 0.52904 0.51019
0.77299 0.53523 0.51144
0.88821 0.54123 0.51283
0.99050 0.54693 0.51441
0.06537 0.62654 0.50299
0.16805 0.63221 0.50456
0.28355 0.63816 0.50594
0.40755 0.64431 0.50720
0.53575 0.65054 0.50839
0.66384 0.65677 0.50958
0.78750 0.66290 0.51084
0.90243 0.66882 0.51223
1.00000 0.67445 0.51382
0.07891 0.75066 0.50250
0.18196 0.75618 0.50407
0.29773 0.76198 0.50545
0.42188 0.76796 0.50671
0.55012 0.77403 0.50791
0.67813 0.78008 0.50910
0.80160 0.78603 0.51037
0.91623 0.79177 0.51177
1.00000 0.79721 0.51337
0.09173 0.86663 0.50225
0.19516 0.87188 0.50383
0.31117 0.87741 0.50521
0.43546 0.88311 0.50647
0.56372 0.88890 0.50768
0.69165 0.89467 0.50888
0.81492 0.90033 0.51016
0.92922 0.90577 0.51157
1.00000 0.91091 0.51318
0.10347 0.97012 0.50237
0.20724 0.97500 0.50395
0.32349 0.98014 0.50534
0.44791 0.98546 0.50661
0.57619 0.99085 0.50783
0.70400 0.99622 0.50905
0.82706 1.00000 0.51034
0.94104 1.00000 0.51177
1.00000 1.00000 0.51339
0.00522 0.03786 0.62614
0.10622 0.04260 0.62773
0.22049 0.04765 0.62911
0.34373 0.05292 0.63036
0.47161 0.05830 0.63154
0.59984 0.06371 0.63271
0.72410 0.06903 0.63394
0.84008 0.07418 0.63528
0.94347 0.07906 0.63682
0.01664 0.13859 0.62630
0.11808 0.14374 0.62787
0.23268 0.14920 0.62924
0.35613 0.15487 0.63047
0.48411 0.16065 0.63164
0.61232 0.16644 0.63279
0.73645 0.17215 0.63401
0.85219 0.17768 0.63534
0.95523 0.18294 0.63687
0.02924 0.25257 0.62608
0.13111 0.25803 0.62763
0.24602 0.26378 0.62898
0.36967 0.26974 0.63020
0.49774 0.27580 0.63135
0.62593 0.28188 0.63250
0.74991 0.28786 0.63370
0.86540 0.29365 0.63503
0.96806 0.29917 0.63655
0.04265 0.37551 0.62558
0.14493 0.38116 0.62712
0.26015 0.38709 0.62846
0.38398 0.39322 0.62967
0.51212 0.39946 0.63081
0.64027 0.40569 0.63195
0.76410 0.41183 0.63315
0.87932 0.41778 0.63448
0.98160 0.42345 0.63600
0.05648 0.50310 0.62495
0.15916 0.50882 0.62648
0.27467 0.51482 0.62781
0.39867 0.52101 0.62901
0.52688 0.52730 0.63015
0.65497 0.53359 0.63128
0.77864 0.53978 0.63248
0.89357 0.54577 0.63381
0.99546 0.55146 0.63533
0.07035 0.63103 0.62430
0.17343 0.63670 0.62582
0.28920 0.64266 0.62715
0.41337 0.64880 0.62835
0.54162 0.65504 0.62948
0.66965 0.66126 0.63062
0.79313 0.66738 0.63182
0.90777 0.67330 0.63315
1.00000 0.67891 0.63468
0.08389 0.75499 0.62377
0.18734 0.76051 0.62529
0.30337 0.76631 0.62661
0.42769 0.77229 0.62781
0.55597 0.77835 0.62895
0.68392 0.78440 0.63009
0.80721 0.79034 0.63129
0.92154 0.79607 0.63263
1.00000 0.80149 0.63416
0.09670 0.87068 0.62348
0.20051 0.87593 0.62500
0.31680 0.88146 0.62632
0.44125 0.88716 0.62752
0.56955 0.89294 0.62867
0.69741 0.89870 0.62981
0.82049 0.90434 0.63102
0.93450 0.90977 0.63237
1.00000 0.91489 0.63392
0.10841 0.97379 0.62356
0.21257 0.97866 0.62508
0.32909 0.98380 0.62641
0.45366 0.98911 0.62762
0.58198 0.99449 0.62876
0.70972 0.99985 0.62992
0.83259 1.00000 0.63114
0.94627 1.00000 0.63250
1.00000 1.00000 0.63406
0.01002 0.04143 0.74444
0.11143 0.04619 0.74588
0.22599 0.05126 0.74712
0.34940 0.05654 0.74822
0.47735 0.06194 0.74925
0.60553 0.06735 0.75027
0.72962 0.07268 0.75134
0.84532 0.07783 0.75253
0.94832 0.08271 0.75391
0.02149 0.14256 0.74445
0.12333 0.14773 0.74587
0.23821 0.15320 0.74709
0.36183 0.15888 0.74817
0.48988 0.16467 0.74918
0.61804 0.17047 0.75018
0.74200 0.17619 0.75124
0.85746 0.18172 0.75242
0.96010 0.18697 0.75379
0.03413 0.25684 0.74407
0.13639 0.26230 0.74547
0.25159 0.26807 0.74667
0.37540 0.27404 0.74774
0.50353 0.28011 0.74873
0.63166 0.28618 0.74972
0.75548 0.29216 0.75077
0.87067 0.29796 0.75194
0.97294 0.30347 0.75330
0.04756 0.37995 0.74343
0.15024 0.38560 0.74481
0.26573 0.39155 0.74600
0.38973 0.39769 0.74705
0.51793 0.40392 0.74803
0.64601 0.41016 0.74901
0.76967 0.41630 0.75005
0.88460 0.42224 0.75122
0.98648 0.42790 0.75257
0.06141 0.50760 0.74264
0.16448 0.51333 0.74401
0.28026 0.51933 0.74519
0.40443 0.52553 0.74623
0.53268 0.53182 0.74721
0.66071 0.53810 0.74818
0.78420 0.54429 0.74922
0.89884 0.55027 0.75038
1.00000 0.55595 0.75173
0.07528 0.63548 0.74185
0.17874 0.64116 0.74321
0.29479 0.64712 0.74437
0.41912 0.65326 0.74541
0.54742 0.65949 0.74638
0.67537 0.66571 0.74735
0.79868 0.67182 0.74839
0.91302 0.67772 0.74955
1.00000 0.68333 0.75091
0.08881 0.75928 0.74116
0.19264 0.76480 0.74252
0.30895 0.77060 0.74368
0.43342 0.77657 0.74471
0.56175 0.78263 0.74568
0.68962 0.78867 0.74665
0.81273 0.79459 0.74769
0.92677 0.80031 0.74886
1.00000 0.80571 0.75022
0.10161 0.87469 0.74072
0.20580 0.87994 0.74208
0.32235 0.88546 0.74324
0.44696 0.89116 0.74427
0.57530 0.89693 0.74524
0.70308 0.90267 0.74622
0.82598 0.90830 0.74726
0.93969 0.91371 0.74843
1.00000 0.91881 0.74980
0.11330 0.97741 0.74065
0.21783 0.98228 0.74200
0.33461 0.98741 0.74317
0.45934 0.99271 0.74420
0.58769 0.99808 0.74518
0.71536 1.00000 0.74616
0.83803 1.00000 0.74721
0.95141 1.00000 0.74840
1.00000 1.00000 0.74978
0.01471 0.04494 0.85542
0.11651 0.04972 0.85660
0.23136 0.05481 0.85759
0.35494 0.06010 0.85843
0.48295 0.06551 0.85920
0.61107 0.07093 0.85996
0.73499 0.07627 0.86078
0.85041 0.08143 0.86171
0.95301 0.08631 0.86283
0.02622 0.14647 0.85517
0.12845 0.15166 0.85633
0.24362 0.15715 0.85729
0.36741 0.16284 0.85812
0.49551 0.16864 0.85887
0.62360 0.17444 0.85961
0.74739 0.18016 0.86040
0.86256 0.18569 0.86132
0.96480 0.19094 0.86242
0.03889 0.26104 0.85453
0.14154 0.26652 0.85567
0.25702 0.27229 0.85661
0.38100 0.27827 0.85742
0.50918 0.28434 0.85815
0.63724 0.29042 0.85887
0.76088 0.29640 0.85966
0.87579 0.30219 0.86056
0.97766 0.30769 0.86165
0.05234 0.38433 0.85363
0.15541 0.38999 0.85475
0.27118 0.39594 0.85567
0.39534 0.40208 0.85646
0.52358 0.40832 0.85718
0.65160 0.41455 0.85789
0.77508 0.42069 0.85866
0.88971 0.42663 0.85956
0.99119 0.43227 0.86065
0.06620 0.51204 0.85259
0.16966 0.51776 0.85369
0.28571 0.52378 0.85460
0.41004 0.52997 0.85537
0.53834 0.53626 0.85608
0.66629 0.54254 0.85679
0.78960 0.54872 0.85755
0.90395 0.55469 0.85844
1.00000 0.56036 0.85952
0.08008 0.63986 0.85153
0.18392 0.64554 0.85262
0.30024 0.65150 0.85352
0.42472 0.65764 0.85429
0.55306 0.66387 0.85499
0.68095 0.67008 0.85569
0.80407 0.67618 0.85645
0.91811 0.68207 0.85734
1.00000 0.68766 0.85842
0.09360 0.76349 0.85059
0.19781 0.76901 0.85168
0.31438 0.77481 0.85257
0.43901 0.78078 0.85333
0.56737 0.78682 0.85402
0.69517 0.79285 0.85472
0.81809 0.79877 0.85548
0.93182 0.80446 0.85637
1.00000 0.80985 0.85745
0.10638 0.87862 0.84989
0.21095 0.88387 0.85097
0.32776 0.88938 0.85186
0.45251 0.89507 0.85262
0.58089 0.90083 0.85331
0.70859 0.90656 0.85401
0.83130 0.91217 0.85477
0.94470 0.91757 0.85567
1.00000 0.92264 0.85676
0.11804 0.98095 0.84957
0.22295 0.98581 0.85064
0.33999 0.99093 0.85153
0.46486 0.99622 0.85229
0.59324 1.00000 0.85298
0.72082 1.00000 0.85369
0.84330 1.00000 0.85446
0.95637 1.00000 0.85536
1.00000 1.00000 0.85646
0.01920 0.04837 0.95498
0.12140 0.05317 0.95581
0.23652 0.05827 0.95643
0.36027 0.06357 0.95691
0.48833 0.06899 0.95732
0.61639 0.07442 0.95771
0.74014 0.07976 0.95815
0.85527 0.08492 0.95872
0.95747 0.08980 0.95947
0.03075 0.15029 0.95437
0.13337 0.15549 0.95517
0.24882 0.16099 0.95576
0.37277 0.16669 0.95622
0.50092 0.17250 0.95660
0.62895 0.17831 0.95697
0.75256 0.18403 0.95740
0.86744 0.18955 0.95794
0.96928 0.19480 0.95867
0.04345 0.26514 0.95336
0.14649 0.27063 0.95414
0.26224 0.27642 0.95471
0.38638 0.28239 0.95514
0.51461 0.28847 0.95550
0.64260 0.29455 0.95586
0.76606 0.30053 0.95627
0.88068 0.30632 0.95680
0.98214 0.31181 0.95752
0.05693 0.38860 0.95209
0.16037 0.39427 0.95285
0.27641 0.40022 0.95340
0.40073 0.40637 0.95381
0.52902 0.41261 0.95416
0.65696 0.41884 0.95449
0.78026 0.42497 0.95489
0.89460 0.43090 0.95541
0.99566 0.43653 0.95612
0.07080 0.51636 0.95068
0.17464 0.52209 0.95142
0.29095 0.52811 0.95195
0.41543 0.53431 0.95235
0.54377 0.54059 0.95268
0.67165 0.54687 0.95301
0.79477 0.55303 0.95340
0.90882 0.55900 0.95391
1.00000 0.56465 0.95461
0.08468 0.64413 0.94926
0.18889 0.64981 0.94998
0.30547 0.65577 0.95050
0.43011 0.66191 0.95089
0.55848 0.66813 0.95121
0.68629 0.67433 0.95153
0.80922 0.68042 0.95191
0.92296 0.68630 0.95242
1.00000 0.69187 0.95312
0.09819 0.76759 0.94796
0.20277 0.77311 0.94867
0.31960 0.77890 0.94918
0.44437 0.78486 0.94956
0.57277 0.79090 0.94987
0.70049 0.79692 0.95019
0.82321 0.80282 0.95056
0.93664 0.80850 0.95107
1.00000 0.81387 0.95177
0.11095 0.88243 0.94690
0.21588 0.88768 0.94760
0.33295 0.89318 0.94810
0.45785 0.89886 0.94848
0.58626 0.90461 0.94879
0.71387 0.91033 0.94910
0.83638 0.91592 0.94948
0.94948 0.92129 0.94998
1.00000 0.92635 0.95068
0.12257 0.98436 0.94621
0.22785 0.98921 0.94690
0.34514 0.99433 0.94740
0.47015 0.99960 0.94777
0.59856 1.00000 0.94808
0.72606 1.00000 0.94840
0.84834 1.00000 0.94878
0.96109 1.00000 0.94929
1.00000 1.00000 0.95000
