luts/cine-tealorange.cube
# cine-tealorange  (original film-style LUT, free for any use)
LUT_3D_SIZE 17
0.00000 0.02050 0.06800
0.02946 0.02277 0.06838
0.08091 0.02513 0.06871
0.13583 0.02757 0.06899
0.19366 0.03007 0.06922
0.25388 0.03264 0.06942
0.31594 0.03525 0.06960
0.37931 0.03789 0.06976
0.44344 0.04056 0.06992
0.50780 0.04323 0.07007
0.57185 0.04590 0.07023
0.63505 0.04855 0.07040
0.69686 0.05117 0.07060
0.75674 0.05376 0.07083
0.81415 0.05629 0.07110
0.86856 0.05875 0.07142
0.91943 0.06114 0.07179
0.00000 0.06783 0.06772
0.03498 0.07021 0.06810
0.08654 0.07268 0.06842
0.14155 0.07524 0.06870
0.19947 0.07786 0.06893
0.25975 0.08054 0.06913
0.32186 0.08326 0.06931
0.38527 0.08601 0.06947
0.44942 0.08878 0.06962
0.51379 0.09157 0.06977
0.57783 0.09434 0.06993
0.64101 0.09710 0.07011
0.70278 0.09983 0.07030
0.76262 0.10252 0.07054
0.81997 0.10516 0.07081
0.87430 0.10773 0.07113
0.92507 0.11022 0.07150
0.00000 0.11915 0.06732
0.04086 0.12163 0.06769
0.09252 0.12421 0.06802
0.14763 0.12686 0.06829
0.20562 0.12958 0.06852
0.26597 0.13235 0.06873
0.32813 0.13517 0.06890
0.39157 0.13802 0.06906
0.45574 0.14089 0.06921
0.52012 0.14377 0.06936
0.58415 0.14664 0.06952
0.64731 0.14949 0.06970
0.70905 0.15232 0.06990
0.76883 0.15510 0.07013
0.82612 0.15782 0.07040
0.88037 0.16049 0.07072
0.93105 0.16307 0.07110
0.00000 0.17393 0.06682
0.04704 0.17650 0.06719
0.09881 0.17916 0.06752
0.15401 0.18190 0.06779
0.21208 0.18470 0.06802
0.27248 0.18756 0.06822
0.33469 0.19046 0.06840
0.39817 0.19339 0.06856
0.46236 0.19634 0.06871
0.52674 0.19930 0.06886
0.59077 0.20225 0.06902
0.65390 0.20518 0.06920
0.71560 0.20808 0.06940
0.77533 0.21094 0.06963
0.83255 0.21375 0.06991
0.88673 0.21649 0.07023
0.93731 0.21915 0.07061
0.00555 0.23163 0.06623
0.05348 0.23427 0.06661
0.10536 0.23700 0.06693
0.16064 0.23981 0.06720
0.21879 0.24268 0.06744
0.27926 0.24561 0.06764
0.34151 0.24858 0.06781
0.40502 0.25158 0.06798
0.46923 0.25460 0.06813
0.53361 0.25762 0.06828
0.59763 0.26064 0.06844
0.66074 0.26364 0.06862
0.72240 0.26660 0.06882
0.78208 0.26953 0.06906
0.83923 0.27239 0.06933
0.89332 0.27519 0.06966
0.94381 0.27791 0.07004
0.01209 0.29171 0.06558
0.06014 0.29441 0.06596
0.11212 0.29720 0.06628
0.16749 0.30006 0.06655
0.22570 0.30299 0.06679
0.28623 0.30597 0.06699
0.34853 0.30900 0.06717
0.41207 0.31205 0.06733
0.47630 0.31512 0.06748
0.54068 0.31820 0.06764
0.60469 0.32127 0.06780
0.66777 0.32431 0.06798
0.72939 0.32733 0.06818
0.78901 0.33030 0.06842
0.84610 0.33322 0.06870
0.90010 0.33607 0.06903
0.95050 0.33884 0.06941
0.01880 0.35363 0.06488
0.06696 0.35637 0.06526
0.11904 0.35920 0.06558
0.17449 0.36211 0.06585
0.23278 0.36508 0.06609
0.29337 0.36811 0.06629
0.35571 0.37117 0.06647
0.41928 0.37426 0.06663
0.48352 0.37737 0.06679
0.54790 0.38049 0.06694
0.61189 0.38359 0.06711
0.67495 0.38668 0.06729
0.73653 0.38973 0.06750
0.79609 0.39274 0.06774
0.85311 0.39569 0.06802
0.90703 0.39857 0.06835
0.95732 0.40137 0.06874
0.02562 0.41686 0.06415
0.07390 0.41963 0.06452
0.12608 0.42249 0.06485
0.18161 0.42542 0.06512
0.23997 0.42842 0.06535
0.30061 0.43147 0.06556
0.36300 0.43456 0.06574
0.42659 0.43768 0.06590
0.49085 0.44081 0.06606
0.55523 0.44395 0.06622
0.61920 0.44708 0.06639
0.68223 0.45019 0.06657
0.74376 0.45326 0.06678
0.80327 0.45629 0.06702
0.86021 0.45926 0.06731
0.91405 0.46217 0.06764
0.96424 0.46499 0.06803
0.03252 0.48085 0.06339
0.08091 0.48363 0.06377
0.13318 0.48650 0.06409
0.18880 0.48945 0.06437
0.24723 0.49247 0.06460
0.30792 0.49553 0.06481
0.37035 0.49863 0.06499
0.43396 0.50176 0.06516
0.49823 0.50491 0.06532
0.56261 0.50805 0.06548
0.62657 0.51119 0.06565
0.68956 0.51431 0.06583
0.75105 0.51739 0.06605
0.81050 0.52043 0.06629
0.86736 0.52341 0.06658
0.92111 0.52631 0.06692
0.97120 0.52914 0.06732
0.03944 0.54506 0.06263
0.08794 0.54785 0.06301
0.14031 0.55072 0.06333
0.19601 0.55367 0.06361
0.25450 0.55668 0.06385
0.31525 0.55974 0.06406
0.37771 0.56285 0.06424
0.44135 0.56597 0.06441
0.50563 0.56911 0.06457
0.57000 0.57226 0.06474
0.63394 0.57539 0.06491
0.69690 0.57850 0.06510
0.75834 0.58157 0.06532
0.81773 0.58460 0.06557
0.87452 0.58757 0.06586
0.92818 0.59047 0.06620
0.97816 0.59329 0.06660
0.04634 0.60897 0.06188
0.09494 0.61174 0.06226
0.14740 0.61460 0.06259
0.20318 0.61753 0.06287
0.26174 0.62053 0.06311
0.32254 0.62358 0.06332
0.38504 0.62666 0.06351
0.44870 0.62977 0.06368
0.51298 0.63289 0.06384
0.57735 0.63602 0.06401
0.64127 0.63913 0.06419
0.70419 0.64222 0.06438
0.76559 0.64528 0.06460
0.82491 0.64829 0.06486
0.88163 0.65123 0.06515
0.93519 0.65411 0.06550
0.98507 0.65690 0.06591
0.05316 0.67202 0.06116
0.10187 0.67477 0.06154
0.15442 0.67760 0.06187
0.21028 0.68051 0.06215
0.26890 0.68347 0.06240
0.32975 0.68649 0.06261
0.39228 0.68954 0.06280
0.45596 0.69262 0.06298
0.52026 0.69571 0.06315
0.58462 0.69880 0.06332
0.64851 0.70188 0.06350
0.71140 0.70494 0.06370
0.77274 0.70796 0.06392
0.83200 0.71093 0.06418
0.88864 0.71385 0.06448
0.94211 0.71669 0.06484
0.99188 0.71944 0.06525
0.05986 0.73369 0.06048
0.10868 0.73639 0.06087
0.16132 0.73918 0.06120
0.21725 0.74205 0.06149
0.27594 0.74497 0.06173
0.33683 0.74794 0.06195
0.39940 0.75095 0.06214
0.46310 0.75398 0.06232
0.52739 0.75703 0.06250
0.59175 0.76007 0.06267
0.65562 0.76311 0.06286
0.71847 0.76611 0.06306
0.77976 0.76908 0.06329
0.83895 0.77201 0.06356
0.89551 0.77487 0.06386
0.94889 0.77766 0.06422
0.99855 0.78036 0.06464
0.06640 0.79343 0.05987
0.11532 0.79608 0.06026
0.16805 0.79881 0.06059
0.22405 0.80162 0.06088
0.28280 0.80448 0.06113
0.34374 0.80740 0.06135
0.40634 0.81035 0.06155
0.47005 0.81332 0.06173
0.53435 0.81630 0.06191
0.59870 0.81929 0.06209
0.66254 0.82226 0.06228
0.72535 0.82520 0.06249
0.78659 0.82811 0.06272
0.84571 0.83097 0.06299
0.90219 0.83377 0.06331
0.95547 0.83649 0.06367
1.00000 0.83913 0.06409
0.07272 0.85070 0.05933
0.12174 0.85328 0.05972
0.17456 0.85595 0.06006
0.23064 0.85868 0.06035
0.28944 0.86147 0.06060
0.35042 0.86432 0.06083
0.41305 0.86719 0.06103
0.47678 0.87009 0.06122
0.54108 0.87300 0.06140
0.60541 0.87591 0.06159
0.66923 0.87881 0.06178
0.73200 0.88167 0.06200
0.79318 0.88451 0.06224
0.85224 0.88729 0.06251
0.90863 0.89001 0.06283
0.96181 0.89265 0.06320
1.00000 0.89521 0.06363
0.07878 0.90497 0.05888
0.12790 0.90747 0.05927
0.18080 0.91005 0.05961
0.23695 0.91270 0.05991
0.29581 0.91541 0.06017
0.35683 0.91816 0.06040
0.41949 0.92095 0.06061
0.48324 0.92376 0.06080
0.54754 0.92658 0.06099
0.61185 0.92940 0.06118
0.67564 0.93221 0.06138
0.73837 0.93499 0.06160
0.79949 0.93773 0.06185
0.85848 0.94041 0.06213
0.91478 0.94304 0.06245
0.96787 0.94559 0.06283
1.00000 0.94805 0.06327
0.08453 0.95570 0.05853
0.13374 0.95810 0.05893
0.18673 0.96058 0.05928
0.24295 0.96313 0.05958
0.30186 0.96574 0.05985
0.36293 0.96839 0.06008
0.42561 0.97108 0.06029
0.48937 0.97379 0.06049
0.55367 0.97651 0.06068
0.61797 0.97923 0.06088
0.68173 0.98193 0.06109
0.74441 0.98460 0.06132
0.80548 0.98723 0.06157
0.86439 0.98982 0.06186
0.92060 0.99233 0.06219
0.97359 0.99478 0.06257
1.00000 0.99713 0.06302
0.00000 0.02212 0.11287
0.03168 0.02439 0.11336
0.08324 0.02676 0.11379
0.13824 0.02921 0.11417
0.19614 0.03172 0.11451
0.25642 0.03429 0.11482
0.31853 0.03691 0.11510
0.38192 0.03956 0.11537
0.44607 0.04222 0.11562
0.51043 0.04490 0.11588
0.57446 0.04757 0.11614
0.63764 0.05023 0.11642
0.69940 0.05285 0.11672
0.75923 0.05544 0.11705
0.81657 0.05797 0.11743
0.87090 0.06044 0.11785
0.92166 0.06283 0.11832
0.00000 0.06956 0.11269
0.03722 0.07195 0.11318
0.08888 0.07443 0.11360
0.14397 0.07699 0.11398
0.20196 0.07962 0.11432
0.26230 0.08230 0.11463
0.32446 0.08503 0.11491
0.38789 0.08778 0.11517
0.45206 0.09056 0.11543
0.51643 0.09335 0.11568
0.58046 0.09612 0.11594
0.64361 0.09889 0.11622
0.70534 0.10162 0.11652
0.76511 0.10431 0.11686
0.82240 0.10695 0.11723
0.87664 0.10952 0.11765
0.92732 0.11202 0.11813
0.00000 0.12099 0.11239
0.04311 0.12347 0.11288
0.09487 0.12605 0.11330
0.15006 0.12871 0.11368
0.20813 0.13144 0.11402
0.26853 0.13422 0.11432
0.33073 0.13704 0.11460
0.39420 0.13989 0.11487
0.45839 0.14276 0.11512
0.52277 0.14564 0.11537
0.58679 0.14852 0.11564
0.64992 0.15137 0.11592
0.71161 0.15420 0.11622
0.77134 0.15698 0.11655
0.82855 0.15971 0.11693
0.88272 0.16237 0.11735
0.93330 0.16496 0.11783
0.00137 0.17585 0.11200
0.04930 0.17843 0.11248
0.10118 0.18109 0.11291
0.15645 0.18383 0.11328
0.21459 0.18664 0.11362
0.27506 0.18950 0.11392
0.33731 0.19241 0.11420
0.40081 0.19534 0.11446
0.46502 0.19830 0.11472
0.52940 0.20126 0.11497
0.59341 0.20421 0.11524
0.65651 0.20714 0.11551
0.71817 0.21005 0.11582
0.77785 0.21291 0.11615
0.83500 0.21571 0.11653
0.88908 0.21845 0.11695
0.93957 0.22111 0.11743
0.00771 0.23362 0.11152
0.05576 0.23627 0.11200
0.10773 0.23900 0.11242
0.16310 0.24181 0.11280
0.22131 0.24469 0.11314
0.28184 0.24762 0.11344
0.34414 0.25060 0.11372
0.40767 0.25360 0.11398
0.47189 0.25662 0.11424
0.53628 0.25965 0.11449
0.60028 0.26266 0.11476
0.66336 0.26566 0.11503
0.72498 0.26863 0.11534
0.78459 0.27156 0.11568
0.84168 0.27442 0.11605
0.89568 0.27722 0.11648
0.94607 0.27995 0.11696
0.01426 0.29376 0.11097
0.06242 0.29646 0.11145
0.11450 0.29925 0.11188
0.16995 0.30212 0.11225
0.22824 0.30505 0.11259
0.28882 0.30804 0.11289
0.35117 0.31107 0.11317
0.41473 0.31412 0.11343
0.47897 0.31720 0.11369
0.54335 0.32027 0.11395
0.60734 0.32334 0.11421
0.67039 0.32639 0.11449
0.73197 0.32941 0.11480
0.79153 0.33238 0.11514
0.84855 0.33530 0.11552
0.90247 0.33815 0.11594
0.95276 0.34092 0.11643
0.02098 0.35572 0.11038
0.06925 0.35847 0.11086
0.12143 0.36130 0.11128
0.17697 0.36421 0.11165
0.23532 0.36718 0.11199
0.29597 0.37021 0.11229
0.35835 0.37328 0.11257
0.42194 0.37638 0.11284
0.48620 0.37949 0.11310
0.55058 0.38260 0.11335
0.61455 0.38571 0.11362
0.67758 0.38879 0.11390
0.73911 0.39185 0.11421
0.79862 0.39486 0.11455
0.85556 0.39781 0.11493
0.90940 0.40069 0.11536
0.95959 0.40349 0.11585
0.02781 0.41897 0.10974
0.07620 0.42175 0.11022
0.12847 0.42461 0.11065
0.18409 0.42755 0.11102
0.24252 0.43055 0.11136
0.30322 0.43360 0.11166
0.36564 0.43670 0.11195
0.42926 0.43982 0.11221
0.49353 0.44295 0.11247
0.55791 0.44609 0.11273
0.62187 0.44922 0.11300
0.68486 0.45233 0.11328
0.74635 0.45540 0.11359
0.80580 0.45843 0.11394
0.86267 0.46140 0.11432
0.91642 0.46431 0.11476
0.96651 0.46713 0.11525
0.03471 0.48298 0.10909
0.08321 0.48576 0.10957
0.13558 0.48864 0.10999
0.19128 0.49159 0.11037
0.24978 0.49461 0.11071
0.31053 0.49767 0.11102
0.37299 0.50078 0.11130
0.43664 0.50391 0.11157
0.50091 0.50706 0.11183
0.56529 0.51020 0.11209
0.62923 0.51334 0.11236
0.69219 0.51646 0.11265
0.75364 0.51954 0.11296
0.81303 0.52258 0.11331
0.86982 0.52555 0.11370
0.92348 0.52846 0.11413
0.97347 0.53129 0.11463
0.04164 0.54719 0.10843
0.09025 0.54998 0.10891
0.14271 0.55286 0.10934
0.19849 0.55581 0.10972
0.25705 0.55882 0.11006
0.31785 0.56189 0.11037
0.38036 0.56499 0.11065
0.44402 0.56812 0.11092
0.50831 0.57126 0.11118
0.57269 0.57440 0.11145
0.63661 0.57754 0.11172
0.69953 0.58065 0.11201
0.76093 0.58372 0.11233
0.82026 0.58675 0.11268
0.87697 0.58972 0.11307
0.93054 0.59262 0.11351
0.98043 0.59543 0.11401
0.04854 0.61108 0.10779
0.09725 0.61386 0.10827
0.14981 0.61672 0.10870
0.20567 0.61966 0.10908
0.26430 0.62266 0.10942
0.32515 0.62570 0.10973
0.38769 0.62879 0.11002
0.45137 0.63190 0.11029
0.51567 0.63502 0.11056
0.58004 0.63815 0.11082
0.64394 0.64126 0.11110
0.70683 0.64435 0.11140
0.76818 0.64740 0.11172
0.82744 0.65041 0.11207
0.88408 0.65336 0.11247
0.93756 0.65623 0.11291
0.98734 0.65902 0.11342
0.05536 0.67411 0.10717
0.10418 0.67686 0.10766
0.15683 0.67969 0.10809
0.21277 0.68260 0.10847
0.27146 0.68557 0.10881
0.33236 0.68858 0.10912
0.39493 0.69164 0.10942
0.45864 0.69472 0.10969
0.52294 0.69781 0.10996
0.58730 0.70090 0.11023
0.65118 0.70398 0.11051
0.71403 0.70703 0.11081
0.77533 0.71005 0.11114
0.83453 0.71302 0.11149
0.89109 0.71594 0.11189
0.94447 0.71877 0.11235
0.99414 0.72153 0.11285
0.06207 0.73573 0.10660
0.11099 0.73844 0.10709
0.16373 0.74123 0.10752
0.21974 0.74409 0.10790
0.27849 0.74702 0.10825
0.33944 0.74999 0.10857
0.40204 0.75300 0.10886
0.46577 0.75603 0.10914
0.53008 0.75908 0.10941
0.59443 0.76212 0.10969
0.65828 0.76515 0.10997
0.72110 0.76816 0.11027
0.78234 0.77113 0.11060
0.84147 0.77405 0.11097
0.89795 0.77691 0.11137
0.95124 0.77970 0.11183
1.00000 0.78240 0.11234
0.06861 0.79541 0.10609
0.11763 0.79806 0.10657
0.17046 0.80080 0.10701
0.22654 0.80361 0.10740
0.28535 0.80647 0.10775
0.34634 0.80939 0.10807
0.40898 0.81234 0.10836
0.47272 0.81531 0.10865
0.53703 0.81829 0.10893
0.60137 0.82128 0.10920
0.66520 0.82425 0.10949
0.72797 0.82719 0.10980
0.78916 0.83010 0.11014
0.84823 0.83295 0.11050
0.90462 0.83575 0.11092
0.95782 0.83847 0.11138
1.00000 0.84110 0.11190
0.07492 0.85262 0.10565
0.12405 0.85520 0.10614
0.17696 0.85786 0.10658
0.23312 0.86060 0.10697
0.29199 0.86339 0.10732
0.35302 0.86623 0.10765
0.41569 0.86911 0.10795
0.47945 0.87201 0.10824
0.54376 0.87492 0.10852
0.60808 0.87783 0.10880
0.67188 0.88072 0.10910
0.73462 0.88359 0.10941
0.79575 0.88641 0.10975
0.85474 0.88919 0.11012
0.91106 0.89191 0.11054
0.96415 0.89455 0.11101
1.00000 0.89710 0.11153
0.08098 0.90680 0.10530
0.13020 0.90930 0.10580
0.18320 0.91188 0.10624
0.23943 0.91453 0.10664
0.29835 0.91724 0.10699
0.35943 0.91999 0.10732
0.42213 0.92278 0.10763
0.48590 0.92559 0.10792
0.55021 0.92841 0.10821
0.61452 0.93123 0.10850
0.67829 0.93403 0.10880
0.74098 0.93681 0.10911
0.80206 0.93954 0.10946
0.86098 0.94223 0.10984
0.91720 0.94485 0.11026
0.97020 0.94740 0.11074
1.00000 0.94986 0.11127
0.08672 0.95743 0.10506
0.13605 0.95983 0.10556
0.18913 0.96231 0.10601
0.24542 0.96486 0.10641
0.30440 0.96747 0.10677
0.36552 0.97012 0.10710
0.42824 0.97281 0.10742
0.49202 0.97552 0.10771
0.55633 0.97824 0.10800
0.62062 0.98095 0.10830
0.68436 0.98365 0.10861
0.74701 0.98632 0.10893
0.80803 0.98895 0.10928
0.86688 0.99153 0.10967
0.92302 0.99404 0.11010
0.97591 0.99648 0.11058
1.00000 0.99883 0.11112
0.00000 0.02378 0.16154
0.03397 0.02606 0.16212
0.08563 0.02843 0.16264
0.14072 0.03089 0.16311
0.19870 0.03341 0.16354
0.25903 0.03598 0.16394
0.32118 0.03860 0.16431
0.38460 0.04126 0.16467
0.44876 0.04393 0.16502
0.51312 0.04661 0.16536
0.57714 0.04928 0.16571
0.64029 0.05194 0.16608
0.70201 0.05457 0.16647
0.76178 0.05716 0.16690
0.81905 0.05969 0.16736
0.87329 0.06216 0.16787
0.92396 0.06455 0.16843
0.00000 0.07134 0.16145
0.03952 0.07373 0.16203
0.09129 0.07621 0.16254
0.14647 0.07878 0.16301
0.20452 0.08141 0.16344
0.26492 0.08410 0.16384
0.32712 0.08683 0.16421
0.39058 0.08959 0.16456
0.45476 0.09237 0.16491
0.51913 0.09516 0.16525
0.58315 0.09794 0.16560
0.64627 0.10071 0.16597
0.70796 0.10344 0.16636
0.76768 0.10614 0.16678
0.82489 0.10878 0.16725
0.87905 0.11135 0.16776
0.92962 0.11385 0.16832
0.00000 0.12286 0.16124
0.04543 0.12535 0.16182
0.09730 0.12793 0.16233
0.15257 0.13060 0.16280
0.21070 0.13333 0.16323
0.27116 0.13611 0.16362
0.33341 0.13894 0.16399
0.39690 0.14180 0.16434
0.46111 0.14467 0.16469
0.52548 0.14755 0.16503
0.58949 0.15043 0.16538
0.65259 0.15329 0.16575
0.71424 0.15612 0.16614
0.77391 0.15890 0.16656
0.83105 0.16163 0.16703
0.88513 0.16429 0.16754
0.93562 0.16688 0.16811
0.00359 0.17781 0.16094
0.05164 0.18039 0.16151
0.10361 0.18305 0.16202
0.15897 0.18580 0.16249
0.21718 0.18861 0.16292
0.27770 0.19148 0.16331
0.33999 0.19439 0.16368
0.40352 0.19733 0.16403
0.46774 0.20029 0.16437
0.53212 0.20325 0.16472
0.59612 0.20620 0.16507
0.65919 0.20914 0.16544
0.72081 0.21204 0.16583
0.78042 0.21491 0.16625
0.83750 0.21771 0.16671
0.89150 0.22045 0.16723
0.94189 0.22311 0.16780
0.00994 0.23565 0.16055
0.05810 0.23830 0.16112
0.11018 0.24104 0.16163
0.16562 0.24385 0.16210
0.22391 0.24673 0.16252
0.28449 0.24967 0.16291
0.34683 0.25265 0.16328
0.41039 0.25565 0.16363
0.47463 0.25868 0.16398
0.53901 0.26170 0.16432
0.60299 0.26472 0.16467
0.66604 0.26772 0.16504
0.72762 0.27069 0.16543
0.78718 0.27362 0.16586
0.84419 0.27649 0.16632
0.89811 0.27929 0.16684
0.94840 0.28201 0.16741
0.01650 0.29584 0.16009
0.06478 0.29854 0.16066
0.11695 0.30134 0.16117
0.17249 0.30421 0.16164
0.23084 0.30715 0.16206
0.29148 0.31014 0.16245
0.35386 0.31317 0.16282
0.41745 0.31623 0.16317
0.48171 0.31930 0.16352
0.54609 0.32238 0.16386
0.61006 0.32546 0.16422
0.67308 0.32851 0.16459
0.73462 0.33152 0.16498
0.79412 0.33450 0.16541
0.85106 0.33742 0.16587
0.90490 0.34026 0.16639
0.95509 0.34303 0.16696
0.02323 0.35784 0.15958
0.07162 0.36059 0.16015
0.12389 0.36343 0.16066
0.17951 0.36634 0.16113
0.23793 0.36932 0.16155
0.29863 0.37235 0.16195
0.36105 0.37542 0.16231
0.42467 0.37852 0.16267
0.48894 0.38163 0.16301
0.55332 0.38475 0.16336
0.61728 0.38786 0.16371
0.68027 0.39095 0.16408
0.74176 0.39400 0.16448
0.80121 0.39701 0.16491
0.85808 0.39996 0.16538
0.91183 0.40284 0.16589
0.96192 0.40564 0.16647
0.03007 0.42112 0.15904
0.07857 0.42390 0.15961
0.13094 0.42677 0.16012
0.18664 0.42971 0.16059
0.24514 0.43271 0.16101
0.30589 0.43577 0.16140
0.36835 0.43886 0.16177
0.43199 0.44199 0.16213
0.49627 0.44512 0.16247
0.56065 0.44826 0.16282
0.62459 0.45139 0.16318
0.68756 0.45450 0.16355
0.74900 0.45758 0.16395
0.80839 0.46061 0.16438
0.86518 0.46358 0.16485
0.91885 0.46648 0.16537
0.96884 0.46930 0.16595
0.03698 0.48514 0.15848
0.08559 0.48793 0.15904
0.13805 0.49081 0.15956
0.19384 0.49377 0.16002
0.25240 0.49678 0.16045
0.31320 0.49985 0.16084
0.37571 0.50296 0.16121
0.43937 0.50609 0.16157
0.50366 0.50924 0.16192
0.56804 0.51239 0.16227
0.63196 0.51553 0.16263
0.69489 0.51864 0.16300
0.75629 0.52172 0.16340
0.81562 0.52476 0.16383
0.87234 0.52774 0.16431
0.92591 0.53064 0.16483
0.97580 0.53346 0.16541
0.04391 0.54935 0.15791
0.09262 0.55215 0.15848
0.14518 0.55503 0.15899
0.20105 0.55798 0.15946
0.25968 0.56100 0.15989
0.32053 0.56406 0.16028
0.38307 0.56717 0.16065
0.44676 0.57029 0.16101
0.51106 0.57344 0.16136
0.57543 0.57658 0.16171
0.63933 0.57971 0.16207
0.70223 0.58282 0.16245
0.76358 0.58590 0.16286
0.82285 0.58893 0.16329
0.87949 0.59189 0.16377
0.93297 0.59479 0.16430
0.98275 0.59760 0.16488
0.05081 0.61323 0.15735
0.09963 0.61601 0.15793
0.15229 0.61887 0.15844
0.20823 0.62181 0.15891
0.26692 0.62481 0.15934
0.32782 0.62786 0.15974
0.39040 0.63095 0.16011
0.45411 0.63406 0.16047
0.51842 0.63718 0.16082
0.58278 0.64031 0.16118
0.64666 0.64342 0.16154
0.70952 0.64651 0.16192
0.77082 0.64956 0.16233
0.83003 0.65257 0.16277
0.88659 0.65551 0.16325
0.93998 0.65839 0.16378
0.98966 0.66117 0.16437
0.05764 0.67623 0.15683
0.10657 0.67898 0.15740
0.15931 0.68181 0.15792
0.21533 0.68472 0.15839
0.27408 0.68769 0.15882
0.33503 0.69071 0.15922
0.39765 0.69377 0.15960
0.46138 0.69684 0.15996
0.52569 0.69994 0.16031
0.59004 0.70303 0.16067
0.65390 0.70611 0.16104
0.71672 0.70916 0.16142
0.77797 0.71218 0.16183
0.83711 0.71515 0.16228
0.89360 0.71806 0.16276
0.94689 0.72089 0.16330
0.99646 0.72364 0.16389
0.06434 0.73781 0.15635
0.11338 0.74052 0.15692
0.16621 0.74331 0.15744
0.22230 0.74617 0.15791
0.28112 0.74910 0.15834
0.34211 0.75207 0.15875
0.40476 0.75508 0.15913
0.46851 0.75812 0.15949
0.53282 0.76116 0.15985
0.59717 0.76420 0.16021
0.66100 0.76723 0.16058
0.72379 0.77024 0.16097
0.78498 0.77321 0.16139
0.84405 0.77613 0.16184
0.90046 0.77898 0.16233
0.95366 0.78177 0.16287
1.00000 0.78446 0.16347
0.07088 0.79743 0.15592
0.12001 0.80008 0.15650
0.17293 0.80282 0.15702
0.22910 0.80563 0.15750
0.28797 0.80850 0.15793
0.34902 0.81141 0.15834
0.41169 0.81436 0.15872
0.47546 0.81733 0.15909
0.53977 0.82032 0.15945
0.60411 0.82330 0.15982
0.66791 0.82626 0.16019
0.73066 0.82921 0.16059
0.79180 0.83211 0.16101
0.85080 0.83497 0.16146
0.90712 0.83776 0.16196
0.96023 0.84047 0.16250
1.00000 0.84311 0.16311
0.07720 0.85456 0.15558
0.12643 0.85715 0.15616
0.17944 0.85981 0.15668
0.23567 0.86255 0.15716
0.29461 0.86534 0.15760
0.35569 0.86818 0.15801
0.41840 0.87106 0.15839
0.48218 0.87396 0.15877
0.54649 0.87686 0.15913
0.61081 0.87977 0.15950
0.67459 0.88266 0.15988
0.73730 0.88553 0.16028
0.79838 0.88835 0.16071
0.85731 0.89113 0.16116
0.91355 0.89384 0.16167
0.96655 0.89648 0.16222
1.00000 0.89903 0.16283
0.08325 0.90866 0.15532
0.13258 0.91116 0.15590
0.18567 0.91374 0.15643
0.24198 0.91639 0.15691
0.30097 0.91910 0.15736
0.36209 0.92185 0.15777
0.42483 0.92464 0.15816
0.48862 0.92745 0.15854
0.55294 0.93027 0.15891
0.61724 0.93308 0.15928
0.68099 0.93588 0.15967
0.74365 0.93866 0.16007
0.80468 0.94139 0.16050
0.86354 0.94407 0.16097
0.91969 0.94669 0.16147
0.97259 0.94924 0.16203
1.00000 0.95169 0.16265
0.08899 0.95919 0.15517
0.13842 0.96159 0.15576
0.19159 0.96407 0.15629
0.24797 0.96662 0.15678
0.30701 0.96923 0.15722
0.36818 0.97188 0.15764
0.43093 0.97457 0.15804
0.49474 0.97728 0.15842
0.55905 0.97999 0.15880
0.62334 0.98270 0.15918
0.68706 0.98540 0.15957
0.74967 0.98806 0.15998
0.81064 0.99069 0.16041
0.86942 0.99327 0.16088
0.92549 0.99578 0.16140
0.97829 0.99821 0.16196
1.00000 1.00000 0.16258
0.00000 0.02548 0.21349
0.03633 0.02776 0.21415
0.08809 0.03014 0.21475
0.14326 0.03260 0.21530
0.20131 0.03512 0.21581
0.26170 0.03770 0.21628
0.32389 0.04033 0.21673
0.38734 0.04299 0.21716
0.45151 0.04566 0.21758
0.51587 0.04834 0.21801
0.57988 0.05102 0.21844
0.64299 0.05368 0.21888
0.70468 0.05632 0.21935
0.76439 0.05891 0.21985
0.82159 0.06144 0.22038
0.87574 0.06392 0.22097
0.92631 0.06631 0.22161
0.00000 0.07314 0.21348
0.04190 0.07554 0.21413
0.09376 0.07803 0.21473
0.14902 0.08060 0.21527
0.20715 0.08324 0.21578
0.26760 0.08593 0.21625
0.32984 0.08867 0.21670
0.39333 0.09143 0.21713
0.45753 0.09422 0.21755
0.52189 0.09701 0.21797
0.58589 0.09979 0.21840
0.64899 0.10256 0.21884
0.71063 0.10530 0.21931
0.77029 0.10799 0.21981
0.82743 0.11064 0.22035
0.88151 0.11321 0.22093
