luts/fuji-green.cube
# fuji-green  (original film-style LUT, free for any use)
LUT_3D_SIZE 5
0.02030 0.05000 0.03940
0.22148 0.06137 0.04942
0.44152 0.07311 0.05967
0.66495 0.08495 0.07002
0.87627 0.09667 0.08032
0.03645 0.26218 0.05163
0.23886 0.27476 0.06174
0.45943 0.28766 0.07208
0.68268 0.30063 0.08251
0.89313 0.31343 0.09288
0.05338 0.49434 0.06428
0.25696 0.50739 0.07448
0.47801 0.52071 0.08490
0.70103 0.53407 0.09539
0.91055 0.54722 0.10582
0.07047 0.72882 0.07704
0.27516 0.74160 0.08731
0.49662 0.75461 0.09778
0.71935 0.76762 0.10833
0.92788 0.78037 0.11880
0.08707 0.94796 0.08959
0.29282 0.95973 0.09991
0.51463 0.97169 0.11043
0.73702 0.98361 0.12102
0.94450 0.99523 0.13152
0.03035 0.05973 0.24172
0.23270 0.07120 0.25289
0.45323 0.08300 0.26426
0.67646 0.09492 0.27569
0.88690 0.10669 0.28704
0.04661 0.27313 0.25516
0.25017 0.28577 0.26639
0.47119 0.29871 0.27782
0.69422 0.31172 0.28930
0.90375 0.32454 0.30069
0.06364 0.50576 0.26898
0.26833 0.51883 0.28026
0.48980 0.53217 0.29173
0.71256 0.54553 0.30325
0.92113 0.55867 0.31466
0.08079 0.73995 0.28286
0.28656 0.75273 0.29418
0.50841 0.76572 0.30568
0.73085 0.77869 0.31721
0.93839 0.79140 0.32864
0.09742 0.95805 0.29648
0.30422 0.96979 0.30783
0.52639 0.98170 0.31934
0.74845 0.99355 0.33088
0.95491 1.00000 0.34230
0.04060 0.06964 0.46307
0.24409 0.08119 0.47470
0.46508 0.09307 0.48650
0.68807 0.10505 0.49832
0.89759 0.11687 0.51002
0.05698 0.28422 0.47699
0.26164 0.29692 0.48866
0.48309 0.30990 0.50048
0.70584 0.32293 0.51232
0.91442 0.33577 0.52403
0.07409 0.51728 0.49126
0.27986 0.53038 0.50294
0.50171 0.54373 0.51478
0.72417 0.55708 0.52662
0.93175 0.57020 0.53832
0.09129 0.75116 0.50554
0.29811 0.76392 0.51723
0.52031 0.77689 0.52906
0.74242 0.78983 0.54089
0.94894 0.80249 0.55257
0.10795 0.96818 0.51952
0.31576 0.97987 0.53120
0.53825 0.99173 0.54301
0.75995 1.00000 0.55481
0.96536 1.00000 0.56646
0.05094 0.07964 0.68723
0.25554 0.09127 0.69864
0.47694 0.10321 0.71017
0.69966 0.11524 0.72169
0.90822 0.12711 0.73305
0.06742 0.29537 0.70093
0.27316 0.30811 0.71234
0.49499 0.32112 0.72387
0.71744 0.33418 0.73537
0.92503 0.34703 0.74671
0.08461 0.52882 0.71492
0.29142 0.54193 0.72631
0.51362 0.55528 0.73782
0.73575 0.56862 0.74930
0.94231 0.58172 0.76060
0.10186 0.76233 0.72888
0.30968 0.77508 0.74025
0.53221 0.78802 0.75172
0.75394 0.80092 0.76316
0.95942 0.81352 0.77441
0.11853 0.97825 0.74249
0.32732 0.98989 0.75382
0.55010 1.00000 0.76524
0.77140 1.00000 0.77662
0.97572 1.00000 0.78781
0.06125 0.08962 0.89802
0.26692 0.10132 0.90850
0.48870 0.11333 0.91908
0.71112 0.12540 0.92961
0.91869 0.13731 0.93994
0.07783 0.30646 0.91076
0.28460 0.31924 0.92122
0.50678 0.33228 0.93176
0.72890 0.34536 0.94225
0.93546 0.35821 0.95253
0.09508 0.54027 0.92376
0.30289 0.55339 0.93417
0.52542 0.56673 0.94466
0.74717 0.58006 0.95509
0.95268 0.59313 0.96530
0.11237 0.77339 0.93668
0.32117 0.78611 0.94703
0.54398 0.79902 0.95746
0.76531 0.81186 0.96781
0.96970 0.82441 0.97794
0.12906 0.98815 0.94921
0.33878 0.99974 0.95949
0.56182 1.00000 0.96983
0.78268 1.00000 0.98009
0.98584 1.00000 0.99021
