luts/fuji-green.cube
# fuji-green  (original film-style LUT, free for any use)
LUT_3D_SIZE 9
0.02030 0.05000 0.03940
0.11756 0.05563 0.04437
0.22148 0.06137 0.04942
0.33011 0.06721 0.05452
0.44152 0.07311 0.05967
0.55378 0.07903 0.06484
0.66495 0.08495 0.07002
0.77309 0.09084 0.07518
0.87627 0.09667 0.08032
0.02823 0.15249 0.04544
0.12585 0.15847 0.05043
0.23004 0.16456 0.05551
0.33885 0.17073 0.06064
0.45035 0.17696 0.06581
0.56261 0.18322 0.07100
0.67370 0.18946 0.07620
0.78167 0.19568 0.08138
0.88459 0.20182 0.08654
0.03645 0.26218 0.05163
0.13441 0.26841 0.05665
0.23886 0.27476 0.06174
0.34784 0.28118 0.06689
0.45943 0.28766 0.07208
0.57169 0.29415 0.07730
0.68268 0.30063 0.08251
0.79047 0.30706 0.08772
0.89313 0.31343 0.09288
0.04485 0.37686 0.05792
0.14316 0.38327 0.06296
0.24786 0.38977 0.06808
0.35701 0.39635 0.07325
0.46867 0.40298 0.07846
0.58092 0.40961 0.08369
0.69182 0.41623 0.08892
0.79943 0.42280 0.09414
0.90181 0.42930 0.09933
0.05338 0.49434 0.06428
0.15202 0.50082 0.06934
0.25696 0.50739 0.07448
0.36627 0.51403 0.07967
0.47801 0.52071 0.08490
0.59024 0.52740 0.09014
0.70103 0.53407 0.09539
0.80844 0.54068 0.10062
0.91055 0.54722 0.10582
0.06194 0.61239 0.07067
0.16091 0.61885 0.07575
0.26609 0.62540 0.08090
0.37555 0.63202 0.08611
0.48735 0.63866 0.09135
0.59956 0.64531 0.09661
0.71023 0.65193 0.10187
0.81745 0.65850 0.10712
0.91927 0.66498 0.11232
0.07047 0.72882 0.07704
0.16975 0.73517 0.08214
0.27516 0.74160 0.08731
0.38476 0.74809 0.09253
0.49662 0.75461 0.09778
0.60880 0.76113 0.10306
0.71935 0.76762 0.10833
0.82636 0.77404 0.11359
0.92788 0.78037 0.11880
0.07887 0.84141 0.08336
0.17846 0.84756 0.08848
0.28410 0.85378 0.09366
0.39384 0.86006 0.09889
0.50574 0.86636 0.10416
0.61788 0.87265 0.10944
0.72831 0.87891 0.11473
0.83510 0.88510 0.11999
0.93632 0.89119 0.12521
0.08707 0.94796 0.08959
0.18697 0.95381 0.09472
0.29282 0.95973 0.09991
0.40269 0.96571 0.10516
0.51463 0.97169 0.11043
0.62672 0.97767 0.11573
0.73702 0.98361 0.12102
0.84359 0.98947 0.12629
0.94450 0.99523 0.13152
0.02529 0.05484 0.13717
0.12289 0.06049 0.14247
0.22706 0.06626 0.14785
0.33586 0.07211 0.15328
0.44735 0.07803 0.15875
0.55961 0.08397 0.16424
0.67068 0.08991 0.16973
0.77865 0.09581 0.17520
0.88157 0.10166 0.18063
0.03326 0.15768 0.14356
0.13121 0.16368 0.14889
0.23564 0.16979 0.15428
0.34462 0.17598 0.15973
0.45620 0.18222 0.16522
0.56845 0.18849 0.17073
0.67944 0.19475 0.17623
0.78723 0.20097 0.18172
0.88989 0.20713 0.18717
0.04150 0.26763 0.15009
0.13980 0.27388 0.15544
0.24448 0.28024 0.16085
0.35363 0.28668 0.16632
0.46529 0.29316 0.17183
0.57753 0.29966 0.17735
0.68843 0.30615 0.18287
0.79604 0.31259 0.18837
0.89843 0.31896 0.19383
0.04993 0.38248 0.15672
0.14857 0.38890 0.16209
0.25350 0.39541 0.16752
0.36281 0.40200 0.17301
0.47454 0.40863 0.17852
0.58677 0.41527 0.18406
0.69757 0.42189 0.18959
0.80499 0.42847 0.19510
0.90710 0.43497 0.20058
0.05848 0.50003 0.16342
0.15744 0.50651 0.16880
0.26262 0.51309 0.17424
0.37208 0.51974 0.17974
0.48388 0.52642 0.18528
0.59609 0.53311 0.19082
0.70678 0.53978 0.19637
0.81400 0.54639 0.20189
0.91582 0.55292 0.20737
0.06706 0.61806 0.17013
0.16635 0.62452 0.17553
0.27176 0.63107 0.18099
0.38136 0.63769 0.18650
0.49322 0.64433 0.19204
0.60541 0.65098 0.19760
0.71597 0.65760 0.20315
0.82299 0.66416 0.20869
0.92453 0.67063 0.21418
0.07560 0.73437 0.17683
0.17520 0.74072 0.18224
0.28084 0.74715 0.18771
0.39058 0.75364 0.19323
0.50249 0.76015 0.19878
0.61464 0.76666 0.20435
0.72508 0.77314 0.20991
0.83189 0.77956 0.21545
0.93313 0.78587 0.22094
0.08401 0.84675 0.18347
0.18392 0.85289 0.18888
0.28978 0.85911 0.19437
0.39965 0.86538 0.19990
0.51161 0.87167 0.20546
0.62371 0.87796 0.21103
0.73403 0.88420 0.21660
0.84061 0.89038 0.22214
0.94154 0.89645 0.22764
0.09221 0.95300 0.19001
0.19242 0.95883 0.19543
0.29850 0.96475 0.20092
0.40850 0.97071 0.20646
0.52049 0.97669 0.21203
0.63254 0.98265 0.21761
0.74272 0.98857 0.22318
0.84908 0.99441 0.22872
0.94969 1.00000 0.23422
0.03035 0.05973 0.24172
0.12828 0.06540 0.24727
0.23270 0.07120 0.25289
0.34166 0.07707 0.25856
0.45323 0.08300 0.26426
0.56548 0.08896 0.26998
0.67646 0.09492 0.27569
0.78425 0.10084 0.28139
0.88690 0.10669 0.28704
0.03835 0.16292 0.24837
0.13663 0.16894 0.25394
0.24131 0.17507 0.25958
0.35044 0.18128 0.26526
0.46209 0.18753 0.27098
0.57433 0.19382 0.27671
0.68523 0.20009 0.28244
0.79283 0.20632 0.28814
0.89522 0.21248 0.29380
0.04661 0.27313 0.25516
0.14524 0.27940 0.26074
0.25017 0.28577 0.26639
0.35946 0.29222 0.27209
0.47119 0.29871 0.27782
0.58342 0.30522 0.28357
0.69422 0.31172 0.28930
0.80164 0.31817 0.29502
0.90375 0.32454 0.30069
0.05507 0.38814 0.26204
0.15403 0.39457 0.26764
0.25920 0.40109 0.27330
0.36866 0.40769 0.27901
0.48046 0.41433 0.28475
0.59267 0.42097 0.29051
0.70335 0.42760 0.29625
0.81058 0.43418 0.30197
0.91241 0.44067 0.30765
0.06364 0.50576 0.26898
0.16292 0.51225 0.27459
0.26833 0.51883 0.28026
0.37794 0.52548 0.28598
0.48980 0.53217 0.29173
0.60199 0.53886 0.29750
0.71256 0.54553 0.30325
0.81958 0.55214 0.30898
0.92113 0.55867 0.31466
0.07224 0.62376 0.27593
0.17184 0.63023 0.28155
0.27748 0.63678 0.28723
0.38723 0.64339 0.29297
0.49914 0.65004 0.29872
0.61130 0.65668 0.30449
0.72175 0.66330 0.31025
0.82857 0.66985 0.31598
0.92981 0.67631 0.32167
0.08079 0.73995 0.28286
0.18070 0.74630 0.28849
0.28656 0.75273 0.29418
0.39644 0.75921 0.29992
0.50841 0.76572 0.30568
0.62052 0.77223 0.31145
0.73085 0.77869 0.31721
0.83745 0.78510 0.32295
0.93839 0.79140 0.32864
0.08921 0.85212 0.28972
0.18942 0.85825 0.29536
0.29550 0.86447 0.30106
0.40551 0.87073 0.30680
0.51752 0.87701 0.31257
0.62958 0.88328 0.31834
0.73977 0.88951 0.32410
0.84615 0.89567 0.32984
0.94679 0.90173 0.33553
0.09742 0.95805 0.29648
0.19793 0.96388 0.30212
0.30422 0.96979 0.30783
0.41435 0.97574 0.31357
0.52639 0.98170 0.31934
0.63840 0.98765 0.32512
0.74845 0.99355 0.33088
0.85460 0.99937 0.33661
0.95491 1.00000 0.34230
0.03546 0.06467 0.35103
0.13372 0.07037 0.35674
0.23838 0.07618 0.36252
0.34750 0.08207 0.36834
0.45915 0.08802 0.37419
0.57138 0.09400 0.38005
0.68226 0.09997 0.38590
0.78986 0.10590 0.39173
0.89224 0.11177 0.39751
0.04348 0.16821 0.35785
0.14209 0.17424 0.36358
0.24701 0.18039 0.36936
0.35630 0.18661 0.37520
0.46802 0.19288 0.38106
0.58024 0.19918 0.38693
0.69103 0.20546 0.39279
0.79845 0.21170 0.39862
0.90056 0.21787 0.40441
0.05178 0.27866 0.36480
0.15072 0.28495 0.37054
0.25589 0.29133 0.37634
0.36534 0.29779 0.38218
0.47713 0.30429 0.38805
0.58934 0.31081 0.39393
0.70003 0.31731 0.39980
0.80725 0.32377 0.40564
0.90909 0.33015 0.41143
0.06026 0.39384 0.37184
0.15953 0.40027 0.37759
0.26494 0.40681 0.38340
0.37454 0.41341 0.38925
0.48640 0.42005 0.39513
0.59859 0.42670 0.40101
0.70916 0.43333 0.40688
0.81619 0.43991 0.41273
0.91774 0.44641 0.41852
0.06885 0.51151 0.37893
0.16844 0.51801 0.38469
0.27408 0.52460 0.39050
0.38383 0.53125 0.39636
0.49575 0.53794 0.40224
0.60790 0.54463 0.40813
0.71836 0.55130 0.41401
0.82519 0.55791 0.41985
0.92644 0.56443 0.42565
0.07746 0.62949 0.38603
0.17737 0.63595 0.39179
0.28324 0.64251 0.39762
0.39312 0.64912 0.40348
0.50509 0.65576 0.40936
0.61721 0.66240 0.41525
0.72754 0.66901 0.42113
0.83416 0.67556 0.42698
0.93511 0.68201 0.43277
0.08602 0.74555 0.39310
0.18624 0.75189 0.39887
0.29232 0.75832 0.40469
0.40234 0.76480 0.41056
0.51435 0.77130 0.41645
0.62643 0.77780 0.42234
0.73663 0.78426 0.42822
0.84302 0.79065 0.43406
0.94367 0.79695 0.43985
0.09445 0.85750 0.40010
0.19497 0.86363 0.40587
0.30126 0.86983 0.41170
0.41141 0.87609 0.41757
0.52346 0.88236 0.42345
0.63548 0.88862 0.42934
0.74554 0.89484 0.43522
0.85171 0.90098 0.44106
0.95204 0.90702 0.44685
0.10267 0.96312 0.40699
0.20348 0.96894 0.41276
0.30998 0.97483 0.41859
0.42024 0.98077 0.42446
0.53232 0.98672 0.43034
0.64428 0.99265 0.43623
0.75420 0.99853 0.44210
0.86013 1.00000 0.44794
0.96014 1.00000 0.45372
0.04060 0.06964 0.46307
0.13919 0.07536 0.46885
0.24409 0.08119 0.47470
0.35337 0.08711 0.48059
0.46508 0.09307 0.48650
0.57729 0.09906 0.49241
0.68807 0.10505 0.49832
0.79548 0.11099 0.50419
0.89759 0.11687 0.51002
0.04866 0.17352 0.46997
0.14759 0.17957 0.47576
0.25274 0.18573 0.48162
0.36218 0.19197 0.48751
0.47397 0.19826 0.49343
0.58617 0.20456 0.49936
0.69685 0.21085 0.50526
0.80407 0.21710 0.51114
0.90590 0.22328 0.51697
0.05698 0.28422 0.47699
0.15624 0.29052 0.48280
0.26164 0.29692 0.48866
0.37123 0.30339 0.49456
0.48309 0.30990 0.50048
0.59527 0.31642 0.50641
0.70584 0.32293 0.51232
0.81287 0.32939 0.51820
0.91442 0.33577 0.52403
0.06548 0.39955 0.48410
0.16507 0.40599 0.48991
0.27070 0.41254 0.49578
0.38045 0.41914 0.50169
0.49236 0.42579 0.50761
0.60452 0.43245 0.51354
0.71498 0.43908 0.51946
0.82180 0.44566 0.52533
0.92306 0.45215 0.53116
0.07409 0.51728 0.49126
0.17399 0.52379 0.49707
0.27986 0.53038 0.50294
0.38974 0.53704 0.50885
0.50171 0.54373 0.51478
0.61383 0.55042 0.52071
0.72417 0.55708 0.52662
0.83079 0.56368 0.53250
0.93175 0.57020 0.53832
0.08272 0.63522 0.49841
0.18293 0.64169 0.50423
0.28902 0.64824 0.51010
0.39904 0.65486 0.51601
0.51105 0.66149 0.52194
0.62313 0.66813 0.52787
0.73334 0.67473 0.53378
0.83975 0.68127 0.53965
0.94041 0.68772 0.54547
0.09129 0.75116 0.50554
0.19181 0.75750 0.51135
0.29811 0.76392 0.51723
0.40825 0.77039 0.52313
0.52031 0.77689 0.52906
0.63234 0.78338 0.53498
0.74242 0.78983 0.54089
0.84860 0.79621 0.54676
0.94894 0.80249 0.55257
0.09973 0.86288 0.51258
0.20054 0.86900 0.51840
0.30705 0.87520 0.52427
0.41731 0.88144 0.53018
0.52940 0.88770 0.53610
0.64138 0.89395 0.54202
0.75131 0.90015 0.54791
0.85726 0.90628 0.55378
0.95729 0.91231 0.55958
0.10795 0.96818 0.51952
0.20905 0.97399 0.52533
0.31576 0.97987 0.53120
0.42614 0.98579 0.53710
0.53825 0.99173 0.54301
0.65017 0.99764 0.54892
0.75995 1.00000 0.55481
0.86566 1.00000 0.56067
0.96536 1.00000 0.56646
0.04577 0.07464 0.57581
0.14468 0.08037 0.58159
0.24982 0.08623 0.58741
0.35924 0.09216 0.59328
0.47102 0.09814 0.59917
0.58321 0.10415 0.60505
0.69388 0.11014 0.61092
0.80109 0.11610 0.61676
0.90292 0.12199 0.62254
0.05385 0.17885 0.58270
0.15310 0.18492 0.58848
0.25849 0.19109 0.59432
0.36807 0.19735 0.60019
0.47992 0.20365 0.60608
0.59209 0.20996 0.61197
0.70266 0.21626 0.61784
0.80968 0.22252 0.62367
0.91123 0.22870 0.62945
0.06220 0.28980 0.58971
0.16178 0.29610 0.59550
0.26740 0.30251 0.60133
0.37713 0.30899 0.60721
0.48904 0.31551 0.61310
0.60120 0.32205 0.61899
0.71165 0.32856 0.62486
0.81848 0.33502 0.63069
0.91974 0.34141 0.63647
0.07072 0.40527 0.59680
0.17062 0.41172 0.60259
0.27648 0.41827 0.60843
0.38636 0.42489 0.61430
0.49832 0.43154 0.62019
0.61045 0.43819 0.62608
0.72078 0.44483 0.63194
0.82741 0.45140 0.63777
0.92837 0.45790 0.64355
0.07935 0.52306 0.60393
0.17956 0.52956 0.60971
0.28564 0.53616 0.61555
0.39566 0.54282 0.62143
0.50767 0.54951 0.62731
0.61976 0.55620 0.63320
0.72997 0.56286 0.63906
0.83638 0.56946 0.64488
0.93705 0.57597 0.65065
0.08799 0.64096 0.61105
0.18851 0.64742 0.61684
0.29481 0.65398 0.62268
0.40495 0.66059 0.62854
0.51701 0.66722 0.63443
0.62905 0.67385 0.64031
0.73913 0.68045 0.64616
0.84532 0.68698 0.65198
0.94568 0.69341 0.65774
0.09657 0.75676 0.61814
0.19739 0.76309 0.62392
0.30390 0.76951 0.62975
0.41417 0.77598 0.63562
0.52627 0.78247 0.64149
0.63825 0.78894 0.64736
0.74819 0.79538 0.65321
0.85415 0.80175 0.65902
0.95420 0.80802 0.66477
0.10502 0.86825 0.62514
0.20612 0.87436 0.63092
0.31284 0.88055 0.63675
0.42323 0.88679 0.64260
0.53535 0.89304 0.64847
0.64728 0.89927 0.65433
0.75707 0.90546 0.66017
0.86280 0.91157 0.66596
0.96252 0.91758 0.67170
0.11324 0.97323 0.63202
0.21463 0.97903 0.63780
0.32154 0.98490 0.64361
0.43204 0.99080 0.64946
0.54419 0.99672 0.65532
0.65605 1.00000 0.66117
0.76568 1.00000 0.66700
0.87117 1.00000 0.67278
0.97056 1.00000 0.67850
0.05094 0.07964 0.68723
0.15017 0.08540 0.69291
0.25554 0.09127 0.69864
0.36511 0.09721 0.70440
0.47694 0.10321 0.71017
0.58911 0.10923 0.71594
0.69966 0.11524 0.72169
0.80668 0.12121 0.72740
0.90822 0.12711 0.73305
0.05905 0.18418 0.69403
0.15862 0.19027 0.69970
0.26423 0.19646 0.70543
0.37395 0.20272 0.71119
0.48585 0.20903 0.71697
0.59800 0.21536 0.72273
0.70845 0.22167 0.72848
0.81527 0.22793 0.73419
0.91653 0.23412 0.73983
0.06742 0.29537 0.70093
0.16731 0.30169 0.70661
0.27316 0.30811 0.71234
0.38303 0.31460 0.71809
0.49499 0.32112 0.72387
0.60711 0.32766 0.72963
0.71744 0.33418 0.73537
0.82406 0.34064 0.74107
0.92503 0.34703 0.74671
0.07597 0.41098 0.70791
0.17617 0.41744 0.71358
0.28224 0.42400 0.71931
0.39226 0.43062 0.72506
0.50427 0.43727 0.73083
0.61636 0.44393 0.73659
0.72657 0.45057 0.74233
0.83298 0.45714 0.74802
0.93365 0.46363 0.75365
0.08461 0.52882 0.71492
0.18512 0.53533 0.72059
0.29142 0.54193 0.72631
0.40156 0.54859 0.73206
0.51362 0.55528 0.73782
0.62566 0.56197 0.74357
0.73575 0.56862 0.74930
0.84194 0.57522 0.75498
0.94231 0.58172 0.76060
0.09326 0.64667 0.72192
0.19408 0.65314 0.72759
0.30059 0.65969 0.73330
0.41086 0.66630 0.73905
0.52296 0.67293 0.74480
0.63495 0.67955 0.75054
0.74490 0.68614 0.75626
0.85087 0.69266 0.76193
0.95092 0.69909 0.76754
0.10186 0.76233 0.72888
0.20296 0.76867 0.73454
0.30968 0.77508 0.74025
0.42007 0.78154 0.74598
0.53221 0.78802 0.75172
0.64414 0.79449 0.75745
0.75394 0.80092 0.76316
0.85968 0.80727 0.76881
0.95942 0.81352 0.77441
0.11031 0.87360 0.73575
0.21170 0.87970 0.74140
0.31862 0.88588 0.74710
0.42912 0.89210 0.75282
0.54128 0.89834 0.75855
0.65315 0.90456 0.76427
0.76280 0.91073 0.76996
0.86830 0.91683 0.77560
0.96771 0.92282 0.78118
0.11853 0.97825 0.74249
0.22021 0.98403 0.74813
0.32732 0.98989 0.75382
0.43793 0.99578 0.75953
0.55010 1.00000 0.76524
0.66190 1.00000 0.77095
0.77140 1.00000 0.77662
0.87665 1.00000 0.78225
0.97572 1.00000 0.78781
0.05611 0.08464 0.79531
0.15565 0.09041 0.80080
0.26124 0.09630 0.80634
0.37095 0.10227 0.81191
0.48284 0.10828 0.81748
0.59497 0.11431 0.82305
0.70542 0.12033 0.82859
0.81223 0.12631 0.83409
0.91349 0.13222 0.83953
0.06425 0.18951 0.80191
0.16412 0.19561 0.80740
0.26995 0.20181 0.81294
0.37981 0.20809 0.81850
0.49176 0.21441 0.82407
0.60387 0.22075 0.82964
0.71420 0.22706 0.83517
0.82082 0.23333 0.84066
0.92178 0.23952 0.84609
0.07264 0.30093 0.80862
0.17283 0.30726 0.81411
0.27889 0.31369 0.81964
0.38890 0.32018 0.82520
0.50091 0.32672 0.83076
0.61298 0.33326 0.83632
0.72320 0.33978 0.84184
0.82961 0.34625 0.84733
0.93028 0.35264 0.85274
0.08120 0.41668 0.81540
0.18170 0.42315 0.82088
0.28799 0.42971 0.82640
0.39814 0.43633 0.83195
0.51019 0.44299 0.83751
0.62223 0.44965 0.84306
0.73232 0.45628 0.84857
0.83851 0.46286 0.85404
0.93888 0.46935 0.85945
0.08986 0.53456 0.82220
0.19066 0.54108 0.82768
0.29717 0.54768 0.83319
0.40744 0.55434 0.83873
0.51954 0.56103 0.84428
0.63154 0.56771 0.84981
0.74149 0.57436 0.85532
0.84746 0.58095 0.86077
0.94752 0.58745 0.86616
0.09853 0.65237 0.82899
0.19963 0.65883 0.83446
0.30635 0.66538 0.83997
0.41674 0.67199 0.84549
0.52888 0.67861 0.85103
0.64082 0.68523 0.85655
0.75063 0.69181 0.86204
0.85637 0.69832 0.86748
0.95612 0.70473 0.87285
0.10713 0.76788 0.83573
0.20852 0.77421 0.84119
0.31544 0.78062 0.84668
0.42595 0.78707 0.85220
0.53811 0.79354 0.85772
0.64999 0.80000 0.86322
0.75966 0.80641 0.86870
0.86517 0.81275 0.87412
0.96459 0.81899 0.87947
0.11558 0.87891 0.84238
0.21726 0.88500 0.84782
0.32438 0.89117 0.85330
0.43499 0.89738 0.85880
0.54718 0.90361 0.86431
0.65899 0.90981 0.86980
0.76849 0.91597 0.87525
0.87376 0.92205 0.88065
0.97285 0.92802 0.88599
0.12381 0.98323 0.84890
0.22577 0.98900 0.85432
0.33307 0.99484 0.85979
0.44379 1.00000 0.86527
0.55598 1.00000 0.87076
0.66772 1.00000 0.87623
0.77706 1.00000 0.88166
0.88208 1.00000 0.88704
0.98084 1.00000 0.89236
0.06125 0.08962 0.89802
0.16110 0.09541 0.90324
0.26692 0.10132 0.90850
0.37676 0.10730 0.91379
0.48870 0.11333 0.91908
0.60080 0.11937 0.92436
0.71112 0.12540 0.92961
0.81773 0.13139 0.93481
0.91869 0.13731 0.93994
0.06942 0.19481 0.90434
0.16959 0.20093 0.90955
0.27564 0.20715 0.91481
0.38563 0.21343 0.92009
0.49763 0.21977 0.92537
0.60970 0.22611 0.93064
0.71991 0.23243 0.93588
0.82631 0.23871 0.94107
0.92698 0.24490 0.94619
0.07783 0.30646 0.91076
0.17832 0.31280 0.91597
0.28460 0.31924 0.92122
0.39473 0.32574 0.92649
0.50678 0.33228 0.93176
0.61882 0.33883 0.93702
0.72890 0.34536 0.94225
0.83509 0.35183 0.94742
0.93546 0.35821 0.95253
0.08641 0.42235 0.91725
0.18721 0.42882 0.92245
0.29371 0.43539 0.92769
0.40397 0.44202 0.93294
0.51607 0.44868 0.93820
0.62806 0.45534 0.94345
0.73801 0.46197 0.94866
0.84399 0.46854 0.95382
0.94405 0.47502 0.95891
0.09508 0.54027 0.92376
0.19618 0.54679 0.92895
0.30289 0.55339 0.93417
0.41329 0.56005 0.93941
0.52542 0.56673 0.94466
0.63736 0.57342 0.94989
0.74717 0.58006 0.95509
0.85293 0.58665 0.96023
0.95268 0.59313 0.96530
0.10376 0.65802 0.93025
0.20515 0.66449 0.93542
0.31207 0.67103 0.94063
0.42258 0.67763 0.94586
0.53475 0.68425 0.95109
0.64663 0.69086 0.95631
0.75630 0.69743 0.96148
0.86182 0.70393 0.96661
0.96125 0.71033 0.97166
0.11237 0.77339 0.93668
0.21405 0.77971 0.94184
0.32117 0.78611 0.94703
0.43179 0.79256 0.95225
0.54398 0.79902 0.95746
0.65580 0.80546 0.96265
0.76531 0.81186 0.96781
0.87059 0.81819 0.97291
0.96970 0.82441 0.97794
0.12083 0.88417 0.94301
0.22279 0.89026 0.94816
0.33010 0.89642 0.95333
0.44082 0.90261 0.95853
0.55303 0.90882 0.96372
0.66477 0.91501 0.96889
0.77413 0.92115 0.97403
0.87916 0.92721 0.97910
0.97793 0.93316 0.98411
0.12906 0.98815 0.94921
0.23129 0.99391 0.95433
0.33878 0.99974 0.95949
0.44960 1.00000 0.96466
0.56182 1.00000 0.96983
0.67349 1.00000 0.97498
0.78268 1.00000 0.98009
0.88745 1.00000 0.98515
0.98584 1.00000 0.99021
