luts/fuji-green.cube
# fuji-green  (original film-style LUT, free for any use)
LUT_3D_SIZE 17
0.02030 0.05000 0.03940
0.06798 0.05280 0.04187
0.11756 0.05563 0.04437
0.16881 0.05849 0.04688
0.22148 0.06137 0.04942
0.27533 0.06428 0.05196
0.33011 0.06721 0.05452
0.38559 0.07015 0.05709
0.44152 0.07311 0.05967
0.49767 0.07607 0.06226
0.55378 0.07903 0.06484
0.60962 0.08199 0.06743
0.66495 0.08495 0.07002
0.71952 0.08790 0.07261
0.77309 0.09084 0.07518
0.82542 0.09377 0.07776
0.87627 0.09667 0.08032
0.02423 0.10021 0.04240
0.07200 0.10310 0.04488
0.12167 0.10602 0.04738
0.17299 0.10897 0.04990
0.22572 0.11195 0.05244
0.27962 0.11495 0.05499
0.33444 0.11797 0.05756
0.38995 0.12100 0.06014
0.44590 0.12404 0.06272
0.50205 0.12709 0.06531
0.55816 0.13014 0.06790
0.61399 0.13319 0.07050
0.66929 0.13624 0.07309
0.72382 0.13928 0.07568
0.77735 0.14230 0.07826
0.82962 0.14531 0.08084
0.88040 0.14830 0.08341
0.02823 0.15249 0.04544
0.07610 0.15546 0.04793
0.12585 0.15847 0.05043
0.17725 0.16150 0.05296
0.23004 0.16456 0.05551
0.28398 0.16764 0.05807
0.33885 0.17073 0.06064
0.39438 0.17384 0.06322
0.45035 0.17696 0.06581
0.50651 0.18009 0.06840
0.56261 0.18322 0.07100
0.61842 0.18634 0.07360
0.67370 0.18946 0.07620
0.72819 0.19258 0.07879
0.78167 0.19568 0.08138
0.83388 0.19876 0.08396
0.88459 0.20182 0.08654
0.03231 0.20657 0.04852
0.08027 0.20961 0.05101
0.13010 0.21269 0.05352
0.18157 0.21579 0.05606
0.23442 0.21892 0.05861
0.28842 0.22207 0.06117
0.34332 0.22523 0.06375
0.39888 0.22841 0.06634
0.45486 0.23159 0.06893
0.51103 0.23478 0.07153
0.56713 0.23798 0.07413
0.62292 0.24117 0.07674
0.67817 0.24435 0.07934
0.73262 0.24753 0.08194
0.78605 0.25069 0.08454
0.83820 0.25383 0.08712
0.88884 0.25695 0.08970
0.03645 0.26218 0.05163
0.08450 0.26528 0.05412
0.13441 0.26841 0.05665
0.18595 0.27158 0.05918
0.23886 0.27476 0.06174
0.29290 0.27796 0.06431
0.34784 0.28118 0.06689
0.40343 0.28442 0.06948
0.45943 0.28766 0.07208
0.51560 0.29090 0.07469
0.57169 0.29415 0.07730
0.62746 0.29739 0.07991
0.68268 0.30063 0.08251
0.73710 0.30385 0.08512
0.79047 0.30706 0.08772
0.84257 0.31026 0.09031
0.89313 0.31343 0.09288
0.04063 0.31904 0.05476
0.08877 0.32219 0.05727
0.13877 0.32537 0.05979
0.19037 0.32857 0.06234
0.24334 0.33180 0.06490
0.29743 0.33505 0.06747
0.35241 0.33832 0.07006
0.40802 0.34159 0.07266
0.46403 0.34488 0.07526
0.52021 0.34816 0.07787
0.57629 0.35145 0.08048
0.63205 0.35473 0.08310
0.68724 0.35801 0.08571
0.74161 0.36128 0.08832
0.79494 0.36453 0.09092
0.84697 0.36776 0.09351
0.89746 0.37097 0.09610
0.04485 0.37686 0.05792
0.09309 0.38005 0.06043
0.14316 0.38327 0.06296
0.19483 0.38651 0.06551
0.24786 0.38977 0.06808
0.30200 0.39306 0.07066
0.35701 0.39635 0.07325
0.41265 0.39966 0.07585
0.46867 0.40298 0.07846
0.52485 0.40629 0.08107
0.58092 0.40961 0.08369
0.63666 0.41292 0.08631
0.69182 0.41623 0.08892
0.74615 0.41952 0.09154
0.79943 0.42280 0.09414
0.85139 0.42606 0.09674
0.90181 0.42930 0.09933
0.04911 0.43539 0.06109
0.09743 0.43860 0.06361
0.14758 0.44184 0.06615
0.19932 0.44511 0.06870
0.25240 0.44839 0.07127
0.30659 0.45170 0.07386
0.36163 0.45502 0.07645
0.41729 0.45834 0.07906
0.47333 0.46168 0.08167
0.52951 0.46502 0.08429
0.58558 0.46835 0.08691
0.64129 0.47169 0.08953
0.69642 0.47501 0.09215
0.75071 0.47832 0.09477
0.80393 0.48161 0.09738
0.85583 0.48489 0.09998
0.90618 0.48814 0.10257
0.05338 0.49434 0.06428
0.10179 0.49756 0.06680
0.15202 0.50082 0.06934
0.20383 0.50409 0.07190
0.25696 0.50739 0.07448
0.31119 0.51070 0.07707
0.36627 0.51403 0.07967
0.42196 0.51737 0.08228
0.47801 0.52071 0.08490
0.53418 0.52406 0.08752
0.59024 0.52740 0.09014
0.64594 0.53074 0.09277
0.70103 0.53407 0.09539
0.75528 0.53738 0.09801
0.80844 0.54068 0.10062
0.86028 0.54396 0.10323
0.91055 0.54722 0.10582
0.05766 0.55343 0.06747
0.10616 0.55666 0.07000
0.15647 0.55991 0.07254
0.20834 0.56319 0.07511
0.26153 0.56648 0.07769
0.31580 0.56980 0.08028
0.37091 0.57312 0.08289
0.42662 0.57646 0.08550
0.48268 0.57980 0.08812
0.53886 0.58314 0.09075
0.59490 0.58648 0.09338
0.65058 0.58981 0.09601
0.70564 0.59314 0.09863
0.75984 0.59644 0.10125
0.81295 0.59974 0.10387
0.86472 0.60301 0.10648
0.91491 0.60625 0.10907
0.06194 0.61239 0.07067
0.11053 0.61561 0.07320
0.16091 0.61885 0.07575
0.21285 0.62212 0.07832
0.26609 0.62540 0.08090
0.32041 0.62870 0.08350
0.37555 0.63202 0.08611
0.43128 0.63534 0.08872
0.48735 0.63866 0.09135
0.54352 0.64199 0.09398
0.59956 0.64531 0.09661
0.65521 0.64863 0.09924
0.71023 0.65193 0.10187
0.76440 0.65522 0.10450
0.81745 0.65850 0.10712
0.86915 0.66175 0.10973
0.91927 0.66498 0.11232
0.06622 0.67095 0.07386
0.11489 0.67414 0.07639
0.16534 0.67736 0.07895
0.21734 0.68060 0.08152
0.27064 0.68387 0.08411
0.32500 0.68714 0.08671
0.38017 0.69043 0.08932
0.43592 0.69373 0.09194
0.49200 0.69703 0.09457
0.54817 0.70032 0.09721
0.60419 0.70362 0.09984
0.65982 0.70691 0.10248
0.71481 0.71019 0.10511
0.76893 0.71345 0.10774
0.82192 0.71669 0.11036
0.87356 0.71991 0.11297
0.92359 0.72311 0.11557
0.07047 0.72882 0.07704
0.11922 0.73198 0.07958
0.16975 0.73517 0.08214
0.22181 0.73838 0.08471
0.27516 0.74160 0.08731
0.32956 0.74484 0.08991
0.38476 0.74809 0.09253
0.44053 0.75135 0.09515
0.49662 0.75461 0.09778
0.55279 0.75787 0.10042
0.60880 0.76113 0.10306
0.66440 0.76438 0.10570
0.71935 0.76762 0.10833
0.77342 0.77084 0.11096
0.82636 0.77404 0.11359
0.87793 0.77722 0.11620
0.92788 0.78037 0.11880
0.07469 0.78573 0.08021
0.12353 0.78885 0.08275
0.17413 0.79199 0.08532
0.22625 0.79515 0.08790
0.27965 0.79833 0.09049
0.33409 0.80153 0.09310
0.38932 0.80473 0.09572
0.44511 0.80794 0.09835
0.50120 0.81115 0.10098
0.55737 0.81436 0.10362
0.61336 0.81757 0.10626
0.66894 0.82076 0.10890
0.72386 0.82395 0.11154
0.77788 0.82712 0.11417
0.83076 0.83027 0.11680
0.88226 0.83339 0.11941
0.93213 0.83649 0.12202
0.07887 0.84141 0.08336
0.12779 0.84447 0.08591
0.17846 0.84756 0.08848
0.23065 0.85066 0.09106
0.28410 0.85378 0.09366
0.33858 0.85692 0.09627
0.39384 0.86006 0.09889
0.44964 0.86321 0.10152
0.50574 0.86636 0.10416
0.56190 0.86951 0.10680
0.61788 0.87265 0.10944
0.67343 0.87579 0.11209
0.72831 0.87891 0.11473
0.78228 0.88201 0.11736
0.83510 0.88510 0.11999
0.88653 0.88816 0.12261
0.93632 0.89119 0.12521
0.08300 0.89558 0.08649
0.13200 0.89857 0.08904
0.18275 0.90159 0.09161
0.23499 0.90462 0.09420
0.28849 0.90767 0.09680
0.34301 0.91074 0.09941
0.39829 0.91381 0.10204
0.45411 0.91689 0.10467
0.51022 0.91997 0.10731
0.56637 0.92304 0.10996
0.62233 0.92611 0.11260
0.67786 0.92917 0.11525
0.73270 0.93222 0.11789
0.78662 0.93525 0.12052
0.83938 0.93826 0.12315
0.89074 0.94124 0.12577
0.94045 0.94419 0.12838
0.08707 0.94796 0.08959
0.13615 0.95087 0.09215
0.18697 0.95381 0.09472
0.23927 0.95676 0.09731
0.29282 0.95973 0.09991
0.34737 0.96271 0.10253
0.40269 0.96571 0.10516
0.45852 0.96870 0.10779
0.51463 0.97169 0.11043
0.57078 0.97469 0.11308
0.62672 0.97767 0.11573
0.68221 0.98065 0.11837
0.73702 0.98361 0.12102
0.79089 0.98655 0.12366
0.84359 0.98947 0.12629
0.89487 0.99236 0.12891
0.94450 0.99523 0.13152
0.02279 0.05241 0.08731
0.07056 0.05521 0.08987
0.12022 0.05805 0.09246
0.17154 0.06092 0.09506
0.22426 0.06381 0.09768
0.27816 0.06672 0.10031
0.33298 0.06965 0.10296
0.38848 0.07260 0.10562
0.44443 0.07556 0.10828
0.50058 0.07852 0.11095
0.55669 0.08149 0.11362
0.61251 0.08446 0.11629
0.66781 0.08742 0.11896
0.72234 0.09038 0.12163
0.77586 0.09332 0.12429
0.82814 0.09625 0.12695
0.87892 0.09916 0.12959
0.02672 0.10271 0.09040
0.07459 0.10561 0.09297
0.12433 0.10854 0.09556
0.17572 0.11149 0.09817
0.22851 0.11448 0.10080
0.28245 0.11748 0.10344
0.33731 0.12050 0.10609
0.39285 0.12354 0.10875
0.44881 0.12659 0.11142
0.50497 0.12964 0.11409
0.56107 0.13269 0.11677
0.61688 0.13575 0.11945
0.67215 0.13880 0.12212
0.72665 0.14184 0.12479
0.78012 0.14487 0.12746
0.83234 0.14788 0.13012
0.88304 0.15087 0.13276
0.03074 0.15508 0.09354
0.07869 0.15805 0.09611
0.12852 0.16106 0.09871
0.17998 0.16410 0.10132
0.23283 0.16716 0.10395
0.28683 0.17025 0.10660
0.34172 0.17335 0.10925
0.39729 0.17646 0.11192
0.45327 0.17959 0.11459
0.50943 0.18272 0.11727
0.56553 0.18585 0.11995
0.62132 0.18898 0.12264
0.67656 0.19210 0.12532
0.73102 0.19522 0.12799
0.78445 0.19832 0.13066
0.83660 0.20140 0.13332
0.88724 0.20447 0.13598
0.03482 0.20923 0.09671
0.08287 0.21228 0.09929
0.13278 0.21536 0.10189
0.18431 0.21846 0.10451
0.23722 0.22160 0.10714
0.29126 0.22475 0.10979
0.34620 0.22791 0.11246
0.40179 0.23109 0.11513
0.45778 0.23428 0.11781
0.51395 0.23748 0.12049
0.57004 0.24067 0.12318
0.62582 0.24387 0.12586
0.68103 0.24705 0.12855
0.73545 0.25023 0.13123
0.78883 0.25339 0.13390
0.84092 0.25654 0.13657
0.89148 0.25966 0.13922
0.03896 0.26490 0.09991
0.08710 0.26800 0.10249
0.13710 0.27114 0.10510
0.18870 0.27431 0.10772
0.24166 0.27749 0.11037
0.29575 0.28070 0.11302
0.35073 0.28392 0.11569
0.40634 0.28716 0.11836
0.46235 0.29040 0.12105
0.51852 0.29365 0.12373
0.57461 0.29690 0.12642
0.63036 0.30014 0.12911
0.68555 0.30338 0.13180
0.73993 0.30661 0.13449
0.79325 0.30982 0.13717
0.84528 0.31302 0.13983
0.89578 0.31619 0.14249
0.04315 0.32180 0.10313
0.09139 0.32496 0.10572
0.14146 0.32814 0.10834
0.19313 0.33135 0.11097
0.24615 0.33458 0.11361
0.30029 0.33783 0.11627
0.35530 0.34110 0.11894
0.41093 0.34438 0.12162
0.46696 0.34766 0.12431
0.52313 0.35095 0.12700
0.57921 0.35424 0.12970
0.63495 0.35753 0.13239
0.69011 0.36081 0.13508
0.74444 0.36407 0.13777
0.79771 0.36733 0.14045
0.84968 0.37056 0.14313
0.90010 0.37377 0.14579
0.04738 0.37967 0.10638
0.09571 0.38286 0.10898
0.14586 0.38608 0.11159
0.19759 0.38932 0.11423
0.25067 0.39259 0.11688
0.30486 0.39587 0.11954
0.35990 0.39917 0.12222
0.41556 0.40248 0.12490
0.47160 0.40580 0.12759
0.52778 0.40912 0.13029
0.58384 0.41244 0.13299
0.63956 0.41575 0.13569
0.69469 0.41906 0.13838
0.74898 0.42235 0.14107
0.80220 0.42563 0.14376
0.85411 0.42889 0.14643
0.90445 0.43213 0.14910
0.05164 0.43822 0.10964
0.10005 0.44143 0.11225
0.15028 0.44467 0.11487
0.20208 0.44794 0.11751
0.25522 0.45123 0.12016
0.30945 0.45454 0.12283
0.36453 0.45786 0.12551
0.42021 0.46119 0.12820
0.47626 0.46452 0.13089
0.53244 0.46786 0.13359
0.58850 0.47120 0.13629
0.64419 0.47453 0.13900
0.69929 0.47785 0.14169
0.75354 0.48116 0.14439
0.80671 0.48446 0.14708
0.85854 0.48773 0.14976
0.90881 0.49098 0.15242
0.05592 0.49718 0.11292
0.10442 0.50040 0.11552
0.15472 0.50366 0.11815
0.20659 0.50694 0.12079
0.25978 0.51024 0.12345
0.31406 0.51355 0.12613
0.36917 0.51688 0.12881
0.42487 0.52022 0.13150
0.48094 0.52356 0.13420
0.53711 0.52691 0.13690
0.59316 0.53025 0.13961
0.64883 0.53359 0.14231
0.70390 0.53692 0.14501
0.75811 0.54024 0.14771
0.81122 0.54353 0.15040
0.86299 0.54681 0.15308
0.91318 0.55007 0.15575
0.06021 0.55627 0.11620
0.10879 0.55950 0.11881
0.15917 0.56275 0.12144
0.21111 0.56603 0.12409
0.26435 0.56933 0.12675
0.31867 0.57264 0.12943
0.37381 0.57597 0.13211
0.42954 0.57931 0.13481
0.48561 0.58265 0.13751
0.54179 0.58599 0.14022
0.59782 0.58933 0.14293
0.65348 0.59266 0.14563
0.70850 0.59598 0.14834
0.76267 0.59929 0.15104
0.81572 0.60258 0.15373
0.86743 0.60585 0.15642
0.91754 0.60910 0.15909
0.06449 0.61522 0.11948
0.11316 0.61844 0.12210
0.16362 0.62168 0.12473
0.21562 0.62495 0.12738
0.26892 0.62823 0.13005
0.32328 0.63153 0.13273
0.37845 0.63485 0.13542
0.43420 0.63817 0.13812
0.49028 0.64149 0.14082
0.54645 0.64482 0.14353
0.60248 0.64814 0.14624
0.65810 0.65146 0.14895
0.71310 0.65476 0.15166
0.76722 0.65805 0.15436
0.82022 0.66132 0.15706
0.87186 0.66457 0.15974
0.92189 0.66780 0.16242
0.06877 0.67375 0.12276
0.11753 0.67695 0.12538
0.16805 0.68017 0.12801
0.22012 0.68341 0.13067
0.27347 0.68667 0.13334
0.32787 0.68995 0.13602
0.38307 0.69324 0.13872
0.43884 0.69653 0.14142
0.49493 0.69983 0.14413
0.55110 0.70313 0.14684
0.60711 0.70642 0.14955
0.66271 0.70971 0.15227
0.71767 0.71298 0.15498
0.77174 0.71624 0.15768
0.82469 0.71949 0.16038
0.87626 0.72271 0.16307
0.92621 0.72590 0.16574
0.07302 0.73159 0.12603
0.12186 0.73475 0.12865
0.17247 0.73794 0.13129
0.22459 0.74115 0.13395
0.27799 0.74437 0.13662
0.33243 0.74761 0.13931
0.38767 0.75086 0.14201
0.44345 0.75412 0.14471
0.49955 0.75738 0.14742
0.55572 0.76064 0.15014
0.61171 0.76389 0.15285
0.66729 0.76714 0.15557
0.72221 0.77037 0.15828
0.77624 0.77359 0.16099
0.82912 0.77679 0.16369
0.88062 0.77997 0.16638
0.93050 0.78312 0.16905
0.07725 0.78846 0.12928
0.12617 0.79157 0.13191
0.17685 0.79471 0.13455
0.22903 0.79787 0.13721
0.28248 0.80105 0.13989
0.33696 0.80425 0.14258
0.39222 0.80745 0.14528
0.44803 0.81066 0.14799
0.50413 0.81387 0.15070
0.56030 0.81707 0.15342
0.61628 0.82028 0.15613
0.67183 0.82347 0.15885
0.72671 0.82666 0.16157
0.78069 0.82982 0.16427
0.83351 0.83297 0.16698
0.88494 0.83609 0.16967
0.93474 0.83918 0.17235
0.08143 0.84408 0.13252
0.13044 0.84714 0.13515
0.18118 0.85022 0.13780
0.23343 0.85332 0.14046
0.28693 0.85644 0.14314
0.34145 0.85958 0.14583
0.39674 0.86272 0.14853
0.45256 0.86586 0.15124
0.50867 0.86901 0.15396
0.56483 0.87216 0.15668
0.62079 0.87530 0.15940
0.67631 0.87843 0.16212
0.73116 0.88155 0.16483
0.78509 0.88465 0.16754
0.83785 0.88773 0.17024
0.88921 0.89079 0.17294
0.93893 0.89382 0.17562
0.08556 0.89818 0.13573
0.13465 0.90117 0.13836
0.18547 0.90418 0.14101
0.23777 0.90721 0.14368
0.29132 0.91026 0.14636
0.34588 0.91332 0.14906
0.40119 0.91639 0.15176
0.45703 0.91947 0.15447
0.51315 0.92255 0.15719
0.56930 0.92562 0.15991
0.62524 0.92869 0.16263
0.68074 0.93174 0.16535
0.73555 0.93479 0.16807
0.78942 0.93781 0.17078
0.84213 0.94082 0.17349
0.89342 0.94379 0.17618
0.94305 0.94674 0.17886
0.08963 0.95047 0.13892
0.13880 0.95338 0.14155
0.18969 0.95632 0.14420
0.24205 0.95927 0.14687
0.29565 0.96224 0.14956
0.35024 0.96522 0.15225
0.40558 0.96820 0.15496
0.46144 0.97120 0.15767
0.51756 0.97419 0.16039
0.57370 0.97718 0.16311
0.62963 0.98016 0.16584
0.68510 0.98313 0.16856
0.73986 0.98608 0.17128
0.79369 0.98902 0.17399
0.84633 0.99194 0.17669
0.89755 0.99483 0.17939
0.94709 0.99769 0.18207
0.02529 0.05484 0.13717
0.07315 0.05765 0.13981
0.12289 0.06049 0.14247
0.17428 0.06336 0.14515
0.22706 0.06626 0.14785
0.28100 0.06918 0.15056
0.33586 0.07211 0.15328
0.39139 0.07507 0.15601
0.44735 0.07803 0.15875
0.50351 0.08100 0.16149
0.55961 0.08397 0.16424
0.61541 0.08694 0.16698
0.67068 0.08991 0.16973
0.72518 0.09287 0.17246
0.77865 0.09581 0.17520
0.83086 0.09875 0.17792
0.88157 0.10166 0.18063
0.02924 0.10523 0.14035
0.07719 0.10813 0.14299
0.12701 0.11107 0.14566
0.17847 0.11403 0.14835
0.23131 0.11702 0.15105
0.28531 0.12003 0.15376
0.34020 0.12305 0.15649
0.39576 0.12609 0.15922
0.45174 0.12915 0.16197
0.50790 0.13220 0.16471
0.56399 0.13526 0.16746
0.61979 0.13832 0.17021
0.67503 0.14137 0.17296
0.72948 0.14442 0.17570
0.78291 0.14745 0.17844
0.83506 0.15046 0.18117
0.88570 0.15346 0.18388
0.03326 0.15768 0.14356
0.08130 0.16066 0.14621
0.13121 0.16368 0.14889
0.18274 0.16672 0.15158
0.23564 0.16979 0.15428
0.28968 0.17287 0.15700
0.34462 0.17598 0.15973
0.40020 0.17910 0.16247
0.45620 0.18222 0.16522
0.51236 0.18536 0.16797
0.56845 0.18849 0.17073
0.62423 0.19162 0.17348
0.67944 0.19475 0.17623
0.73386 0.19787 0.17898
0.78723 0.20097 0.18172
0.83933 0.20406 0.18445
0.88989 0.20713 0.18717
0.03735 0.21190 0.14681
0.08549 0.21496 0.14947
0.13548 0.21804 0.15215
0.18707 0.22115 0.15484
0.24004 0.22429 0.15755
0.29412 0.22744 0.16028
0.34910 0.23061 0.16301
0.40471 0.23380 0.16576
0.46072 0.23699 0.16851
0.51689 0.24019 0.17126
0.57297 0.24338 0.17402
0.62873 0.24658 0.17678
0.68391 0.24977 0.17954
0.73829 0.25295 0.18229
0.79161 0.25611 0.18503
0.84364 0.25926 0.18776
0.89414 0.26239 0.19049
0.04150 0.26763 0.15009
0.08973 0.27074 0.15275
0.13980 0.27388 0.15544
0.19146 0.27705 0.15814
0.24448 0.28024 0.16085
0.29862 0.28345 0.16358
0.35363 0.28668 0.16632
0.40926 0.28992 0.16907
0.46529 0.29316 0.17183
0.52146 0.29641 0.17459
0.57753 0.29966 0.17735
0.63327 0.30291 0.18011
0.68843 0.30615 0.18287
0.74277 0.30938 0.18562
0.79604 0.31259 0.18837
0.84801 0.31579 0.19110
0.89843 0.31896 0.19383
0.04570 0.32458 0.15340
0.09401 0.32774 0.15606
0.14416 0.33093 0.15875
0.19590 0.33414 0.16146
0.24898 0.33737 0.16418
0.30316 0.34063 0.16691
0.35820 0.34390 0.16965
0.41386 0.34718 0.17241
0.46990 0.35047 0.17517
0.52607 0.35376 0.17793
0.58214 0.35705 0.18069
0.63786 0.36034 0.18346
0.69299 0.36362 0.18622
0.74728 0.36688 0.18898
0.80050 0.37014 0.19173
0.85240 0.37337 0.19447
0.90275 0.37658 0.19720
0.04993 0.38248 0.15672
0.09834 0.38567 0.15939
0.14857 0.38890 0.16209
0.20037 0.39214 0.16480
0.25350 0.39541 0.16752
0.30773 0.39870 0.17026
0.36281 0.40200 0.17301
0.41849 0.40531 0.17576
0.47454 0.40863 0.17852
0.53072 0.41195 0.18129
0.58677 0.41527 0.18406
0.64247 0.41859 0.18683
0.69757 0.42189 0.18959
0.75182 0.42519 0.19235
0.80499 0.42847 0.19510
0.85683 0.43173 0.19785
0.90710 0.43497 0.20058
0.05420 0.44106 0.16006
0.10269 0.44427 0.16274
0.15300 0.44752 0.16544
0.20486 0.45079 0.16815
0.25805 0.45408 0.17088
0.31233 0.45738 0.17362
0.36744 0.46071 0.17637
0.42314 0.46404 0.17913
0.47921 0.46737 0.18190
0.53538 0.47071 0.18467
0.59143 0.47405 0.18744
0.64710 0.47738 0.19021
0.70217 0.48071 0.19298
0.75638 0.48402 0.19574
0.80949 0.48731 0.19849
0.86126 0.49059 0.20124
0.91146 0.49384 0.20397
0.05848 0.50003 0.16342
0.10706 0.50326 0.16610
0.15744 0.50651 0.16880
0.20938 0.50979 0.17151
0.26262 0.51309 0.17424
0.31694 0.51641 0.17699
0.37208 0.51974 0.17974
0.42781 0.52308 0.18251
0.48388 0.52642 0.18528
0.54006 0.52977 0.18805
0.59609 0.53311 0.19082
0.65175 0.53645 0.19360
0.70678 0.53978 0.19637
0.76094 0.54310 0.19913
0.81400 0.54639 0.20189
0.86571 0.54967 0.20464
0.91582 0.55292 0.20737
0.06277 0.55912 0.16677
0.11144 0.56235 0.16946
0.16190 0.56561 0.17216
0.21389 0.56888 0.17488
0.26719 0.57218 0.17762
0.32155 0.57550 0.18036
0.37672 0.57883 0.18312
0.43247 0.58216 0.18589
0.48856 0.58550 0.18866
0.54473 0.58884 0.19144
0.60075 0.59218 0.19421
0.65639 0.59551 0.19699
0.71138 0.59884 0.19976
0.76550 0.60214 0.20253
0.81850 0.60543 0.20529
0.87014 0.60870 0.20804
0.92018 0.61195 0.21078
0.06706 0.61806 0.17013
0.11582 0.62128 0.17282
0.16635 0.62452 0.17553
0.21841 0.62779 0.17825
0.27176 0.63107 0.18099
0.32616 0.63438 0.18374
0.38136 0.63769 0.18650
0.43713 0.64101 0.18927
0.49322 0.64433 0.19204
0.54940 0.64766 0.19482
0.60541 0.65098 0.19760
0.66101 0.65430 0.20038
0.71597 0.65760 0.20315
0.77005 0.66089 0.20592
0.82299 0.66416 0.20869
0.87457 0.66741 0.21144
0.92453 0.67063 0.21418
0.07134 0.67657 0.17349
0.12018 0.67976 0.17618
0.17078 0.68298 0.17889
0.22291 0.68623 0.18161
0.27631 0.68949 0.18435
0.33075 0.69276 0.18711
0.38599 0.69605 0.18987
0.44177 0.69935 0.19264
0.49787 0.70264 0.19542
0.55404 0.70594 0.19820
0.61004 0.70923 0.20098
0.66562 0.71252 0.20376
0.72055 0.71579 0.20654
0.77457 0.71905 0.20931
0.82746 0.72229 0.21207
0.87896 0.72551 0.21483
0.92884 0.72870 0.21757
0.07560 0.73437 0.17683
0.12452 0.73753 0.17952
0.17520 0.74072 0.18224
0.22738 0.74392 0.18496
0.28084 0.74715 0.18771
0.33532 0.75039 0.19046
0.39058 0.75364 0.19323
0.44639 0.75689 0.19600
0.50249 0.76015 0.19878
0.55866 0.76341 0.20157
0.61464 0.76666 0.20435
0.67020 0.76991 0.20713
0.72508 0.77314 0.20991
0.77906 0.77636 0.21268
0.83189 0.77956 0.21545
0.88333 0.78273 0.21820
0.93313 0.78587 0.22094
0.07982 0.79119 0.18016
0.12883 0.79431 0.18285
0.17958 0.79745 0.18557
0.23182 0.80061 0.18830
0.28533 0.80378 0.19105
0.33985 0.80697 0.19381
0.39514 0.81017 0.19658
0.45096 0.81338 0.19935
0.50708 0.81659 0.20213
0.56324 0.81980 0.20492
0.61920 0.82300 0.20770
0.67473 0.82619 0.21049
0.72958 0.82937 0.21327
0.78351 0.83253 0.21604
0.83628 0.83568 0.21881
0.88764 0.83879 0.22156
0.93736 0.84188 0.22430
0.08401 0.84675 0.18347
0.13310 0.84981 0.18617
0.18392 0.85289 0.18888
0.23622 0.85599 0.19162
0.28978 0.85911 0.19437
0.34433 0.86224 0.19713
0.39965 0.86538 0.19990
0.45549 0.86853 0.20268
0.51161 0.87167 0.20546
0.56776 0.87482 0.20825
0.62371 0.87796 0.21103
0.67921 0.88109 0.21382
0.73403 0.88420 0.21660
0.78791 0.88730 0.21937
0.84061 0.89038 0.22214
0.89191 0.89343 0.22490
0.94154 0.89645 0.22764
0.08814 0.90078 0.18675
0.13731 0.90377 0.18945
0.18820 0.90678 0.19217
0.24057 0.90981 0.19491
0.29417 0.91286 0.19766
0.34876 0.91592 0.20042
0.40411 0.91899 0.20320
0.45996 0.92206 0.20598
0.51608 0.92513 0.20876
0.57223 0.92820 0.21155
0.62816 0.93127 0.21433
0.68364 0.93432 0.21712
0.73841 0.93736 0.21990
0.79224 0.94038 0.22268
0.84488 0.94338 0.22545
0.89610 0.94635 0.22820
0.94566 0.94930 0.23095
0.09221 0.95300 0.19001
0.14146 0.95590 0.19271
0.19242 0.95883 0.19543
0.24485 0.96178 0.19817
0.29850 0.96475 0.20092
0.35313 0.96773 0.20369
0.40850 0.97071 0.20646
0.46437 0.97370 0.20924
0.52049 0.97669 0.21203
0.57663 0.97967 0.21482
0.63254 0.98265 0.21761
0.68799 0.98562 0.22039
0.74272 0.98857 0.22318
0.79650 0.99150 0.22595
0.84908 0.99441 0.22872
0.90023 0.99730 0.23148
0.94969 1.00000 0.23422
0.02781 0.05728 0.18873
0.07576 0.06009 0.19143
0.12558 0.06294 0.19416
0.17703 0.06582 0.19691
0.22988 0.06872 0.19967
0.28386 0.07164 0.20245
0.33876 0.07459 0.20523
0.39431 0.07754 0.20803
0.45029 0.08051 0.21083
0.50644 0.08348 0.21363
0.56254 0.08646 0.21644
0.61833 0.08944 0.21925
0.67357 0.09241 0.22205
0.72802 0.09537 0.22485
0.78144 0.09832 0.22765
0.83359 0.10126 0.23043
0.88423 0.10417 0.23320
0.03176 0.10776 0.19197
0.07981 0.11067 0.19469
0.12971 0.11361 0.19742
0.18123 0.11658 0.20017
0.23413 0.11957 0.20294
0.28817 0.12259 0.20572
0.34310 0.12562 0.20851
0.39869 0.12866 0.21131
0.45468 0.13172 0.21411
0.51084 0.13478 0.21692
0.56693 0.13784 0.21973
0.62270 0.14090 0.22254
0.67792 0.14396 0.22535
0.73233 0.14701 0.22816
0.78570 0.15004 0.23095
0.83779 0.15306 0.23374
