luts/kodak-warm.cube
# kodak-warm  (original film-style LUT, free for any use)
LUT_3D_SIZE 5
0.02060 0.02030 0.01960
0.26645 0.02255 0.01927
0.54788 0.02421 0.01801
0.82857 0.02596 0.01683
1.00000 0.02845 0.01676
0.02074 0.24596 0.01326
0.26815 0.24977 0.01286
0.55004 0.25299 0.01156
0.83010 0.25628 0.01038
1.00000 0.26029 0.01034
0.02003 0.50439 0.00513
0.26899 0.50876 0.00472
0.55134 0.51252 0.00344
0.83077 0.51634 0.00232
1.00000 0.52087 0.00235
0.01929 0.76576 0.00000
0.26980 0.76968 0.00000
0.55261 0.77297 0.00000
0.83140 0.77631 0.00000
1.00000 0.78034 0.00000
0.01938 1.00000 0.00000
0.27143 1.00000 0.00000
0.55469 1.00000 0.00000
0.83283 1.00000 0.00000
1.00000 1.00000 0.00000
0.02532 0.02461 0.23055
0.27263 0.02688 0.23172
0.55453 0.02859 0.23195
0.83467 0.03039 0.23227
1.00000 0.03296 0.23369
0.02548 0.25165 0.22559
0.27432 0.25545 0.22666
0.55664 0.25868 0.22683
0.83613 0.26200 0.22712
1.00000 0.26606 0.22853
0.02480 0.51058 0.21886
0.27516 0.51491 0.21989
0.55792 0.51866 0.22006
0.83674 0.52248 0.22037
1.00000 0.52702 0.22183
0.02412 0.77157 0.21204
0.27601 0.77542 0.21310
0.55919 0.77867 0.21331
0.83734 0.78198 0.21371
1.00000 0.78599 0.21527
0.02429 1.00000 0.20683
0.27769 1.00000 0.20796
0.56129 1.00000 0.20828
0.83877 1.00000 0.20881
1.00000 1.00000 0.21054
0.02993 0.02876 0.47202
0.27869 0.03106 0.47381
0.56101 0.03281 0.47467
0.84059 0.03468 0.47560
1.00000 0.03733 0.47762
0.03011 0.25715 0.46761
0.28036 0.26096 0.46928
0.56309 0.26421 0.47004
0.84197 0.26756 0.47091
1.00000 0.27167 0.47290
0.02947 0.51656 0.46145
0.28121 0.52087 0.46306
0.56435 0.52461 0.46379
0.84254 0.52843 0.46466
1.00000 0.53299 0.46666
0.02886 0.77716 0.45524
0.28209 0.78095 0.45683
0.56562 0.78417 0.45758
0.84312 0.78745 0.45851
1.00000 0.79145 0.46059
0.02911 1.00000 0.45063
0.28383 1.00000 0.45228
0.56775 1.00000 0.45311
0.84455 1.00000 0.45414
1.00000 1.00000 0.45636
0.03456 0.03291 0.72018
0.28474 0.03525 0.72172
0.56747 0.03705 0.72232
0.84645 0.03899 0.72299
1.00000 0.04172 0.72475
0.03476 0.26264 0.71549
0.28640 0.26645 0.71688
0.56951 0.26973 0.71736
0.84777 0.27312 0.71795
1.00000 0.27728 0.71964
0.03416 0.52251 0.70909
0.28727 0.52680 0.71038
0.57075 0.53053 0.71080
0.84829 0.53436 0.71136
1.00000 0.53895 0.71304
0.03362 0.78269 0.70264
0.28819 0.78644 0.70390
0.57204 0.78962 0.70431
0.84885 0.79289 0.70489
1.00000 0.79688 0.70662
0.03397 1.00000 0.69783
0.28999 1.00000 0.69911
0.57421 1.00000 0.69957
0.85029 1.00000 0.70024
1.00000 1.00000 0.70206
0.03933 0.03723 0.95120
0.29090 0.03961 0.95161
0.57403 0.04148 0.95108
0.85239 0.04349 0.95062
1.00000 0.04631 0.95122
0.03955 0.26828 0.94541
0.29256 0.27211 0.94565
0.57604 0.27541 0.94497
0.85365 0.27885 0.94439
1.00000 0.28307 0.94491
0.03901 0.52859 0.93793
0.29345 0.53286 0.93804
0.57727 0.53659 0.93727
0.85413 0.54045 0.93664
1.00000 0.54506 0.93711
0.03854 0.78834 0.93042
0.29441 0.79204 0.93047
0.57857 0.79519 0.92967
0.85467 0.79845 0.92903
1.00000 0.80244 0.92952
0.03899 1.00000 0.92458
0.29628 1.00000 0.92462
0.58077 1.00000 0.92384
0.85612 1.00000 0.92326
1.00000 1.00000 0.92415
