luts/kodak-warm.cube
# kodak-warm  (original film-style LUT, free for any use)
LUT_3D_SIZE 17
0.02060 0.02030 0.01960
0.07674 0.02095 0.01966
0.13681 0.02154 0.01961
0.20023 0.02206 0.01948
0.26645 0.02255 0.01927
0.33489 0.02299 0.01900
0.40499 0.02341 0.01869
0.47617 0.02381 0.01835
0.54788 0.02421 0.01801
0.61954 0.02462 0.01766
0.69059 0.02504 0.01734
0.76045 0.02548 0.01706
0.82857 0.02596 0.01683
0.89437 0.02649 0.01667
0.95728 0.02707 0.01660
1.00000 0.02772 0.01662
1.00000 0.02845 0.01676
0.02076 0.07201 0.01827
0.07702 0.07279 0.01833
0.13720 0.07349 0.01828
0.20071 0.07414 0.01813
0.26700 0.07474 0.01792
0.33550 0.07531 0.01765
0.40563 0.07585 0.01733
0.47684 0.07637 0.01699
0.54855 0.07689 0.01664
0.62020 0.07742 0.01630
0.69121 0.07796 0.01598
0.76103 0.07852 0.01569
0.82908 0.07912 0.01546
0.89480 0.07977 0.01530
0.95761 0.08047 0.01523
1.00000 0.08124 0.01525
1.00000 0.08209 0.01539
0.02083 0.12717 0.01676
0.07722 0.12805 0.01680
0.13750 0.12886 0.01675
0.20110 0.12962 0.01660
0.26746 0.13032 0.01638
0.33601 0.13100 0.01611
0.40618 0.13164 0.01579
0.47741 0.13227 0.01545
0.54912 0.13289 0.01510
0.62076 0.13352 0.01475
0.69174 0.13416 0.01443
0.76151 0.13483 0.01414
0.82950 0.13554 0.01391
0.89513 0.13629 0.01375
0.95785 0.13709 0.01368
1.00000 0.13797 0.01371
1.00000 0.13892 0.01385
0.02082 0.18531 0.01507
0.07733 0.18628 0.01512
0.13771 0.18718 0.01506
0.20141 0.18803 0.01491
0.26784 0.18882 0.01469
0.33644 0.18958 0.01441
0.40665 0.19032 0.01409
0.47790 0.19104 0.01375
0.54962 0.19175 0.01339
0.62124 0.19247 0.01305
0.69219 0.19320 0.01272
0.76191 0.19395 0.01244
0.82983 0.19475 0.01221
0.89539 0.19558 0.01205
0.95800 0.19648 0.01198
1.00000 0.19744 0.01201
1.00000 0.19847 0.01215
0.02074 0.24596 0.01326
0.07738 0.24701 0.01330
0.13786 0.24798 0.01323
0.20165 0.24890 0.01308
0.26815 0.24977 0.01286
0.33681 0.25061 0.01258
0.40706 0.25142 0.01226
0.47832 0.25221 0.01191
0.55004 0.25299 0.01156
0.62165 0.25378 0.01121
0.69257 0.25459 0.01089
0.76225 0.25542 0.01061
0.83010 0.25628 0.01038
0.89557 0.25719 0.01022
0.95809 0.25816 0.01016
1.00000 0.25919 0.01019
1.00000 0.26029 0.01034
0.02061 0.30866 0.01133
0.07737 0.30977 0.01136
0.13796 0.31080 0.01130
0.20183 0.31178 0.01114
0.26841 0.31271 0.01092
0.33712 0.31360 0.01064
0.40741 0.31447 0.01032
0.47869 0.31532 0.00997
0.55042 0.31616 0.00962
0.62201 0.31700 0.00928
0.69290 0.31787 0.00896
0.76253 0.31875 0.00868
0.83032 0.31967 0.00845
0.89571 0.32064 0.00830
0.95813 0.32166 0.00823
1.00000 0.32275 0.00827
1.00000 0.32391 0.00842
0.02044 0.37295 0.00931
0.07732 0.37409 0.00935
0.13802 0.37517 0.00928
0.20198 0.37619 0.00912
0.26862 0.37716 0.00890
0.33739 0.37810 0.00862
0.40771 0.37900 0.00830
0.47902 0.37990 0.00796
0.55075 0.38078 0.00761
0.62233 0.38167 0.00726
0.69319 0.38257 0.00695
0.76277 0.38350 0.00667
0.83049 0.38446 0.00645
0.89580 0.38546 0.00630
0.95812 0.38653 0.00624
1.00000 0.38765 0.00628
1.00000 0.38885 0.00643
0.02024 0.43834 0.00723
0.07724 0.43952 0.00727
0.13805 0.44062 0.00720
0.20209 0.44167 0.00705
0.26881 0.44267 0.00682
0.33763 0.44363 0.00654
0.40799 0.44456 0.00623
0.47932 0.44548 0.00588
0.55105 0.44639 0.00554
0.62262 0.44730 0.00520
0.69345 0.44823 0.00488
0.76298 0.44918 0.00461
0.83064 0.45017 0.00439
0.89586 0.45120 0.00425
0.95808 0.45229 0.00419
1.00000 0.45344 0.00424
1.00000 0.45466 0.00440
0.02003 0.50439 0.00513
0.07715 0.50558 0.00516
0.13806 0.50669 0.00510
0.20220 0.50775 0.00494
0.26899 0.50876 0.00472
0.33786 0.50973 0.00444
0.40826 0.51068 0.00413
0.47961 0.51160 0.00379
0.55134 0.51252 0.00344
0.62289 0.51345 0.00311
0.69369 0.51438 0.00280
0.76317 0.51535 0.00253
0.83077 0.51634 0.00232
0.89591 0.51738 0.00218
0.95803 0.51848 0.00213
1.00000 0.51964 0.00219
1.00000 0.52087 0.00235
0.01981 0.57062 0.00301
0.07706 0.57181 0.00305
0.13808 0.57292 0.00298
0.20230 0.57397 0.00283
0.26916 0.57498 0.00261
0.33809 0.57594 0.00234
0.40852 0.57688 0.00202
0.47989 0.57780 0.00169
0.55163 0.57872 0.00135
0.62316 0.57963 0.00102
0.69393 0.58056 0.00071
0.76336 0.58152 0.00045
0.83089 0.58251 0.00025
0.89595 0.58354 0.00012
0.95797 0.58463 0.00007
1.00000 0.58578 0.00014
1.00000 0.58700 0.00031
0.01961 0.63657 0.00092
0.07698 0.63773 0.00096
0.13810 0.63883 0.00089
0.20241 0.63986 0.00075
0.26934 0.64084 0.00053
0.33833 0.64179 0.00026
0.40880 0.64271 0.00000
0.48019 0.64361 0.00000
0.55193 0.64450 0.00000
0.62345 0.64539 0.00000
0.69418 0.64630 0.00000
0.76357 0.64724 0.00000
0.83103 0.64820 0.00000
0.89601 0.64921 0.00000
0.95793 0.65028 0.00000
1.00000 0.65141 0.00000
1.00000 0.65260 0.00000
0.01943 0.70177 0.00000
0.07692 0.70290 0.00000
0.13815 0.70395 0.00000
0.20255 0.70495 0.00000
0.26955 0.70590 0.00000
0.33859 0.70681 0.00000
0.40910 0.70769 0.00000
0.48051 0.70855 0.00000
0.55225 0.70941 0.00000
0.62376 0.71026 0.00000
0.69446 0.71114 0.00000
0.76380 0.71203 0.00000
0.83120 0.71296 0.00000
0.89609 0.71393 0.00000
0.95791 0.71496 0.00000
1.00000 0.71605 0.00000
1.00000 0.71720 0.00000
0.01929 0.76576 0.00000
0.07691 0.76683 0.00000
0.13824 0.76784 0.00000
0.20272 0.76878 0.00000
0.26980 0.76968 0.00000
0.33889 0.77053 0.00000
0.40944 0.77136 0.00000
0.48086 0.77217 0.00000
0.55261 0.77297 0.00000
0.62410 0.77378 0.00000
0.69477 0.77460 0.00000
0.76406 0.77544 0.00000
0.83140 0.77631 0.00000
0.89621 0.77723 0.00000
0.95793 0.77820 0.00000
1.00000 0.77924 0.00000
1.00000 0.78034 0.00000
0.01921 0.82806 0.00000
0.07694 0.82907 0.00000
0.13838 0.83000 0.00000
0.20295 0.83088 0.00000
0.27010 0.83171 0.00000
0.33924 0.83250 0.00000
0.40982 0.83326 0.00000
0.48127 0.83400 0.00000
0.55302 0.83473 0.00000
0.62450 0.83547 0.00000
0.69514 0.83622 0.00000
0.76438 0.83699 0.00000
0.83165 0.83779 0.00000
0.89637 0.83864 0.00000
0.95800 0.83954 0.00000
1.00000 0.84051 0.00000
1.00000 0.84154 0.00000
0.01918 0.88821 0.00000
0.07704 0.88914 0.00000
0.13858 0.88999 0.00000
0.20324 0.89079 0.00000
0.27046 0.89153 0.00000
0.33966 0.89223 0.00000
0.41028 0.89291 0.00000
0.48174 0.89357 0.00000
0.55349 0.89422 0.00000
0.62496 0.89487 0.00000
0.69557 0.89553 0.00000
0.76476 0.89622 0.00000
0.83196 0.89694 0.00000
0.89661 0.89770 0.00000
0.95813 0.89851 0.00000
1.00000 0.89939 0.00000
1.00000 0.90034 0.00000
0.01924 0.94576 0.00000
0.07721 0.94658 0.00000
0.13886 0.94734 0.00000
0.20361 0.94803 0.00000
0.27090 0.94868 0.00000
0.34015 0.94928 0.00000
0.41081 0.94986 0.00000
0.48229 0.95041 0.00000
0.55404 0.95096 0.00000
0.62549 0.95151 0.00000
0.69607 0.95207 0.00000
0.76521 0.95266 0.00000
0.83235 0.95328 0.00000
0.89691 0.95394 0.00000
0.95834 0.95465 0.00000
1.00000 0.95543 0.00000
1.00000 0.95627 0.00000
0.01938 1.00000 0.00000
0.07748 1.00000 0.00000
0.13923 1.00000 0.00000
0.20407 1.00000 0.00000
0.27143 1.00000 0.00000
0.34073 1.00000 0.00000
0.41143 1.00000 0.00000
0.48293 1.00000 0.00000
0.55469 1.00000 0.00000
0.62612 1.00000 0.00000
0.69667 1.00000 0.00000
0.76576 1.00000 0.00000
0.83283 1.00000 0.00000
0.89731 1.00000 0.00000
0.95863 1.00000 0.00000
1.00000 1.00000 0.00000
1.00000 1.00000 0.00000
0.02180 0.02140 0.06817
0.07805 0.02205 0.06835
0.13822 0.02264 0.06842
0.20173 0.02317 0.06839
0.26801 0.02365 0.06830
0.33651 0.02410 0.06814
0.40664 0.02452 0.06795
0.47785 0.02493 0.06773
0.54956 0.02533 0.06749
0.62121 0.02574 0.06726
0.69223 0.02616 0.06706
0.76206 0.02661 0.06689
0.83012 0.02709 0.06677
0.89584 0.02762 0.06673
0.95867 0.02821 0.06676
1.00000 0.02887 0.06690
1.00000 0.02960 0.06716
0.02196 0.07322 0.06695
0.07834 0.07399 0.06712
0.13861 0.07470 0.06718
0.20221 0.07535 0.06715
0.26856 0.07596 0.06705
0.33711 0.07652 0.06689
0.40728 0.07706 0.06669
0.47851 0.07759 0.06647
0.55023 0.07811 0.06623
0.62186 0.07864 0.06600
0.69285 0.07918 0.06579
0.76263 0.07975 0.06562
0.83062 0.08035 0.06550
0.89627 0.08100 0.06546
0.95899 0.08171 0.06549
1.00000 0.08249 0.06563
1.00000 0.08334 0.06589
0.02203 0.12847 0.06554
0.07853 0.12935 0.06570
0.13891 0.13016 0.06576
0.20259 0.13092 0.06573
0.26902 0.13163 0.06562
0.33762 0.13230 0.06546
0.40783 0.13295 0.06525
0.47908 0.13358 0.06503
0.55080 0.13420 0.06479
0.62242 0.13483 0.06455
0.69338 0.13548 0.06434
0.76311 0.13615 0.06417
0.83104 0.13686 0.06405
0.89660 0.13761 0.06401
0.95922 0.13842 0.06405
1.00000 0.13930 0.06419
1.00000 0.14025 0.06444
0.02202 0.18669 0.06396
0.07864 0.18766 0.06412
0.13913 0.18856 0.06417
0.20290 0.18941 0.06414
0.26940 0.19020 0.06403
0.33806 0.19097 0.06386
0.40830 0.19170 0.06366
0.47957 0.19242 0.06343
0.55129 0.19313 0.06319
0.62290 0.19385 0.06295
0.69383 0.19459 0.06274
0.76351 0.19535 0.06257
0.83137 0.19614 0.06245
0.89685 0.19698 0.06241
0.95937 0.19788 0.06245
1.00000 0.19884 0.06259
1.00000 0.19988 0.06284
0.02194 0.24741 0.06225
0.07869 0.24845 0.06240
0.13928 0.24943 0.06245
0.20314 0.25035 0.06241
0.26971 0.25122 0.06230
0.33842 0.25205 0.06214
0.40870 0.25286 0.06193
0.47999 0.25365 0.06170
0.55172 0.25444 0.06145
0.62331 0.25523 0.06122
0.69421 0.25604 0.06101
0.76384 0.25687 0.06084
0.83163 0.25773 0.06072
0.89703 0.25865 0.06068
0.95946 0.25962 0.06072
1.00000 0.26065 0.06087
1.00000 0.26176 0.06113
0.02182 0.31016 0.06043
0.07868 0.31126 0.06058
0.13938 0.31230 0.06062
0.20333 0.31327 0.06058
0.26997 0.31420 0.06047
0.33873 0.31510 0.06030
0.40905 0.31596 0.06009
0.48036 0.31681 0.05986
0.55209 0.31765 0.05962
0.62367 0.31850 0.05939
0.69453 0.31936 0.05918
0.76411 0.32025 0.05901
0.83184 0.32117 0.05890
0.89716 0.32214 0.05885
0.95948 0.32317 0.05890
1.00000 0.32426 0.05905
1.00000 0.32542 0.05931
0.02165 0.37448 0.05852
0.07863 0.37563 0.05867
0.13943 0.37670 0.05871
0.20347 0.37772 0.05867
0.27018 0.37869 0.05855
0.33900 0.37963 0.05839
0.40936 0.38054 0.05818
0.48069 0.38143 0.05795
0.55242 0.38231 0.05771
0.62398 0.38320 0.05747
0.69481 0.38410 0.05727
0.76435 0.38503 0.05710
0.83201 0.38599 0.05699
0.89724 0.38700 0.05695
0.95947 0.38806 0.05700
1.00000 0.38919 0.05716
1.00000 0.39039 0.05742
0.02145 0.43991 0.05655
0.07856 0.44108 0.05670
0.13946 0.44218 0.05674
0.20359 0.44323 0.05670
0.27037 0.44422 0.05658
0.33925 0.44518 0.05642
0.40964 0.44612 0.05621
0.48099 0.44703 0.05598
0.55272 0.44794 0.05574
0.62427 0.44886 0.05551
0.69507 0.44978 0.05531
0.76455 0.45074 0.05515
0.83215 0.45172 0.05504
0.89730 0.45276 0.05501
0.95943 0.45384 0.05506
1.00000 0.45500 0.05522
1.00000 0.45622 0.05549
0.02124 0.50597 0.05455
0.07847 0.50715 0.05470
0.13948 0.50826 0.05474
0.20369 0.50932 0.05470
0.27055 0.51033 0.05458
0.33947 0.51130 0.05442
0.40990 0.51224 0.05421
0.48127 0.51317 0.05399
0.55301 0.51408 0.05375
0.62454 0.51501 0.05353
0.69531 0.51594 0.05333
0.76475 0.51691 0.05317
0.83228 0.51790 0.05307
0.89735 0.51894 0.05304
0.95937 0.52004 0.05310
1.00000 0.52120 0.05327
1.00000 0.52243 0.05354
0.02103 0.57220 0.05254
0.07838 0.57337 0.05269
0.13950 0.57448 0.05273
0.20380 0.57553 0.05269
0.27072 0.57654 0.05258
0.33970 0.57750 0.05242
0.41017 0.57844 0.05222
0.48155 0.57936 0.05199
0.55329 0.58027 0.05176
0.62481 0.58119 0.05154
0.69555 0.58212 0.05135
0.76494 0.58307 0.05119
0.83241 0.58406 0.05110
0.89739 0.58509 0.05108
0.95932 0.58618 0.05114
1.00000 0.58734 0.05132
1.00000 0.58856 0.05160
0.02083 0.63813 0.05056
0.07830 0.63929 0.05071
0.13952 0.64037 0.05075
0.20391 0.64140 0.05071
0.27091 0.64239 0.05061
0.33994 0.64333 0.05044
0.41044 0.64424 0.05025
0.48185 0.64514 0.05003
0.55359 0.64603 0.04980
0.62510 0.64693 0.04958
0.69580 0.64784 0.04940
0.76514 0.64877 0.04925
0.83254 0.64973 0.04916
0.89744 0.65074 0.04915
0.95927 0.65181 0.04922
1.00000 0.65294 0.04940
1.00000 0.65413 0.04969
0.02065 0.70330 0.04862
0.07825 0.70442 0.04877
0.13958 0.70547 0.04882
0.20405 0.70646 0.04878
0.27112 0.70741 0.04868
0.34021 0.70832 0.04852
0.41075 0.70919 0.04833
0.48217 0.71005 0.04811
0.55391 0.71091 0.04789
0.62540 0.71176 0.04768
0.69608 0.71263 0.04750
0.76537 0.71353 0.04736
0.83270 0.71445 0.04728
0.89752 0.71543 0.04727
0.95925 0.71645 0.04736
1.00000 0.71754 0.04755
1.00000 0.71870 0.04784
0.02052 0.76724 0.04675
0.07824 0.76831 0.04690
0.13967 0.76931 0.04696
0.20423 0.77025 0.04692
0.27137 0.77114 0.04683
0.34051 0.77199 0.04667
0.41108 0.77282 0.04648
0.48253 0.77363 0.04628
0.55427 0.77443 0.04606
0.62575 0.77523 0.04586
0.69639 0.77604 0.04569
0.76563 0.77688 0.04555
0.83290 0.77776 0.04548
0.89764 0.77867 0.04548
0.95926 0.77964 0.04558
1.00000 0.78068 0.04578
1.00000 0.78178 0.04608
0.02043 0.82948 0.04498
0.07828 0.83049 0.04514
0.13981 0.83142 0.04520
0.20446 0.83229 0.04517
0.27167 0.83311 0.04508
0.34086 0.83390 0.04493
0.41147 0.83466 0.04475
0.48294 0.83539 0.04455
0.55468 0.83612 0.04434
0.62615 0.83686 0.04415
0.69676 0.83760 0.04398
0.76595 0.83837 0.04386
0.83315 0.83918 0.04379
0.89780 0.84002 0.04381
0.95933 0.84092 0.04391
1.00000 0.84189 0.04412
1.00000 0.84291 0.04443
0.02041 0.88957 0.04334
0.07838 0.89049 0.04350
0.14002 0.89134 0.04356
0.20476 0.89212 0.04354
0.27203 0.89286 0.04345
0.34128 0.89356 0.04332
0.41193 0.89424 0.04314
0.48341 0.89489 0.04295
0.55516 0.89554 0.04275
0.62661 0.89618 0.04256
0.69719 0.89684 0.04241
0.76633 0.89753 0.04229
0.83347 0.89824 0.04224
0.89803 0.89900 0.04226
0.95946 0.89982 0.04238
1.00000 0.90070 0.04260
1.00000 0.90163 0.04292
0.02047 0.94703 0.04185
0.07856 0.94784 0.04201
0.14030 0.94859 0.04208
0.20513 0.94928 0.04207
0.27248 0.94992 0.04199
0.34178 0.95052 0.04186
0.41246 0.95109 0.04169
0.48396 0.95165 0.04151
0.55571 0.95219 0.04132
0.62715 0.95274 0.04114
0.69769 0.95330 0.04099
0.76679 0.95388 0.04089
0.83386 0.95449 0.04085
0.89834 0.95515 0.04088
0.95967 0.95587 0.04101
1.00000 0.95664 0.04125
1.00000 0.95748 0.04158
0.02062 1.00000 0.04053
0.07883 1.00000 0.04071
0.14068 1.00000 0.04078
0.20559 1.00000 0.04078
0.27301 1.00000 0.04070
0.34236 1.00000 0.04058
0.41308 1.00000 0.04042
0.48460 1.00000 0.04025
0.55636 1.00000 0.04007
0.62777 1.00000 0.03990
0.69829 1.00000 0.03977
0.76733 1.00000 0.03968
0.83434 1.00000 0.03965
0.89874 1.00000 0.03969
0.95996 1.00000 0.03984
1.00000 1.00000 0.04008
1.00000 1.00000 0.04043
0.02298 0.02248 0.11977
0.07935 0.02314 0.12005
0.13962 0.02373 0.12022
0.20321 0.02426 0.12029
0.26957 0.02474 0.12030
0.33811 0.02519 0.12025
0.40828 0.02561 0.12015
0.47951 0.02602 0.12003
0.55123 0.02643 0.11989
0.62287 0.02684 0.11977
0.69387 0.02726 0.11966
0.76365 0.02772 0.11959
0.83165 0.02821 0.11957
0.89730 0.02874 0.11963
0.96004 0.02933 0.11977
1.00000 0.03000 0.12000
1.00000 0.03073 0.12036
0.02315 0.07441 0.11864
0.07964 0.07518 0.11891
0.14001 0.07589 0.11907
0.20369 0.07654 0.11915
0.27011 0.07715 0.11914
0.33871 0.07772 0.11909
0.40892 0.07826 0.11898
0.48017 0.07879 0.11886
0.55189 0.07931 0.11872
0.62352 0.07984 0.11859
0.69448 0.08039 0.11848
0.76421 0.08096 0.11841
0.83215 0.08157 0.11839
0.89772 0.08222 0.11844
0.96035 0.08293 0.11858
1.00000 0.08371 0.11882
1.00000 0.08457 0.11917
0.02322 0.12975 0.11732
0.07983 0.13063 0.11758
0.14031 0.13145 0.11774
0.20408 0.13220 0.11781
0.27057 0.13291 0.11780
0.33922 0.13359 0.11774
0.40947 0.13423 0.11764
0.48074 0.13487 0.11751
0.55246 0.13549 0.11737
0.62407 0.13613 0.11723
0.69500 0.13678 0.11712
0.76469 0.13745 0.11705
0.83256 0.13816 0.11703
0.89804 0.13892 0.11708
0.96058 0.13973 0.11722
1.00000 0.14061 0.11746
1.00000 0.14157 0.11781
0.02321 0.18805 0.11584
0.07994 0.18902 0.11610
0.14052 0.18992 0.11625
0.20438 0.19077 0.11631
0.27095 0.19157 0.11630
0.33965 0.19233 0.11624
0.40994 0.19307 0.11613
0.48122 0.19379 0.11600
0.55295 0.19450 0.11585
0.62455 0.19522 0.11572
0.69545 0.19596 0.11561
0.76508 0.19672 0.11553
0.83288 0.19752 0.11552
0.89829 0.19836 0.11557
0.96072 0.19926 0.11571
1.00000 0.20023 0.11595
1.00000 0.20127 0.11630
0.02313 0.24884 0.11422
0.07999 0.24988 0.11447
0.14068 0.25086 0.11462
0.20462 0.25177 0.11468
0.27126 0.25265 0.11467
0.34002 0.25348 0.11460
0.41034 0.25429 0.11449
0.48164 0.25508 0.11435
0.55337 0.25587 0.11421
0.62495 0.25666 0.11408
0.69582 0.25747 0.11397
0.76541 0.25830 0.11389
0.83314 0.25917 0.11388
0.89847 0.26009 0.11393
0.96080 0.26106 0.11407
1.00000 0.26210 0.11431
1.00000 0.26321 0.11467
0.02300 0.31164 0.11249
0.07998 0.31274 0.11274
0.14077 0.31378 0.11288
0.20481 0.31475 0.11294
0.27151 0.31568 0.11292
0.34033 0.31657 0.11285
0.41068 0.31744 0.11274
0.48201 0.31829 0.11261
0.55374 0.31913 0.11247
0.62531 0.31998 0.11233
0.69614 0.32084 0.11222
0.76568 0.32173 0.11215
0.83335 0.32266 0.11213
0.89859 0.32363 0.11219
0.96083 0.32465 0.11233
1.00000 0.32575 0.11258
1.00000 0.32691 0.11294
0.02284 0.37600 0.11067
0.07994 0.37714 0.11092
0.14083 0.37822 0.11106
0.20495 0.37924 0.11112
0.27173 0.38021 0.11110
0.34060 0.38114 0.11103
0.41099 0.38205 0.11092
0.48234 0.38294 0.11079
0.55407 0.38382 0.11064
0.62562 0.38471 0.11051
0.69642 0.38562 0.11040
0.76591 0.38654 0.11033
0.83352 0.38751 0.11032
0.89867 0.38852 0.11038
0.96081 0.38958 0.11053
1.00000 0.39072 0.11078
1.00000 0.39192 0.11114
0.02264 0.44145 0.10880
0.07987 0.44262 0.10904
0.14087 0.44372 0.10919
0.20507 0.44476 0.10924
0.27192 0.44576 0.10922
0.34084 0.44672 0.10915
0.41127 0.44765 0.10904
0.48263 0.44857 0.10891
0.55437 0.44948 0.10877
0.62591 0.45039 0.10864
0.69668 0.45132 0.10853
0.76612 0.45227 0.10847
0.83366 0.45326 0.10846
0.89873 0.45429 0.10852
0.96076 0.45538 0.10867
1.00000 0.45654 0.10893
1.00000 0.45776 0.10929
0.02243 0.50752 0.10689
0.07978 0.50870 0.10714
0.14088 0.50981 0.10728
0.20518 0.51087 0.10733
0.27210 0.51187 0.10732
0.34107 0.51284 0.10725
0.41154 0.51378 0.10714
0.48292 0.51471 0.10701
0.55466 0.51563 0.10687
0.62618 0.51655 0.10674
0.69692 0.51748 0.10664
0.76631 0.51845 0.10658
0.83378 0.51944 0.10657
0.89877 0.52048 0.10664
0.96070 0.52158 0.10680
1.00000 0.52274 0.10706
1.00000 0.52397 0.10743
0.02223 0.57375 0.10498
0.07969 0.57492 0.10523
0.14090 0.57603 0.10537
0.20528 0.57708 0.10542
0.27227 0.57808 0.10541
0.34130 0.57904 0.10534
0.41180 0.57997 0.10523
0.48320 0.58089 0.10511
0.55494 0.58180 0.10497
0.62645 0.58272 0.10485
0.69716 0.58365 0.10475
0.76650 0.58460 0.10469
0.83390 0.58559 0.10469
0.89881 0.58663 0.10477
0.96064 0.58772 0.10493
1.00000 0.58887 0.10520
1.00000 0.59009 0.10557
0.02203 0.63966 0.10309
0.07962 0.64082 0.10334
0.14093 0.64190 0.10348
0.20540 0.64293 0.10354
0.27246 0.64391 0.10352
0.34154 0.64485 0.10346
0.41208 0.64576 0.10336
0.48350 0.64666 0.10323
0.55524 0.64755 0.10310
0.62673 0.64844 0.10298
0.69741 0.64935 0.10289
0.76670 0.65028 0.10284
0.83404 0.65124 0.10285
0.89886 0.65225 0.10293
0.96059 0.65332 0.10310
1.00000 0.65445 0.10337
1.00000 0.65565 0.10375
0.02186 0.70480 0.10125
0.07957 0.70592 0.10149
0.14099 0.70697 0.10164
0.20554 0.70796 0.10170
0.27267 0.70890 0.10169
0.34181 0.70980 0.10163
0.41238 0.71068 0.10153
0.48382 0.71154 0.10141
0.55556 0.71239 0.10129
0.62704 0.71324 0.10117
0.69768 0.71411 0.10108
0.76692 0.71500 0.10104
0.83420 0.71593 0.10105
0.89894 0.71690 0.10114
0.96057 0.71793 0.10132
1.00000 0.71902 0.10161
1.00000 0.72017 0.10200
0.02173 0.76870 0.09948
0.07956 0.76976 0.09972
0.14108 0.77076 0.09987
0.20573 0.77170 0.09994
0.27293 0.77259 0.09993
0.34211 0.77344 0.09987
0.41272 0.77426 0.09978
0.48418 0.77506 0.09967
0.55592 0.77586 0.09955
0.62738 0.77666 0.09944
0.69800 0.77747 0.09936
0.76719 0.77831 0.09932
0.83440 0.77918 0.09935
0.89905 0.78010 0.09944
0.96058 0.78107 0.09963
1.00000 0.78210 0.09993
1.00000 0.78320 0.10032
0.02165 0.83089 0.09780
0.07960 0.83188 0.09805
0.14123 0.83281 0.09821
0.20596 0.83368 0.09828
0.27323 0.83450 0.09828
0.34247 0.83528 0.09822
0.41311 0.83603 0.09814
0.48459 0.83677 0.09803
0.55634 0.83750 0.09792
0.62778 0.83823 0.09782
0.69836 0.83897 0.09775
0.76750 0.83974 0.09772
0.83464 0.84054 0.09775
0.89921 0.84138 0.09786
0.96065 0.84228 0.09805
1.00000 0.84325 0.09836
1.00000 0.84427 0.09876
0.02164 0.89090 0.09626
0.07971 0.89181 0.09651
0.14144 0.89266 0.09667
0.20626 0.89344 0.09674
0.27360 0.89418 0.09675
0.34289 0.89487 0.09670
0.41357 0.89554 0.09662
0.48507 0.89619 0.09652
0.55681 0.89683 0.09642
0.62824 0.89748 0.09633
0.69879 0.89813 0.09627
0.76788 0.89882 0.09625
0.83496 0.89953 0.09629
0.89944 0.90029 0.09640
0.96078 0.90110 0.09661
1.00000 0.90198 0.09693
1.00000 0.90291 0.09734
0.02170 0.94827 0.09486
0.07989 0.94909 0.09512
0.14173 0.94983 0.09528
0.20663 0.95051 0.09536
0.27404 0.95115 0.09538
0.34339 0.95174 0.09534
0.41410 0.95231 0.09527
0.48562 0.95286 0.09518
0.55737 0.95340 0.09508
0.62878 0.95394 0.09500
0.69930 0.95450 0.09495
0.76834 0.95508 0.09494
0.83535 0.95569 0.09499
0.89975 0.95635 0.09512
0.96098 0.95706 0.09534
1.00000 0.95783 0.09567
1.00000 0.95866 0.09609
0.02186 1.00000 0.09364
0.08017 1.00000 0.09391
0.14211 1.00000 0.09408
0.20710 1.00000 0.09417
0.27458 1.00000 0.09419
0.34398 1.00000 0.09416
0.41473 1.00000 0.09410
0.48626 1.00000 0.09401
0.55801 1.00000 0.09393
0.62941 1.00000 0.09386
0.69989 1.00000 0.09381
0.76889 1.00000 0.09381
0.83583 1.00000 0.09388
0.90015 1.00000 0.09402
0.96128 1.00000 0.09425
1.00000 1.00000 0.09459
1.00000 1.00000 0.09503
0.02416 0.02355 0.17402
0.08064 0.02421 0.17438
0.14101 0.02480 0.17464
0.20468 0.02533 0.17481
0.27111 0.02582 0.17490
0.33970 0.02627 0.17493
0.40991 0.02669 0.17492
0.48116 0.02711 0.17489
0.55288 0.02751 0.17484
0.62451 0.02793 0.17480
0.69548 0.02836 0.17478
0.76522 0.02881 0.17479
0.83316 0.02930 0.17486
0.89874 0.02985 0.17500
0.96139 0.03044 0.17523
1.00000 0.03111 0.17555
1.00000 0.03185 0.17599
0.02432 0.07558 0.17297
0.08093 0.07636 0.17333
0.14140 0.07707 0.17357
0.20516 0.07772 0.17373
0.27165 0.07833 0.17382
0.34030 0.07890 0.17385
0.41055 0.07944 0.17383
0.48182 0.07998 0.17379
0.55354 0.08050 0.17374
0.62516 0.08103 0.17370
0.69609 0.08158 0.17367
0.76578 0.08216 0.17369
0.83366 0.08277 0.17376
0.89915 0.08343 0.17389
0.96170 0.08414 0.17412
1.00000 0.08493 0.17444
