luts/kodak-warm.cube
# kodak-warm  (original film-style LUT, free for any use)
LUT_3D_SIZE 9
0.02060 0.02030 0.01960
0.13681 0.02154 0.01961
0.26645 0.02255 0.01927
0.40499 0.02341 0.01869
0.54788 0.02421 0.01801
0.69059 0.02504 0.01734
0.82857 0.02596 0.01683
0.95728 0.02707 0.01660
1.00000 0.02845 0.01676
0.02083 0.12717 0.01676
0.13750 0.12886 0.01675
0.26746 0.13032 0.01638
0.40618 0.13164 0.01579
0.54912 0.13289 0.01510
0.69174 0.13416 0.01443
0.82950 0.13554 0.01391
0.95785 0.13709 0.01368
1.00000 0.13892 0.01385
0.02074 0.24596 0.01326
0.13786 0.24798 0.01323
0.26815 0.24977 0.01286
0.40706 0.25142 0.01226
0.55004 0.25299 0.01156
0.69257 0.25459 0.01089
0.83010 0.25628 0.01038
0.95809 0.25816 0.01016
1.00000 0.26029 0.01034
0.02044 0.37295 0.00931
0.13802 0.37517 0.00928
0.26862 0.37716 0.00890
0.40771 0.37900 0.00830
0.55075 0.38078 0.00761
0.69319 0.38257 0.00695
0.83049 0.38446 0.00645
0.95812 0.38653 0.00624
1.00000 0.38885 0.00643
0.02003 0.50439 0.00513
0.13806 0.50669 0.00510
0.26899 0.50876 0.00472
0.40826 0.51068 0.00413
0.55134 0.51252 0.00344
0.69369 0.51438 0.00280
0.83077 0.51634 0.00232
0.95803 0.51848 0.00213
1.00000 0.52087 0.00235
0.01961 0.63657 0.00092
0.13810 0.63883 0.00089
0.26934 0.64084 0.00053
0.40880 0.64271 0.00000
0.55193 0.64450 0.00000
0.69418 0.64630 0.00000
0.83103 0.64820 0.00000
0.95793 0.65028 0.00000
1.00000 0.65260 0.00000
0.01929 0.76576 0.00000
0.13824 0.76784 0.00000
0.26980 0.76968 0.00000
0.40944 0.77136 0.00000
0.55261 0.77297 0.00000
0.69477 0.77460 0.00000
0.83140 0.77631 0.00000
0.95793 0.77820 0.00000
1.00000 0.78034 0.00000
0.01918 0.88821 0.00000
0.13858 0.88999 0.00000
0.27046 0.89153 0.00000
0.41028 0.89291 0.00000
0.55349 0.89422 0.00000
0.69557 0.89553 0.00000
0.83196 0.89694 0.00000
0.95813 0.89851 0.00000
1.00000 0.90034 0.00000
0.01938 1.00000 0.00000
0.13923 1.00000 0.00000
0.27143 1.00000 0.00000
0.41143 1.00000 0.00000
0.55469 1.00000 0.00000
0.69667 1.00000 0.00000
0.83283 1.00000 0.00000
0.95863 1.00000 0.00000
1.00000 1.00000 0.00000
0.02298 0.02248 0.11977
0.13962 0.02373 0.12022
0.26957 0.02474 0.12030
0.40828 0.02561 0.12015
0.55123 0.02643 0.11989
0.69387 0.02726 0.11966
0.83165 0.02821 0.11957
0.96004 0.02933 0.11977
1.00000 0.03073 0.12036
0.02322 0.12975 0.11732
0.14031 0.13145 0.11774
0.27057 0.13291 0.11780
0.40947 0.13423 0.11764
0.55246 0.13549 0.11737
0.69500 0.13678 0.11712
0.83256 0.13816 0.11703
0.96058 0.13973 0.11722
1.00000 0.14157 0.11781
0.02313 0.24884 0.11422
0.14068 0.25086 0.11462
0.27126 0.25265 0.11467
0.41034 0.25429 0.11449
0.55337 0.25587 0.11421
0.69582 0.25747 0.11397
0.83314 0.25917 0.11388
0.96080 0.26106 0.11407
1.00000 0.26321 0.11467
0.02284 0.37600 0.11067
0.14083 0.37822 0.11106
0.27173 0.38021 0.11110
0.41099 0.38205 0.11092
0.55407 0.38382 0.11064
0.69642 0.38562 0.11040
0.83352 0.38751 0.11032
0.96081 0.38958 0.11053
1.00000 0.39192 0.11114
0.02243 0.50752 0.10689
0.14088 0.50981 0.10728
0.27210 0.51187 0.10732
0.41154 0.51378 0.10714
0.55466 0.51563 0.10687
0.69692 0.51748 0.10664
0.83378 0.51944 0.10657
0.96070 0.52158 0.10680
1.00000 0.52397 0.10743
0.02203 0.63966 0.10309
0.14093 0.64190 0.10348
0.27246 0.64391 0.10352
0.41208 0.64576 0.10336
0.55524 0.64755 0.10310
0.69741 0.64935 0.10289
0.83404 0.65124 0.10285
0.96059 0.65332 0.10310
1.00000 0.65565 0.10375
0.02173 0.76870 0.09948
0.14108 0.77076 0.09987
0.27293 0.77259 0.09993
0.41272 0.77426 0.09978
0.55592 0.77586 0.09955
0.69800 0.77747 0.09936
0.83440 0.77918 0.09935
0.96058 0.78107 0.09963
1.00000 0.78320 0.10032
0.02164 0.89090 0.09626
0.14144 0.89266 0.09667
0.27360 0.89418 0.09675
0.41357 0.89554 0.09662
0.55681 0.89683 0.09642
0.69879 0.89813 0.09627
0.83496 0.89953 0.09629
0.96078 0.90110 0.09661
1.00000 0.90291 0.09734
0.02186 1.00000 0.09364
0.14211 1.00000 0.09408
0.27458 1.00000 0.09419
0.41473 1.00000 0.09410
0.55801 1.00000 0.09393
0.69989 1.00000 0.09381
0.83583 1.00000 0.09388
0.96128 1.00000 0.09425
1.00000 1.00000 0.09503
0.02532 0.02461 0.23055
0.14239 0.02585 0.23132
0.27263 0.02688 0.23172
0.41153 0.02776 0.23189
0.55453 0.02859 0.23195
0.69709 0.02944 0.23204
0.83467 0.03039 0.23227
0.96273 0.03154 0.23278
1.00000 0.03296 0.23369
0.02556 0.13228 0.22839
0.14307 0.13397 0.22913
0.27363 0.13544 0.22951
0.41270 0.13677 0.22966
0.55574 0.13804 0.22970
0.69821 0.13933 0.22977
0.83555 0.14072 0.23000
0.96325 0.14231 0.23050
1.00000 0.14416 0.23140
0.02548 0.25165 0.22559
0.14344 0.25366 0.22630
0.27432 0.25545 0.22666
0.41357 0.25710 0.22679
0.55664 0.25868 0.22683
0.69901 0.26029 0.22689
0.83613 0.26200 0.22712
0.96345 0.26390 0.22762
1.00000 0.26606 0.22853
0.02519 0.37899 0.22234
0.14360 0.38120 0.22304
0.27479 0.38319 0.22338
0.41422 0.38503 0.22351
0.55733 0.38680 0.22354
0.69960 0.38860 0.22361
0.83649 0.39050 0.22383
0.96344 0.39258 0.22435
1.00000 0.39492 0.22526
0.02480 0.51058 0.21886
0.14366 0.51286 0.21955
0.27516 0.51491 0.21989
0.41476 0.51682 0.22002
0.55792 0.51866 0.22006
0.70009 0.52052 0.22013
0.83674 0.52248 0.22037
0.96332 0.52462 0.22090
1.00000 0.52702 0.22183
0.02441 0.64268 0.21536
0.14372 0.64491 0.21605
0.27553 0.64690 0.21639
0.41531 0.64875 0.21653
0.55850 0.65053 0.21658
0.70057 0.65232 0.21666
0.83699 0.65422 0.21692
0.96320 0.65629 0.21747
1.00000 0.65862 0.21843
0.02412 0.77157 0.21204
0.14388 0.77361 0.21274
0.27601 0.77542 0.21310
0.41595 0.77708 0.21325
0.55919 0.77867 0.21331
0.70116 0.78028 0.21342
0.83734 0.78198 0.21371
0.96318 0.78387 0.21429
1.00000 0.78599 0.21527
0.02405 0.89351 0.20913
0.14426 0.89524 0.20984
0.27669 0.89675 0.21022
0.41681 0.89809 0.21039
0.56008 0.89937 0.21048
0.70196 0.90066 0.21062
0.83790 0.90205 0.21093
0.96336 0.90361 0.21155
1.00000 0.90542 0.21257
0.02429 1.00000 0.20683
0.14494 1.00000 0.20756
0.27769 1.00000 0.20796
0.41798 1.00000 0.20816
0.56129 1.00000 0.20828
0.70307 1.00000 0.20846
0.83877 1.00000 0.20881
0.96386 1.00000 0.20947
1.00000 1.00000 0.21054
0.02763 0.02669 0.34896
0.14512 0.02794 0.34994
0.27567 0.02898 0.35055
0.41474 0.02987 0.35093
0.55778 0.03071 0.35120
0.70026 0.03157 0.35150
0.83764 0.03255 0.35194
0.96537 0.03371 0.35266
1.00000 0.03515 0.35377
0.02787 0.13475 0.34699
0.14581 0.13645 0.34794
0.27666 0.13793 0.34852
0.41591 0.13926 0.34888
0.55899 0.14054 0.34913
0.70137 0.14184 0.34940
0.83851 0.14325 0.34983
0.96587 0.14485 0.35054
1.00000 0.14672 0.35164
0.02780 0.25441 0.34438
0.14618 0.25643 0.34529
0.27735 0.25822 0.34586
0.41676 0.25987 0.34619
0.55988 0.26146 0.34643
0.70216 0.26307 0.34670
0.83906 0.26479 0.34712
0.96605 0.26670 0.34783
1.00000 0.26887 0.34893
0.02752 0.38193 0.34132
0.14635 0.38414 0.34222
0.27782 0.38612 0.34277
0.41741 0.38796 0.34309
0.56056 0.38974 0.34333
0.70274 0.39154 0.34359
0.83941 0.39344 0.34401
0.96602 0.39553 0.34472
1.00000 0.39788 0.34583
0.02714 0.51358 0.33804
0.14641 0.51586 0.33892
0.27820 0.51791 0.33946
0.41795 0.51981 0.33979
0.56114 0.52165 0.34002
0.70322 0.52350 0.34029
0.83965 0.52547 0.34072
0.96589 0.52761 0.34144
1.00000 0.53001 0.34256
0.02676 0.64564 0.33473
0.14648 0.64786 0.33562
0.27857 0.64984 0.33616
0.41850 0.65168 0.33649
0.56172 0.65346 0.33672
0.70370 0.65525 0.33700
0.83989 0.65714 0.33745
0.96575 0.65922 0.33819
1.00000 0.66154 0.33933
0.02650 0.77438 0.33162
0.14666 0.77641 0.33251
0.27906 0.77820 0.33306
0.41916 0.77985 0.33340
0.56241 0.78144 0.33365
0.70429 0.78304 0.33395
0.84024 0.78473 0.33442
0.96573 0.78661 0.33519
1.00000 0.78874 0.33635
0.02644 0.89606 0.32892
0.14705 0.89778 0.32981
0.27975 0.89926 0.33037
0.42002 0.90059 0.33073
0.56331 0.90186 0.33100
0.70509 0.90314 0.33133
0.84080 0.90452 0.33183
0.96591 0.90607 0.33263
1.00000 0.90787 0.33383
0.02671 1.00000 0.32682
0.14775 1.00000 0.32773
0.28077 1.00000 0.32831
0.42121 1.00000 0.32869
0.56453 1.00000 0.32900
0.70620 1.00000 0.32936
0.84167 1.00000 0.32989
0.96640 1.00000 0.33074
1.00000 1.00000 0.33197
0.02993 0.02876 0.47202
0.14784 0.03002 0.47310
0.27869 0.03106 0.47381
0.41793 0.03196 0.47429
0.56101 0.03281 0.47467
0.70342 0.03369 0.47506
0.84059 0.03468 0.47560
0.96798 0.03587 0.47642
1.00000 0.03733 0.47762
0.03017 0.13721 0.47014
0.14853 0.13891 0.47118
0.27968 0.14039 0.47186
0.41909 0.14173 0.47231
0.56221 0.14302 0.47266
0.70450 0.14433 0.47304
0.84144 0.14576 0.47356
0.96846 0.14738 0.47436
1.00000 0.14926 0.47556
0.03011 0.25715 0.46761
0.14890 0.25917 0.46862
0.28036 0.26096 0.46928
0.41994 0.26261 0.46971
0.56309 0.26421 0.47004
0.70528 0.26583 0.47040
0.84197 0.26756 0.47091
0.96862 0.26948 0.47171
1.00000 0.27167 0.47290
0.02984 0.38484 0.46464
0.14907 0.38705 0.46563
0.28084 0.38903 0.46627
0.42058 0.39087 0.46669
0.56377 0.39265 0.46701
0.70586 0.39445 0.46736
0.84231 0.39636 0.46788
0.96857 0.39846 0.46868
1.00000 0.40082 0.46987
0.02947 0.51656 0.46145
0.14915 0.51883 0.46243
0.28121 0.52087 0.46306
0.42113 0.52277 0.46347
0.56435 0.52461 0.46379
0.70633 0.52646 0.46414
0.84254 0.52843 0.46466
0.96843 0.53058 0.46546
1.00000 0.53299 0.46666
0.02911 0.64858 0.45825
0.14923 0.65078 0.45921
0.28160 0.65276 0.45984
0.42168 0.65459 0.46025
0.56493 0.65636 0.46057
0.70681 0.65814 0.46093
0.84277 0.66004 0.46146
0.96828 0.66212 0.46229
1.00000 0.66444 0.46350
0.02886 0.77716 0.45524
0.14942 0.77917 0.45620
0.28209 0.78095 0.45683
0.42234 0.78259 0.45725
0.56562 0.78417 0.45758
0.70739 0.78576 0.45796
0.84312 0.78745 0.45851
0.96825 0.78933 0.45935
1.00000 0.79145 0.46059
0.02883 0.89857 0.45263
0.14983 0.90027 0.45360
0.28280 0.90174 0.45424
0.42322 0.90306 0.45467
0.56653 0.90431 0.45502
0.70819 0.90558 0.45542
0.84367 0.90695 0.45600
0.96842 0.90850 0.45687
1.00000 0.91029 0.45814
0.02911 1.00000 0.45063
0.15055 1.00000 0.45162
0.28383 1.00000 0.45228
0.42441 1.00000 0.45273
0.56775 1.00000 0.45311
0.70931 1.00000 0.45354
0.84455 1.00000 0.45414
0.96892 1.00000 0.45506
1.00000 1.00000 0.45636
0.03224 0.03082 0.59676
0.15057 0.03209 0.59782
0.28170 0.03314 0.59853
0.42111 0.03405 0.59900
0.56424 0.03492 0.59937
0.70656 0.03582 0.59975
0.84352 0.03683 0.60028
0.97058 0.03803 0.60108
1.00000 0.03951 0.60228
0.03248 0.13967 0.59485
0.15125 0.14137 0.59588
0.28269 0.14286 0.59655
0.42226 0.14421 0.59699
0.56542 0.14550 0.59733
0.70763 0.14683 0.59769
0.84435 0.14827 0.59820
0.97103 0.14990 0.59899
1.00000 0.15181 0.60016
0.03242 0.25989 0.59231
0.15163 0.26190 0.59331
0.28337 0.26370 0.59395
0.42311 0.26536 0.59436
0.56630 0.26696 0.59468
0.70840 0.26859 0.59502
0.84487 0.27033 0.59552
0.97117 0.27227 0.59630
1.00000 0.27446 0.59747
0.03216 0.38775 0.58933
0.15181 0.38995 0.59030
0.28385 0.39193 0.59092
0.42375 0.39377 0.59132
0.56697 0.39555 0.59162
0.70896 0.39736 0.59195
0.84519 0.39928 0.59245
0.97111 0.40139 0.59322
1.00000 0.40376 0.59439
0.03180 0.51953 0.58613
0.15189 0.52179 0.58708
0.28423 0.52383 0.58769
0.42430 0.52572 0.58808
0.56755 0.52756 0.58837
0.70943 0.52942 0.58870
0.84541 0.53139 0.58919
0.97095 0.53355 0.58998
1.00000 0.53596 0.59115
0.03146 0.65150 0.58292
0.15198 0.65369 0.58386
0.28463 0.65566 0.58446
0.42486 0.65748 0.58484
0.56813 0.65925 0.58514
0.70990 0.66103 0.58547
0.84564 0.66293 0.58597
0.97080 0.66501 0.58677
1.00000 0.66734 0.58795
0.03123 0.77992 0.57990
0.15219 0.78192 0.58084
0.28513 0.78369 0.58144
0.42552 0.78532 0.58182
0.56882 0.78689 0.58213
0.71049 0.78847 0.58247
0.84598 0.79017 0.58299
0.97076 0.79204 0.58381
1.00000 0.79416 0.58500
0.03122 0.90107 0.57729
0.15261 0.90275 0.57823
0.28586 0.90420 0.57884
0.42641 0.90551 0.57923
0.56974 0.90675 0.57955
0.71129 0.90801 0.57992
0.84654 0.90937 0.58046
0.97093 0.91092 0.58130
1.00000 0.91271 0.58252
0.03153 1.00000 0.57530
0.15336 1.00000 0.57625
0.28690 1.00000 0.57687
0.42762 1.00000 0.57728
0.57097 1.00000 0.57762
0.71242 1.00000 0.57801
0.84741 1.00000 0.57858
0.97142 1.00000 0.57946
1.00000 1.00000 0.58071
0.03456 0.03291 0.72018
0.15331 0.03419 0.72113
0.28474 0.03525 0.72172
0.42430 0.03617 0.72207
0.56747 0.03705 0.72232
0.70970 0.03797 0.72258
0.84645 0.03899 0.72299
0.97318 0.04022 0.72368
1.00000 0.04172 0.72475
0.03481 0.14214 0.71816
0.15399 0.14385 0.71907
0.28572 0.14534 0.71962
0.42545 0.14670 0.71993
0.56865 0.14801 0.72015
0.71076 0.14935 0.72038
0.84726 0.15080 0.72077
0.97361 0.15246 0.72144
1.00000 0.15438 0.72249
0.03476 0.26264 0.71549
0.15437 0.26466 0.71637
0.28640 0.26645 0.71688
0.42629 0.26812 0.71717
0.56951 0.26973 0.71736
0.71152 0.27137 0.71758
0.84777 0.27312 0.71795
0.97373 0.27507 0.71860
1.00000 0.27728 0.71964
0.03450 0.39067 0.71240
0.15456 0.39287 0.71324
0.28688 0.39485 0.71374
0.42693 0.39669 0.71401
0.57018 0.39848 0.71418
0.71208 0.40029 0.71438
0.84808 0.40222 0.71474
0.97365 0.40434 0.71539
1.00000 0.40672 0.71642
0.03416 0.52251 0.70909
0.15465 0.52477 0.70991
0.28727 0.52680 0.71038
0.42748 0.52869 0.71064
0.57075 0.53053 0.71080
0.71254 0.53239 0.71100
0.84829 0.53436 0.71136
0.97348 0.53653 0.71201
1.00000 0.53895 0.71304
0.03383 0.65443 0.70576
0.15475 0.65661 0.70657
0.28767 0.65857 0.70703
0.42805 0.66039 0.70728
0.57134 0.66215 0.70744
0.71301 0.66394 0.70764
0.84852 0.66583 0.70800
0.97332 0.66792 0.70866
1.00000 0.67025 0.70970
0.03362 0.78269 0.70264
0.15497 0.78468 0.70344
0.28819 0.78644 0.70390
0.42872 0.78806 0.70415
0.57204 0.78962 0.70431
0.71360 0.79120 0.70452
0.84885 0.79289 0.70489
0.97327 0.79476 0.70557
1.00000 0.79688 0.70662
0.03363 0.90357 0.69992
0.15542 0.90523 0.70072
0.28893 0.90667 0.70119
0.42962 0.90796 0.70144
0.57296 0.90920 0.70162
0.71440 0.91045 0.70184
0.84941 0.91181 0.70223
0.97343 0.91335 0.70293
1.00000 0.91513 0.70400
0.03397 1.00000 0.69783
0.15619 1.00000 0.69863
0.28999 1.00000 0.69911
0.43084 1.00000 0.69938
0.57421 1.00000 0.69957
0.71553 1.00000 0.69981
0.85029 1.00000 0.70024
0.97393 1.00000 0.70096
1.00000 1.00000 0.70206
0.03692 0.03504 0.83932
0.15608 0.03632 0.84005
0.28780 0.03740 0.84041
0.42753 0.03834 0.84053
0.57073 0.03923 0.84055
0.71287 0.04016 0.84058
0.84940 0.04121 0.84077
0.97579 0.04246 0.84122
1.00000 0.04398 0.84206
0.03717 0.14466 0.83707
0.15677 0.14637 0.83775
0.28878 0.14787 0.83807
0.42867 0.14924 0.83816
0.57189 0.15056 0.83814
0.71392 0.15191 0.83814
0.85020 0.15338 0.83830
0.97620 0.15505 0.83873
1.00000 0.15699 0.83954
0.03713 0.26543 0.83419
0.15715 0.26745 0.83483
0.28946 0.26925 0.83511
0.42950 0.27092 0.83517
0.57275 0.27254 0.83512
0.71466 0.27419 0.83510
0.85069 0.27595 0.83524
0.97630 0.27792 0.83565
1.00000 0.28014 0.83645
0.03689 0.39363 0.83088
0.15734 0.39583 0.83148
0.28994 0.39780 0.83174
0.43015 0.39965 0.83177
0.57342 0.40144 0.83170
0.71521 0.40326 0.83167
0.85099 0.40520 0.83179
0.97621 0.40733 0.83220
1.00000 0.40971 0.83298
0.03656 0.52553 0.82735
0.15744 0.52777 0.82793
0.29034 0.52980 0.82816
0.43070 0.53169 0.82817
0.57399 0.53353 0.82809
0.71567 0.53540 0.82805
0.85119 0.53738 0.82817
0.97602 0.53955 0.82857
1.00000 0.54197 0.82935
0.03624 0.65739 0.82381
0.15756 0.65956 0.82437
0.29075 0.66152 0.82459
0.43126 0.66333 0.82459
0.57458 0.66509 0.82451
0.71614 0.66687 0.82446
0.85141 0.66877 0.82458
0.97585 0.67086 0.82499
1.00000 0.67319 0.82577
0.03605 0.78549 0.82047
0.15779 0.78746 0.82102
0.29127 0.78921 0.82124
0.43195 0.79082 0.82124
0.57528 0.79238 0.82115
0.71673 0.79396 0.82111
0.85174 0.79564 0.82123
0.97580 0.79752 0.82166
1.00000 0.79963 0.82245
0.03609 0.90610 0.81755
0.15826 0.90774 0.81810
0.29203 0.90917 0.81831
0.43286 0.91045 0.81831
0.57621 0.91167 0.81823
0.71754 0.91291 0.81820
0.85230 0.91427 0.81834
0.97596 0.91581 0.81879
1.00000 0.91758 0.81960
0.03645 1.00000 0.81525
0.15905 1.00000 0.81580
0.29311 1.00000 0.81602
0.43410 1.00000 0.81603
0.57747 1.00000 0.81597
0.71868 1.00000 0.81596
0.85319 1.00000 0.81612
0.97645 1.00000 0.81659
1.00000 1.00000 0.81748
0.03933 0.03723 0.95120
0.15890 0.03853 0.95159
0.29090 0.03961 0.95161
0.43079 0.04056 0.95140
0.57403 0.04148 0.95108
0.71608 0.04242 0.95077
0.85239 0.04349 0.95062
0.97843 0.04477 0.95073
1.00000 0.04631 0.95122
0.03959 0.14723 0.94862
0.15959 0.14895 0.94896
0.29188 0.15046 0.94894
0.43192 0.15184 0.94869
0.57518 0.15317 0.94833
0.71711 0.15454 0.94799
0.85317 0.15603 0.94780
0.97882 0.15772 0.94789
1.00000 0.15967 0.94835
0.03955 0.26828 0.94541
0.15998 0.27030 0.94571
0.29256 0.27211 0.94565
0.43276 0.27378 0.94536
0.57604 0.27541 0.94497
0.71785 0.27707 0.94460
0.85365 0.27885 0.94439
0.97891 0.28083 0.94446
1.00000 0.28307 0.94491
0.03932 0.39664 0.94178
0.16018 0.39884 0.94204
0.29305 0.40082 0.94195
0.43340 0.40266 0.94163
0.57670 0.40446 0.94121
0.71839 0.40629 0.94083
0.85393 0.40823 0.94060
0.97880 0.41038 0.94066
1.00000 0.41277 0.94109
0.03901 0.52859 0.93793
0.16029 0.53084 0.93816
0.29345 0.53286 0.93804
0.43396 0.53475 0.93770
0.57727 0.53659 0.93727
0.71884 0.53846 0.93688
0.85413 0.54045 0.93664
0.97860 0.54263 0.93669
1.00000 0.54506 0.93711
0.03871 0.66040 0.93407
0.16042 0.66257 0.93428
0.29387 0.66451 0.93415
0.43453 0.66632 0.93380
0.57786 0.66808 0.93336
0.71931 0.66986 0.93295
0.85434 0.67176 0.93271
0.97842 0.67385 0.93277
1.00000 0.67619 0.93319
0.03854 0.78834 0.93042
0.16067 0.79030 0.93062
0.29441 0.79204 0.93047
0.43522 0.79364 0.93011
0.57857 0.79519 0.92967
0.71990 0.79676 0.92927
0.85467 0.79845 0.92903
0.97836 0.80033 0.92910
1.00000 0.80244 0.92952
0.03860 0.90867 0.92719
0.16115 0.91030 0.92738
0.29518 0.91171 0.92723
0.43615 0.91298 0.92687
0.57950 0.91419 0.92643
0.72071 0.91543 0.92603
0.85523 0.91678 0.92581
0.97852 0.91831 0.92589
1.00000 0.92008 0.92633
0.03899 1.00000 0.92458
0.16197 1.00000 0.92476
0.29628 1.00000 0.92462
0.43740 1.00000 0.92427
0.58077 1.00000 0.92384
0.72186 1.00000 0.92346
0.85612 1.00000 0.92326
0.97901 1.00000 0.92336
1.00000 1.00000 0.92415
