luts/silver-mono.cube
# silver-mono  (original film-style LUT, free for any use)
LUT_3D_SIZE 9
0.03030 0.03018 0.02988
0.06897 0.06870 0.06801
0.11097 0.11053 0.10943
0.15592 0.15531 0.15376
0.20347 0.20266 0.20065
0.25323 0.25223 0.24972
0.30483 0.30363 0.30061
0.35791 0.35649 0.35295
0.41209 0.41045 0.40637
0.07379 0.07349 0.07276
0.11616 0.11570 0.11454
0.16144 0.16080 0.15920
0.20927 0.20844 0.20636
0.25926 0.25824 0.25567
0.31106 0.30983 0.30675
0.36429 0.36285 0.35924
0.41857 0.41691 0.41277
0.47354 0.47166 0.46698
0.12138 0.12090 0.11970
0.16699 0.16633 0.16467
0.21509 0.21424 0.21211
0.26532 0.26427 0.26165
0.31731 0.31606 0.31291
0.37068 0.36921 0.36554
0.42507 0.42338 0.41917
0.48009 0.47819 0.47344
0.53538 0.53326 0.52796
0.17258 0.17189 0.17018
0.22095 0.22008 0.21789
0.27141 0.27034 0.26765
0.32358 0.32230 0.31910
0.37709 0.37560 0.37186
0.43157 0.42986 0.42559
0.48665 0.48472 0.47990
0.54195 0.53980 0.53444
0.59710 0.59474 0.58883
0.22684 0.22594 0.22369
0.27752 0.27642 0.27367
0.32987 0.32856 0.32530
0.38351 0.38200 0.37820
0.43808 0.43635 0.43201
0.49321 0.49125 0.48637
0.54851 0.54634 0.54091
0.60362 0.60123 0.59525
0.65817 0.65557 0.64905
0.28365 0.28253 0.27972
0.33618 0.33484 0.33152
0.38995 0.38841 0.38454
0.44460 0.44284 0.43844
0.49977 0.49779 0.49284
0.55507 0.55287 0.54737
0.61013 0.60772 0.60168
0.66459 0.66196 0.65538
0.71807 0.71523 0.70812
0.34250 0.34114 0.33775
0.39640 0.39483 0.39090
0.45113 0.44935 0.44488
0.50633 0.50433 0.49931
0.56162 0.55940 0.55384
0.61664 0.61419 0.60809
0.67100 0.66834 0.66170
0.72434 0.72147 0.71430
0.77628 0.77321 0.76552
0.40286 0.40126 0.39727
0.45767 0.45585 0.45132
0.51290 0.51086 0.50579
0.56817 0.56592 0.56030
0.62313 0.62066 0.61449
0.67739 0.67471 0.66800
0.73058 0.72769 0.72046
0.78234 0.77924 0.77150
0.83229 0.82899 0.82075
0.46421 0.46237 0.45777
0.51946 0.51740 0.51226
0.57472 0.57244 0.56675
0.62961 0.62712 0.62088
0.68377 0.68106 0.67429
0.73681 0.73389 0.72660
0.78837 0.78525 0.77744
0.83808 0.83476 0.82646
0.88556 0.88205 0.87329
0.04560 0.04541 0.04496
0.08566 0.08532 0.08448
0.12891 0.12840 0.12712
0.17496 0.17427 0.17254
0.22345 0.22257 0.22036
0.27401 0.27292 0.27021
0.32625 0.32496 0.32173
0.37982 0.37832 0.37456
0.43434 0.43262 0.42832
0.09064 0.09028 0.08938
0.13424 0.13370 0.13237
0.18060 0.17988 0.17809
0.22935 0.22844 0.22617
0.28013 0.27902 0.27624
0.33255 0.33123 0.32794
0.38625 0.38472 0.38090
0.44086 0.43911 0.43475
0.49600 0.49403 0.48912
0.13960 0.13905 0.13767
0.18627 0.18553 0.18368
0.23528 0.23435 0.23202
0.28627 0.28514 0.28230
0.33886 0.33752 0.33417
0.39269 0.39114 0.38725
0.44738 0.44561 0.44118
0.50256 0.50057 0.49559
0.55786 0.55565 0.55012
0.19197 0.19121 0.18931
0.24124 0.24028 0.23789
0.29244 0.29128 0.28838
0.34520 0.34383 0.34041
0.39915 0.39756 0.39361
0.45391 0.45211 0.44762
0.50912 0.50711 0.50207
0.56441 0.56218 0.55659
0.61940 0.61695 0.61081
0.24722 0.24624 0.24379
0.29862 0.29744 0.29448
0.35154 0.35015 0.34667
0.40561 0.40400 0.39999
0.46045 0.45863 0.45407
0.51569 0.51365 0.50854
0.57096 0.56870 0.56305
0.62589 0.62341 0.61721
0.68010 0.67741 0.67068
0.30483 0.30363 0.30061
0.35791 0.35649 0.35295
0.41209 0.41045 0.40637
0.46699 0.46514 0.46052
0.52226 0.52019 0.51502
0.57750 0.57522 0.56950
0.63237 0.62986 0.62360
0.68647 0.68376 0.67696
0.73945 0.73652 0.72920
0.36429 0.36285 0.35924
0.41857 0.41691 0.41277
0.47354 0.47166 0.46698
0.52882 0.52673 0.52149
0.58404 0.58173 0.57595
0.63884 0.63631 0.62998
0.69283 0.69008 0.68322
0.74565 0.74269 0.73531
0.79692 0.79376 0.78587
0.42507 0.42338 0.41917
0.48009 0.47819 0.47344
0.53538 0.53326 0.52796
0.59058 0.58824 0.58239
0.64529 0.64274 0.63635
0.69917 0.69640 0.68947
0.75182 0.74884 0.74140
0.80289 0.79971 0.79176
0.85199 0.84862 0.84018
0.48665 0.48472 0.47990
0.54195 0.53980 0.53444
0.59710 0.59474 0.58883
0.65174 0.64916 0.64271
0.70549 0.70269 0.69571
0.75797 0.75497 0.74747
0.80882 0.80562 0.79761
0.85767 0.85428 0.84578
0.90414 0.90056 0.89161
0.06148 0.06123 0.06063
0.10288 0.10248 0.10146
0.14732 0.14673 0.14527
0.19440 0.19363 0.19171
0.24378 0.24281 0.24040
0.29507 0.29390 0.29098
0.34790 0.34652 0.34307
0.40190 0.40030 0.39632
0.45669 0.45488 0.45036
0.10800 0.10758 0.10651
0.15277 0.15217 0.15065
0.20015 0.19936 0.19738
0.24977 0.24878 0.24631
0.30126 0.30007 0.29709
0.35425 0.35285 0.34934
0.40836 0.40675 0.40270
0.46323 0.46140 0.45681
0.51848 0.51643 0.51130
0.15827 0.15764 0.15607
0.20593 0.20512 0.20308
0.25579 0.25478 0.25225
0.30748 0.30626 0.30322
0.36062 0.35919 0.35562
0.41484 0.41320 0.40909
0.46978 0.46792 0.46327
0.52505 0.52297 0.51777
0.58029 0.57799 0.57224
0.21174 0.21090 0.20881
0.26184 0.26080 0.25821
0.31372 0.31248 0.30937
0.36701 0.36555 0.36192
0.42133 0.41967 0.41549
0.47633 0.47444 0.46972
0.53161 0.52951 0.52425
0.58682 0.58450 0.57869
0.64159 0.63904 0.63269
0.26791 0.26685 0.26420
0.31998 0.31871 0.31554
0.37341 0.37193 0.36823
0.42783 0.42614 0.42190
0.48288 0.48097 0.47619
0.53818 0.53605 0.53072
0.59335 0.59100 0.58513
0.64804 0.64547 0.63906
0.70186 0.69908 0.69213
0.32625 0.32496 0.32173
0.37982 0.37832 0.37456
0.43434 0.43262 0.42832
0.48944 0.48750 0.48265
0.54474 0.54258 0.53719
0.59988 0.59750 0.59156
0.65448 0.65189 0.64541
0.70817 0.70537 0.69835
0.76058 0.75757 0.75004
0.38625 0.38472 0.38090
0.44086 0.43911 0.43475
0.49600 0.49403 0.48912
0.55130 0.54912 0.54366
0.60639 0.60399 0.59799
0.66091 0.65829 0.65174
0.71447 0.71164 0.70456
0.76670 0.76366 0.75607
0.81724 0.81400 0.80591
0.44738 0.44561 0.44118
0.50256 0.50057 0.49559
0.55786 0.55565 0.55012
0.61290 0.61047 0.60441
0.66732 0.66468 0.65807
0.72074 0.71789 0.71075
0.77279 0.76973 0.76208
0.82311 0.81985 0.81170
0.87131 0.86786 0.85923
0.50912 0.50711 0.50207
0.56441 0.56218 0.55659
0.61940 0.61695 0.61081
0.67372 0.67105 0.66438
0.72700 0.72412 0.71692
0.77886 0.77578 0.76807
0.82895 0.82566 0.81746
0.87687 0.87340 0.86472
0.92227 0.91862 0.90949
0.07792 0.07761 0.07684
0.12060 0.12013 0.11893
0.16616 0.16550 0.16386
0.21422 0.21338 0.21125
0.26442 0.26337 0.26076
0.31638 0.31513 0.31199
0.36973 0.36827 0.36460
0.42410 0.42242 0.41822
0.47912 0.47722 0.47247
0.12587 0.12537 0.12412
0.17174 0.17106 0.16936
0.22008 0.21921 0.21703
0.27050 0.26943 0.26675
0.32265 0.32137 0.31817
0.37614 0.37465 0.37092
0.43060 0.42890 0.42463
0.48567 0.48375 0.47894
0.54097 0.53883 0.53347
0.17736 0.17665 0.17490
0.22596 0.22506 0.22283
0.27661 0.27551 0.27277
0.32893 0.32763 0.32437
0.38256 0.38104 0.37725
0.43711 0.43538 0.43105
0.49223 0.49028 0.48541
0.54753 0.54536 0.53994
0.60265 0.60026 0.59430
0.23187 0.23095 0.22866
0.28274 0.28162 0.27882
0.33524 0.33391 0.33059
0.38899 0.38745 0.38360
0.44363 0.44188 0.43748
0.49879 0.49681 0.49188
0.55409 0.55190 0.54641
0.60916 0.60675 0.60072
0.66364 0.66101 0.65444
0.28889 0.28775 0.28489
0.34156 0.34020 0.33682
0.39544 0.39387 0.38996
0.45016 0.44838 0.44392
0.50535 0.50335 0.49835
0.56065 0.55843 0.55288
0.61567 0.61323 0.60713
0.67004 0.66739 0.66076
0.72341 0.72054 0.71338
0.34790 0.34652 0.34307
0.40190 0.40030 0.39632
0.45669 0.45488 0.45036
0.51192 0.50989 0.50482
0.56720 0.56495 0.55934
0.62216 0.61970 0.61354
0.67644 0.67376 0.66706
0.72965 0.72676 0.71954
0.78144 0.77835 0.77061
0.40836 0.40675 0.40270
0.46323 0.46140 0.45681
0.51848 0.51643 0.51130
0.57375 0.57147 0.56579
0.62865 0.62616 0.61993
0.68282 0.68011 0.67335
0.73588 0.73297 0.72568
0.78747 0.78435 0.77656
0.83722 0.83390 0.82561
0.46978 0.46792 0.46327
0.52505 0.52297 0.51777
0.58029 0.57799 0.57224
0.63512 0.63261 0.62632
0.68918 0.68645 0.67963
0.74209 0.73915 0.73180
0.79348 0.79034 0.78248
0.84298 0.83964 0.83130
0.89022 0.88669 0.87788
0.53161 0.52951 0.52425
0.58682 0.58450 0.57869
0.64159 0.63904 0.63269
0.69553 0.69277 0.68589
0.74828 0.74531 0.73790
0.79946 0.79630 0.78838
0.84871 0.84535 0.83695
0.89566 0.89211 0.88324
0.93992 0.93620 0.92690
0.09490 0.09453 0.09359
0.13880 0.13825 0.13688
0.18542 0.18469 0.18285
0.23440 0.23347 0.23115
0.28535 0.28422 0.28140
0.33792 0.33658 0.33324
0.39173 0.39018 0.38630
0.44641 0.44464 0.44022
0.50158 0.49960 0.49463
0.14420 0.14363 0.14220
0.19112 0.19036 0.18847
0.24035 0.23940 0.23702
0.29152 0.29036 0.28748
0.34425 0.34289 0.33948
0.39818 0.39661 0.39266
0.45294 0.45115 0.44666
0.50815 0.50613 0.50110
0.56343 0.56120 0.55562
0.19685 0.19607 0.19412
0.24633 0.24535 0.24291
0.29770 0.29652 0.29357
0.35060 0.34921 0.34574
0.40465 0.40304 0.39904
0.45948 0.45766 0.45311
0.51471 0.51267 0.50758
0.56998 0.56773 0.56208
0.62492 0.62245 0.61626
0.25233 0.25133 0.24883
0.30391 0.30270 0.29969
0.35696 0.35555 0.35201
0.41112 0.40949 0.40542
0.46602 0.46417 0.45956
0.52128 0.51921 0.51405
0.57653 0.57425 0.56854
0.63140 0.62890 0.62265
0.68553 0.68281 0.67602
0.31013 0.30890 0.30583
0.36334 0.36190 0.35830
0.41760 0.41595 0.41182
0.47256 0.47069 0.46601
0.52784 0.52575 0.52053
0.58307 0.58076 0.57499
0.63787 0.63535 0.62903
0.69188 0.68914 0.68229
0.74473 0.74178 0.73440
0.36973 0.36827 0.36460
0.42410 0.42242 0.41822
0.47912 0.47722 0.47247
0.53441 0.53229 0.52700
0.58960 0.58727 0.58143
0.64433 0.64178 0.63540
0.69822 0.69546 0.68854
0.75090 0.74793 0.74049
0.80200 0.79882 0.79088
0.43060 0.42890 0.42463
0.48567 0.48375 0.47894
0.54097 0.53883 0.53347
0.59613 0.59377 0.58787
0.65078 0.64820 0.64176
0.70455 0.70176 0.69478
0.75706 0.75406 0.74656
0.80794 0.80474 0.79674
0.85683 0.85344 0.84495
0.49223 0.49028 0.48541
0.54753 0.54536 0.53994
0.60265 0.60026 0.59430
0.65721 0.65461 0.64810
0.71085 0.70804 0.70100
0.76319 0.76017 0.75261
0.81386 0.81063 0.80257
0.86248 0.85906 0.85053
0.90869 0.90509 0.89610
0.55409 0.55190 0.54641
0.60916 0.60675 0.60072
0.66364 0.66101 0.65444
0.71714 0.71430 0.70720
0.76930 0.76625 0.75863
0.81974 0.81649 0.80838
0.86810 0.86466 0.85607
0.91400 0.91038 0.90133
0.95707 0.95328 0.94380
0.11240 0.11195 0.11084
0.15745 0.15682 0.15526
0.20507 0.20426 0.20223
0.25490 0.25389 0.25136
0.30655 0.30534 0.30230
0.35967 0.35825 0.35469
0.41388 0.41224 0.40814
0.46880 0.46695 0.46230
0.52407 0.52200 0.51681
0.16297 0.16233 0.16071
0.21087 0.21004 0.20795
0.26094 0.25990 0.25732
0.31279 0.31155 0.30845
0.36606 0.36461 0.36098
0.42037 0.41870 0.41454
0.47535 0.47347 0.46876
0.53064 0.52853 0.52328
0.58585 0.58353 0.57773
0.21671 0.21585 0.21371
0.26701 0.26595 0.26330
0.31904 0.31778 0.31462
0.37245 0.37098 0.36729
0.42686 0.42517 0.42095
0.48190 0.48000 0.47522
0.53720 0.53507 0.52975
0.59238 0.59004 0.58417
0.64708 0.64452 0.63811
0.27310 0.27202 0.26931
0.32532 0.32403 0.32081
0.37887 0.37737 0.37362
0.43337 0.43166 0.42736
0.48846 0.48653 0.48169
0.54376 0.54161 0.53623
0.59891 0.59653 0.59060
0.65352 0.65093 0.64446
0.70723 0.70443 0.69743
0.33161 0.33030 0.32702
0.38529 0.38377 0.37995
0.43989 0.43814 0.43379
0.49502 0.49306 0.48816
0.55032 0.54814 0.54270
0.60542 0.60303 0.59703
0.65995 0.65734 0.65080
0.71353 0.71070 0.70364
0.76579 0.76276 0.75518
0.39173 0.39018 0.38630
0.44641 0.44464 0.44022
0.50158 0.49960 0.49463
0.55688 0.55468 0.54916
0.61193 0.60951 0.60345
0.66636 0.66373 0.65713
0.71981 0.71696 0.70983
0.77189 0.76883 0.76119
0.82224 0.81898 0.81084
0.45294 0.45115 0.44666
0.50815 0.50613 0.50110
0.56343 0.56120 0.55562
0.61843 0.61598 0.60986
0.67277 0.67010 0.66344
0.72607 0.72319 0.71600
0.77796 0.77488 0.76718
0.82808 0.82480 0.81660
0.87605 0.87258 0.86390
0.51471 0.51267 0.50758
0.56998 0.56773 0.56208
0.62492 0.62245 0.61626
0.67915 0.67646 0.66974
0.73231 0.72941 0.72216
0.78401 0.78091 0.77314
0.83389 0.83059 0.82233
0.88158 0.87809 0.86936
0.92670 0.92303 0.91386
0.57653 0.57425 0.56854
0.63140 0.62890 0.62265
0.68553 0.68281 0.67602
0.73853 0.73560 0.72829
0.79003 0.78690 0.77908
0.83967 0.83635 0.82804
0.88708 0.88356 0.87478
0.93187 0.92818 0.91896
0.97369 0.96983 0.96019
0.13038 0.12986 0.12857
0.17652 0.17582 0.17407
0.22508 0.22419 0.22196
0.27570 0.27461 0.27188
0.32799 0.32670 0.32345
0.38160 0.38009 0.37631
0.43614 0.43442 0.43010
0.49125 0.48931 0.48444
0.54655 0.54439 0.53898
0.18216 0.18144 0.17964
0.23099 0.23007 0.22779
0.28182 0.28071 0.27792
0.33430 0.33297 0.32966
0.38803 0.38650 0.38265
0.44266 0.44091 0.43653
0.49781 0.49584 0.49091
0.55311 0.55092 0.54545
0.60819 0.60579 0.59976
0.23692 0.23599 0.23364
0.28797 0.28683 0.28398
0.34061 0.33927 0.33589
0.39448 0.39291 0.38901
0.44919 0.44741 0.44296
0.50438 0.50238 0.49738
0.55967 0.55745 0.55191
0.61470 0.61226 0.60618
0.66909 0.66644 0.65982
0.29415 0.29298 0.29007
0.34695 0.34558 0.34214
0.40093 0.39934 0.39537
0.45572 0.45391 0.44940
0.51094 0.50892 0.50386
0.56622 0.56398 0.55837
0.62120 0.61874 0.61258
0.67549 0.67281 0.66612
0.72873 0.72584 0.71862
0.35330 0.35190 0.34841
0.40740 0.40579 0.40175
0.46226 0.46043 0.45585
0.51751 0.51546 0.51033
0.57277 0.57050 0.56483
0.62768 0.62520 0.61898
0.68187 0.67917 0.67242
0.73496 0.73205 0.72477
0.78658 0.78346 0.77567
0.41388 0.41224 0.40814
0.46880 0.46695 0.46230
0.52407 0.52200 0.51681
0.57931 0.57702 0.57128
0.63416 0.63165 0.62537
0.68823 0.68551 0.67869
0.74117 0.73823 0.73089
0.79259 0.78945 0.78160
0.84213 0.83879 0.83045
0.47535 0.47347 0.46876
0.53064 0.52853 0.52328
0.58585 0.58353 0.57773
0.64062 0.63809 0.63174
0.69458 0.69183 0.68495
0.74736 0.74440 0.73700
0.79857 0.79541 0.78750
0.84786 0.84450 0.83611
0.89485 0.89131 0.88245
0.53720 0.53507 0.52975
0.59238 0.59004 0.58417
0.64708 0.64452 0.63811
0.70092 0.69814 0.69120
0.75352 0.75054 0.74308
0.80453 0.80135 0.79338
0.85357 0.85019 0.84173
0.90026 0.89669 0.88778
0.94423 0.94049 0.93114
0.59891 0.59653 0.59060
0.65352 0.65093 0.64446
0.70723 0.70443 0.69743
0.75967 0.75666 0.74914
0.81046 0.80725 0.79923
0.85924 0.85583 0.84733
0.90563 0.90204 0.89307
0.94925 0.94549 0.93610
0.98975 0.98583 0.97603
0.14882 0.14823 0.14676
0.19599 0.19521 0.19327
0.24543 0.24446 0.24203
0.29678 0.29560 0.29266
0.34965 0.34827 0.34481
0.40368 0.40208 0.39809
0.45850 0.45669 0.45215
0.51373 0.51170 0.50661
0.56901 0.56676 0.56112
0.20175 0.20095 0.19895
0.25144 0.25044 0.24795
0.30298 0.30178 0.29878
0.35601 0.35460 0.35108
0.41016 0.40853 0.40447
0.46504 0.46320 0.45860
0.52030 0.51824 0.51309
0.57556 0.57328 0.56758
0.63044 0.62794 0.62170
0.25746 0.25644 0.25389
0.30920 0.30798 0.30492
0.36239 0.36095 0.35736
0.41664 0.41499 0.41086
0.47159 0.46972 0.46505
0.52686 0.52478 0.51956
0.58210 0.57979 0.57403
0.63691 0.63439 0.62808
0.69094 0.68820 0.68136
0.31545 0.31420 0.31108
0.36878 0.36732 0.36366
0.42313 0.42146 0.41727
0.47814 0.47625 0.47151
0.53343 0.53132 0.52604
0.58863 0.58630 0.58047
0.64337 0.64082 0.63445
0.69728 0.69452 0.68761
0.74998 0.74701 0.73959
0.37518 0.37370 0.36998
0.42963 0.42793 0.42368
0.48469 0.48277 0.47798
0.53999 0.53785 0.53251
0.59516 0.59280 0.58691
0.64982 0.64725 0.64081
0.70361 0.70082 0.69385
0.75614 0.75315 0.74566
0.80706 0.80386 0.79587
0.43614 0.43442 0.43010
0.49125 0.48931 0.48444
0.54655 0.54439 0.53898
0.60168 0.59930 0.59334
0.65626 0.65366 0.64716
0.70991 0.70710 0.70007
0.76228 0.75926 0.75171
0.81298 0.80976 0.80171
0.86164 0.85823 0.84970
0.49781 0.49584 0.49091
0.55311 0.55092 0.54545
0.60819 0.60579 0.59976
0.66268 0.66006 0.65350
0.71620 0.71337 0.70628
0.76839 0.76535 0.75774
0.81887 0.81562 0.80752
0.86726 0.86383 0.85524
0.91321 0.90959 0.90055
0.55967 0.55745 0.55191
0.61470 0.61226 0.60618
0.66909 0.66644 0.65982
0.72247 0.71961 0.71246
0.77448 0.77141 0.76374
0.82473 0.82146 0.81329
0.87285 0.86940 0.86075
0.91848 0.91485 0.90575
0.96125 0.95744 0.94792
0.62120 0.61874 0.61258
0.67549 0.67281 0.66612
0.72873 0.72584 0.71862
0.78054 0.77745 0.76972
0.83056 0.82727 0.81904
0.87841 0.87493 0.86623
0.92372 0.92006 0.91091
0.96612 0.96229 0.95272
1.00000 1.00000 0.99130
0.16770 0.16704 0.16538
0.21584 0.21498 0.21285
0.26610 0.26505 0.26241
0.31811 0.31685 0.31370
0.37150 0.37003 0.36635
0.42590 0.42421 0.41999
0.48093 0.47902 0.47426
0.53622 0.53410 0.52879
0.59141 0.58907 0.58321
0.22170 0.22082 0.21863
0.27219 0.27111 0.26842
0.32438 0.32310 0.31989
0.37791 0.37641 0.37267
0.43240 0.43069 0.42641
0.48748 0.48555 0.48073
0.54279 0.54064 0.53526
0.59794 0.59557 0.58965
0.65256 0.64998 0.64352
0.27830 0.27720 0.27444
0.33067 0.32936 0.32609
0.38434 0.38281 0.37901
0.43892 0.43718 0.43283
0.49404 0.49209 0.48720
0.54935 0.54717 0.54173
0.60445 0.60206 0.59607
0.65899 0.65638 0.64986
0.71259 0.70977 0.70271
0.33698 0.33565 0.33231
0.39077 0.38922 0.38536
0.44544 0.44367 0.43926
0.50061 0.49862 0.49367
0.55590 0.55370 0.54820
0.61096 0.60854 0.60249
0.66541 0.66277 0.65619
0.71887 0.71603 0.70891
0.77098 0.76793 0.76030
0.39722 0.39565 0.39172
0.45197 0.45018 0.44570
0.50717 0.50516 0.50014
0.56246 0.56023 0.55466
0.61746 0.61502 0.60891
0.67181 0.66915 0.66250
0.72514 0.72226 0.71508
0.77706 0.77398 0.76629
0.82721 0.82393 0.81574
0.45850 0.45669 0.45215
0.51373 0.51170 0.50661
0.56901 0.56676 0.56112
0.62396 0.62149 0.61531
0.67820 0.67552 0.66880
0.73138 0.72848 0.72124
0.78311 0.78001 0.77226
0.83303 0.82973 0.82148
0.88076 0.87727 0.86855
0.52030 0.51824 0.51309
0.57556 0.57328 0.56758
0.63044 0.62794 0.62170
0.68458 0.68187 0.67509
0.73760 0.73468 0.72738
0.78914 0.78601 0.77820
0.83881 0.83549 0.82719
0.88626 0.88275 0.87398
0.93111 0.92742 0.91820
0.58210 0.57979 0.57403
0.63691 0.63439 0.62808
0.69094 0.68820 0.68136
0.74380 0.74086 0.73349
0.79514 0.79199 0.78412
0.84457 0.84123 0.83286
0.89173 0.88820 0.87937
0.93624 0.93253 0.92326
0.97773 0.97386 0.96418
0.64337 0.64082 0.63445
0.69728 0.69452 0.68761
0.74998 0.74701 0.73959
0.80111 0.79794 0.79001
0.85029 0.84693 0.83851
0.89716 0.89360 0.88472
0.94133 0.93760 0.92828
0.98244 0.97855 0.96882
1.00000 1.00000 1.00000
