luts/silver-mono.cube
# silver-mono  (original film-style LUT, free for any use)
LUT_3D_SIZE 17
0.03030 0.03018 0.02988
0.04919 0.04900 0.04851
0.06897 0.06870 0.06801
0.08957 0.08922 0.08833
0.11097 0.11053 0.10943
0.13310 0.13257 0.13125
0.15592 0.15531 0.15376
0.17940 0.17869 0.17691
0.20347 0.20266 0.20065
0.22809 0.22719 0.22493
0.25323 0.25223 0.24972
0.27882 0.27772 0.27496
0.30483 0.30363 0.30061
0.33121 0.32990 0.32662
0.35791 0.35649 0.35295
0.38488 0.38336 0.37955
0.41209 0.41045 0.40637
0.05150 0.05129 0.05078
0.07137 0.07109 0.07038
0.09207 0.09171 0.09080
0.11356 0.11311 0.11198
0.13577 0.13523 0.13389
0.15868 0.15805 0.15648
0.18222 0.18150 0.17970
0.20636 0.20555 0.20350
0.23105 0.23014 0.22785
0.25624 0.25523 0.25269
0.28189 0.28077 0.27798
0.30794 0.30673 0.30368
0.33436 0.33304 0.32973
0.36110 0.35967 0.35609
0.38810 0.38656 0.38272
0.41533 0.41368 0.40957
0.44273 0.44098 0.43659
0.07379 0.07349 0.07276
0.09458 0.09421 0.09327
0.11616 0.11570 0.11454
0.13846 0.13791 0.13654
0.16144 0.16080 0.15920
0.18506 0.18432 0.18249
0.20927 0.20844 0.20636
0.23402 0.23309 0.23077
0.25926 0.25824 0.25567
0.28496 0.28383 0.28101
0.31106 0.30983 0.30675
0.33752 0.33618 0.33284
0.36429 0.36285 0.35924
0.39132 0.38977 0.38590
0.41857 0.41691 0.41277
0.44599 0.44423 0.43981
0.47354 0.47166 0.46698
0.09710 0.09672 0.09576
0.11876 0.11829 0.11712
0.14115 0.14059 0.13919
0.16421 0.16356 0.16193
0.18790 0.18716 0.18530
0.21218 0.21134 0.20923
0.23699 0.23605 0.23370
0.26229 0.26125 0.25866
0.28804 0.28690 0.28405
0.31418 0.31294 0.30983
0.34068 0.33933 0.33596
0.36748 0.36603 0.36239
0.39454 0.39298 0.38908
0.42182 0.42015 0.41597
0.44926 0.44748 0.44303
0.47681 0.47493 0.47021
0.50445 0.50245 0.49745
0.12138 0.12090 0.11970
0.14385 0.14328 0.14186
0.16699 0.16633 0.16467
0.19075 0.19000 0.18811
0.21509 0.21424 0.21211
0.23997 0.23902 0.23664
0.26532 0.26427 0.26165
0.29112 0.28997 0.28709
0.31731 0.31606 0.31291
0.34385 0.34249 0.33908
0.37068 0.36921 0.36554
0.39777 0.39620 0.39226
0.42507 0.42338 0.41917
0.45252 0.45073 0.44625
0.48009 0.47819 0.47344
0.50773 0.50572 0.50069
0.53538 0.53326 0.52796
0.14656 0.14598 0.14453
0.16978 0.16911 0.16742
0.19361 0.19285 0.19093
0.21802 0.21716 0.21500
0.24295 0.24199 0.23958
0.26836 0.26730 0.26464
0.29421 0.29305 0.29013
0.32044 0.31918 0.31600
0.34702 0.34564 0.34221
0.37389 0.37241 0.36870
0.40100 0.39941 0.39544
0.42832 0.42662 0.42238
0.45579 0.45398 0.44947
0.48337 0.48145 0.47667
0.51101 0.50899 0.50393
0.53867 0.53653 0.53120
0.56629 0.56405 0.55844
0.17258 0.17189 0.17018
0.19648 0.19570 0.19376
0.22095 0.22008 0.21789
0.24594 0.24497 0.24253
0.27141 0.27034 0.26765
0.29731 0.29613 0.29318
0.32358 0.32230 0.31910
0.35019 0.34881 0.34534
0.37709 0.37560 0.37186
0.40423 0.40263 0.39863
0.43157 0.42986 0.42559
0.45906 0.45724 0.45269
0.48665 0.48472 0.47990
0.51429 0.51226 0.50716
0.54195 0.53980 0.53444
0.56957 0.56731 0.56167
0.59710 0.59474 0.58883
0.19936 0.19857 0.19659
0.22389 0.22300 0.22079
0.24894 0.24796 0.24549
0.27446 0.27338 0.27066
0.30040 0.29921 0.29624
0.32672 0.32543 0.32219
0.35337 0.35197 0.34847
0.38030 0.37880 0.37503
0.40747 0.40586 0.40182
0.43483 0.43310 0.42880
0.46233 0.46050 0.45592
0.48993 0.48799 0.48314
0.51758 0.51553 0.51040
0.54523 0.54307 0.53767
0.57284 0.57057 0.56490
0.60036 0.59799 0.59204
0.62775 0.62526 0.61905
0.22684 0.22594 0.22369
0.25195 0.25095 0.24846
0.27752 0.27642 0.27367
0.30351 0.30231 0.29930
0.32987 0.32856 0.32530
0.35655 0.35514 0.35161
0.38351 0.38200 0.37820
0.41071 0.40908 0.40501
0.43808 0.43635 0.43201
0.46560 0.46376 0.45915
0.49321 0.49125 0.48637
0.52086 0.51880 0.51364
0.54851 0.54634 0.54091
0.57611 0.57383 0.56813
0.60362 0.60123 0.59525
0.63099 0.62849 0.62224
0.65817 0.65557 0.64905
0.25496 0.25395 0.25143
0.28058 0.27947 0.27669
0.30662 0.30541 0.30237
0.33302 0.33170 0.32840
0.35974 0.35831 0.35475
0.38673 0.38520 0.38137
0.41395 0.41231 0.40821
0.44134 0.43960 0.43523
0.46887 0.46701 0.46237
0.49649 0.49452 0.48960
0.52414 0.52207 0.51688
0.55179 0.54960 0.54414
0.57938 0.57709 0.57135
0.60688 0.60447 0.59847
0.63423 0.63172 0.62544
0.66138 0.65876 0.65222
0.68830 0.68558 0.67876
0.28365 0.28253 0.27972
0.30973 0.30851 0.30544
0.33618 0.33484 0.33152
0.36293 0.36149 0.35790
0.38995 0.38841 0.38454
0.41719 0.41554 0.41141
0.44460 0.44284 0.43844
0.47215 0.47028 0.46560
0.49977 0.49779 0.49284
0.52742 0.52533 0.52011
0.55507 0.55287 0.54737
0.58265 0.58035 0.57458
0.61013 0.60772 0.60168
0.63746 0.63494 0.62863
0.66459 0.66196 0.65538
0.69148 0.68874 0.68189
0.71807 0.71523 0.70812
0.31286 0.31162 0.30852
0.33934 0.33799 0.33463
0.36612 0.36467 0.36105
0.39317 0.39162 0.38772
0.42044 0.41877 0.41461
0.44787 0.44609 0.44166
0.47542 0.47354 0.46883
0.50305 0.50106 0.49608
0.53071 0.52860 0.52335
0.55835 0.55613 0.55061
0.58592 0.58360 0.57780
0.61339 0.61096 0.60488
0.64069 0.63816 0.63181
0.66780 0.66515 0.65854
0.69465 0.69190 0.68502
0.72121 0.71835 0.71121
0.74742 0.74446 0.73706
0.34250 0.34114 0.33775
0.36932 0.36786 0.36420
0.39640 0.39483 0.39090
0.42368 0.42201 0.41781
0.45113 0.44935 0.44488
0.47870 0.47680 0.47206
0.50633 0.50433 0.49931
0.53399 0.53187 0.52659
0.56162 0.55940 0.55384
0.58919 0.58685 0.58102
0.61664 0.61419 0.60809
0.64392 0.64137 0.63500
0.67100 0.66834 0.66170
0.69782 0.69506 0.68815
0.72434 0.72147 0.71430
0.75051 0.74754 0.74011
0.77628 0.77321 0.76552
0.37252 0.37105 0.36736
0.39963 0.39804 0.39409
0.42693 0.42524 0.42102
0.45440 0.45260 0.44810
0.48197 0.48007 0.47529
0.50961 0.50759 0.50255
0.53727 0.53514 0.52982
0.56490 0.56266 0.55707
0.59245 0.59011 0.58424
0.61988 0.61743 0.61129
0.64715 0.64458 0.63818
0.67420 0.67153 0.66485
0.70098 0.69821 0.69127
0.72746 0.72458 0.71738
0.75359 0.75061 0.74314
0.77932 0.77623 0.76851
0.80459 0.80141 0.79344
0.40286 0.40126 0.39727
0.43019 0.42848 0.42422
0.45767 0.45585 0.45132
0.48525 0.48333 0.47853
0.51290 0.51086 0.50579
0.54055 0.53841 0.53306
0.56817 0.56592 0.56030
0.59571 0.59336 0.58746
0.62313 0.62066 0.61449
0.65037 0.64779 0.64135
0.67739 0.67471 0.66800
0.70414 0.70135 0.69438
0.73058 0.72769 0.72046
0.75666 0.75367 0.74618
0.78234 0.77924 0.77150
0.80756 0.80436 0.79637
0.83229 0.82899 0.82075
0.43344 0.43172 0.42743
0.46094 0.45911 0.45455
0.48853 0.48660 0.48176
0.51618 0.51413 0.50902
0.54383 0.54168 0.53629
0.57145 0.56918 0.56353
0.59898 0.59660 0.59067
0.62637 0.62389 0.61769
0.65359 0.65100 0.64453
0.68058 0.67788 0.67115
0.70730 0.70450 0.69749
0.73370 0.73079 0.72353
0.75973 0.75673 0.74920
0.78536 0.78225 0.77447
0.81052 0.80731 0.79929
0.83519 0.83188 0.82361
0.85930 0.85589 0.84739
0.46421 0.46237 0.45777
0.49181 0.48986 0.48499
0.51946 0.51740 0.51226
0.54711 0.54495 0.53953
0.57472 0.57244 0.56675
0.60224 0.59985 0.59389
0.62961 0.62712 0.62088
0.65680 0.65420 0.64770
0.68377 0.68106 0.67429
0.71045 0.70764 0.70060
0.73681 0.73389 0.72660
0.76280 0.75978 0.75222
0.78837 0.78525 0.77744
0.81348 0.81026 0.80220
0.83808 0.83476 0.82646
0.86212 0.85871 0.85017
0.88556 0.88205 0.87329
0.03787 0.03772 0.03735
0.05713 0.05690 0.05634
0.07725 0.07694 0.07618
0.09818 0.09779 0.09682
0.11988 0.11940 0.11822
0.14230 0.14173 0.14033
0.16539 0.16474 0.16310
0.18911 0.18836 0.18649
0.21342 0.21257 0.21046
0.23825 0.23731 0.23495
0.26358 0.26254 0.25993
0.28935 0.28820 0.28534
0.31551 0.31427 0.31114
0.34203 0.34067 0.33729
0.36884 0.36738 0.36373
0.39592 0.39435 0.39043
0.42320 0.42152 0.41733
0.05947 0.05924 0.05865
0.07969 0.07938 0.07859
0.10072 0.10032 0.09932
0.12250 0.12202 0.12080
0.14500 0.14443 0.14299
0.16818 0.16751 0.16584
0.19197 0.19121 0.18931
0.21634 0.21548 0.21334
0.24124 0.24028 0.23789
0.26662 0.26556 0.26292
0.29244 0.29128 0.28838
0.31864 0.31738 0.31423
0.34520 0.34383 0.34041
0.37205 0.37057 0.36689
0.39915 0.39756 0.39361
0.42645 0.42476 0.42054
0.45391 0.45211 0.44762
0.08214 0.08182 0.08101
0.10326 0.10285 0.10183
0.12514 0.12464 0.12340
0.14772 0.14714 0.14567
0.17097 0.17029 0.16860
0.19483 0.19406 0.19213
0.21927 0.21840 0.21623
0.24422 0.24326 0.24084
0.26966 0.26859 0.26592
0.29553 0.29436 0.29143
0.32178 0.32050 0.31732
0.34837 0.34699 0.34354
0.37525 0.37376 0.37005
0.40238 0.40078 0.39680
0.42970 0.42800 0.42375
0.45718 0.45537 0.45084
0.48476 0.48284 0.47804
0.10582 0.10540 0.10435
0.12778 0.12727 0.12601
0.15045 0.14985 0.14836
0.17377 0.17308 0.17136
0.19770 0.19692 0.19496
0.22220 0.22132 0.21912
0.24722 0.24624 0.24379
0.27271 0.27163 0.26893
0.29862 0.29744 0.29448
0.32492 0.32363 0.32041
0.35154 0.35015 0.34667
0.37846 0.37696 0.37321
0.40561 0.40400 0.39999
0.43296 0.43124 0.42695
0.46045 0.45863 0.45407
0.48804 0.48611 0.48128
0.51569 0.51365 0.50854
0.13043 0.12992 0.12863
0.15318 0.15257 0.15106
0.17658 0.17588 0.17413
0.20058 0.19979 0.19780
0.22514 0.22425 0.22202
0.25022 0.24923 0.24675
0.27576 0.27467 0.27194
0.30173 0.30053 0.29754
0.32806 0.32676 0.32351
0.35472 0.35332 0.34981
0.38167 0.38016 0.37638
0.40885 0.40723 0.40318
0.43621 0.43448 0.43017
0.46372 0.46188 0.45729
0.49132 0.48938 0.48451
0.51897 0.51692 0.51178
0.54662 0.54446 0.53905
0.15592 0.15531 0.15376
0.17940 0.17869 0.17691
0.20347 0.20266 0.20065
0.22809 0.22719 0.22493
0.25323 0.25223 0.24972
0.27882 0.27772 0.27496
0.30483 0.30363 0.30061
0.33121 0.32990 0.32662
0.35791 0.35649 0.35295
0.38488 0.38336 0.37955
0.41209 0.41045 0.40637
0.43947 0.43773 0.43338
0.46699 0.46514 0.46052
0.49460 0.49264 0.48775
0.52226 0.52019 0.51502
0.54990 0.54773 0.54228
0.57750 0.57522 0.56950
0.18222 0.18150 0.17970
0.20636 0.20555 0.20350
0.23105 0.23014 0.22785
0.25624 0.25523 0.25269
0.28189 0.28077 0.27798
0.30794 0.30673 0.30368
0.33436 0.33304 0.32973
0.36110 0.35967 0.35609
0.38810 0.38656 0.38272
0.41533 0.41368 0.40957
0.44273 0.44098 0.43659
0.47026 0.46840 0.46375
0.49788 0.49591 0.49098
0.52554 0.52346 0.51825
0.55318 0.55099 0.54552
0.58077 0.57847 0.57272
0.60826 0.60585 0.59983
0.20927 0.20844 0.20636
0.23402 0.23309 0.23077
0.25926 0.25824 0.25567
0.28496 0.28383 0.28101
0.31106 0.30983 0.30675
0.33752 0.33618 0.33284
0.36429 0.36285 0.35924
0.39132 0.38977 0.38590
0.41857 0.41691 0.41277
0.44599 0.44423 0.43981
0.47354 0.47166 0.46698
0.50116 0.49918 0.49422
0.52882 0.52673 0.52149
0.55646 0.55426 0.54875
0.58404 0.58173 0.57595
0.61152 0.60910 0.60304
0.63884 0.63631 0.62998
0.23699 0.23605 0.23370
0.26229 0.26125 0.25866
0.28804 0.28690 0.28405
0.31418 0.31294 0.30983
0.34068 0.33933 0.33596
0.36748 0.36603 0.36239
0.39454 0.39298 0.38908
0.42182 0.42015 0.41597
0.44926 0.44748 0.44303
0.47681 0.47493 0.47021
0.50445 0.50245 0.49745
0.53210 0.53000 0.52473
0.55974 0.55752 0.55198
0.58731 0.58498 0.57917
0.61477 0.61233 0.60625
0.64207 0.63952 0.63317
0.66916 0.66651 0.65988
0.26532 0.26427 0.26165
0.29112 0.28997 0.28709
0.31731 0.31606 0.31291
0.34385 0.34249 0.33908
0.37068 0.36921 0.36554
0.39777 0.39620 0.39226
0.42507 0.42338 0.41917
0.45252 0.45073 0.44625
0.48009 0.47819 0.47344
0.50773 0.50572 0.50069
0.53538 0.53326 0.52796
0.56302 0.56079 0.55521
0.59058 0.58824 0.58239
0.61802 0.61557 0.60945
0.64529 0.64274 0.63635
0.67236 0.66970 0.66304
0.69917 0.69640 0.68947
0.29421 0.29305 0.29013
0.32044 0.31918 0.31600
0.34702 0.34564 0.34221
0.37389 0.37241 0.36870
0.40100 0.39941 0.39544
0.42832 0.42662 0.42238
0.45579 0.45398 0.44947
0.48337 0.48145 0.47667
0.51101 0.50899 0.50393
0.53867 0.53653 0.53120
0.56629 0.56405 0.55844
0.59384 0.59149 0.58561
0.62126 0.61880 0.61265
0.64852 0.64595 0.63953
0.67555 0.67288 0.66619
0.70233 0.69955 0.69259
0.72879 0.72591 0.71869
0.32358 0.32230 0.31910
0.35019 0.34881 0.34534
0.37709 0.37560 0.37186
0.40423 0.40263 0.39863
0.43157 0.42986 0.42559
0.45906 0.45724 0.45269
0.48665 0.48472 0.47990
0.51429 0.51226 0.50716
0.54195 0.53980 0.53444
0.56957 0.56731 0.56167
0.59710 0.59474 0.58883
0.62451 0.62204 0.61585
0.65174 0.64916 0.64271
0.67875 0.67606 0.66934
0.70549 0.70269 0.69571
0.73191 0.72901 0.72176
0.75797 0.75497 0.74747
0.35337 0.35197 0.34847
0.38030 0.37880 0.37503
0.40747 0.40586 0.40182
0.43483 0.43310 0.42880
0.46233 0.46050 0.45592
0.48993 0.48799 0.48314
0.51758 0.51553 0.51040
0.54523 0.54307 0.53767
0.57284 0.57057 0.56490
0.60036 0.59799 0.59204
0.62775 0.62526 0.61905
0.65496 0.65236 0.64588
0.68194 0.67923 0.67248
0.70864 0.70583 0.69882
0.73502 0.73211 0.72483
0.76104 0.75802 0.75049
0.78664 0.78353 0.77574
0.38351 0.38200 0.37820
0.41071 0.40908 0.40501
0.43808 0.43635 0.43201
0.46560 0.46376 0.45915
0.49321 0.49125 0.48637
0.52086 0.51880 0.51364
0.54851 0.54634 0.54091
0.57611 0.57383 0.56813
0.60362 0.60123 0.59525
0.63099 0.62849 0.62224
0.65817 0.65557 0.64905
0.68512 0.68241 0.67562
0.71179 0.70897 0.70192
0.73813 0.73521 0.72790
0.76410 0.76107 0.75351
0.78965 0.78652 0.77870
0.81473 0.81151 0.80344
0.41395 0.41231 0.40821
0.44134 0.43960 0.43523
0.46887 0.46701 0.46237
0.49649 0.49452 0.48960
0.52414 0.52207 0.51688
0.55179 0.54960 0.54414
0.57938 0.57709 0.57135
0.60688 0.60447 0.59847
0.63423 0.63172 0.62544
0.66138 0.65876 0.65222
0.68830 0.68558 0.67876
0.71493 0.71210 0.70502
0.74123 0.73830 0.73096
0.76716 0.76412 0.75652
0.79265 0.78951 0.78166
0.81768 0.81444 0.80634
0.84219 0.83885 0.83051
0.44460 0.44284 0.43844
0.47215 0.47028 0.46560
0.49977 0.49779 0.49284
0.52742 0.52533 0.52011
0.55507 0.55287 0.54737
0.58265 0.58035 0.57458
0.61013 0.60772 0.60168
0.63746 0.63494 0.62863
0.66459 0.66196 0.65538
0.69148 0.68874 0.68189
0.71807 0.71523 0.70812
0.74433 0.74138 0.73401
0.77020 0.76715 0.75953
0.79565 0.79250 0.78462
0.82061 0.81736 0.80924
0.84506 0.84171 0.83334
0.86893 0.86549 0.85689
0.47542 0.47354 0.46883
0.50305 0.50106 0.49608
0.53071 0.52860 0.52335
0.55835 0.55613 0.55061
0.58592 0.58360 0.57780
0.61339 0.61096 0.60488
0.64069 0.63816 0.63181
0.66780 0.66515 0.65854
0.69465 0.69190 0.68502
0.72121 0.71835 0.71121
0.74742 0.74446 0.73706
0.77325 0.77019 0.76253
0.79864 0.79547 0.78757
0.82354 0.82028 0.81213
0.84792 0.84456 0.83617
0.87173 0.86827 0.85964
0.89491 0.89136 0.88250
0.04560 0.04541 0.04496
0.06521 0.06495 0.06430
0.08566 0.08532 0.08448
0.10691 0.10649 0.10543
0.12891 0.12840 0.12712
0.15161 0.15101 0.14951
0.17496 0.17427 0.17254
0.19893 0.19814 0.19617
0.22345 0.22257 0.22036
0.24850 0.24751 0.24505
0.27401 0.27292 0.27021
0.29994 0.29875 0.29579
0.32625 0.32496 0.32173
0.35290 0.35150 0.34801
0.37982 0.37832 0.37456
0.40699 0.40538 0.40135
0.43434 0.43262 0.42832
0.06759 0.06733 0.06666
0.08814 0.08779 0.08692
0.10948 0.10905 0.10797
0.13157 0.13105 0.12974
0.15435 0.15374 0.15221
0.17778 0.17707 0.17531
0.20181 0.20101 0.19901
0.22640 0.22550 0.22326
0.25150 0.25050 0.24801
0.27706 0.27597 0.27322
0.30305 0.30185 0.29885
0.32940 0.32810 0.32483
0.35608 0.35467 0.35114
0.38304 0.38152 0.37773
0.41022 0.40860 0.40454
0.43760 0.43587 0.43153
0.46511 0.46327 0.45866
0.09064 0.09028 0.08938
0.11207 0.11162 0.11051
0.13424 0.13370 0.13237
0.15709 0.15647 0.15492
0.18060 0.17988 0.17809
0.20470 0.20389 0.20186
0.22935 0.22844 0.22617
0.25451 0.25350 0.25098
0.28013 0.27902 0.27624
0.30616 0.30494 0.30191
0.33255 0.33123 0.32794
0.35926 0.35784 0.35428
0.38625 0.38472 0.38090
0.41346 0.41183 0.40773
0.44086 0.43911 0.43475
0.46838 0.46653 0.46189
0.49600 0.49403 0.48912
0.11466 0.11421 0.11307
0.13691 0.13637 0.13502
0.15985 0.15922 0.15764
0.18343 0.18270 0.18089
0.20760 0.20678 0.20472
0.23231 0.23139 0.22909
0.25753 0.25651 0.25396
0.28320 0.28207 0.27927
0.30927 0.30805 0.30498
0.33571 0.33438 0.33105
0.36245 0.36102 0.35743
0.38947 0.38793 0.38407
0.41671 0.41506 0.41093
0.44412 0.44236 0.43796
0.47166 0.46979 0.46512
0.49928 0.49730 0.49236
0.52693 0.52485 0.51963
0.13960 0.13905 0.13767
0.16262 0.16197 0.16036
0.18627 0.18553 0.18368
0.21050 0.20967 0.20759
0.23528 0.23435 0.23202
0.26055 0.25952 0.25694
0.28627 0.28514 0.28230
0.31239 0.31115 0.30806
0.33886 0.33752 0.33417
0.36565 0.36420 0.36058
0.39269 0.39114 0.38725
0.41995 0.41829 0.41413
0.44738 0.44561 0.44118
0.47493 0.47305 0.46835
0.50256 0.50057 0.49559
0.53022 0.52812 0.52287
0.55786 0.55565 0.55012
0.16539 0.16474 0.16310
0.18911 0.18836 0.18649
0.21342 0.21257 0.21046
0.23825 0.23731 0.23495
0.26358 0.26254 0.25993
0.28935 0.28820 0.28534
0.31551 0.31427 0.31114
0.34203 0.34067 0.33729
0.36884 0.36738 0.36373
0.39592 0.39435 0.39043
0.42320 0.42152 0.41733
0.45065 0.44886 0.44440
0.47821 0.47631 0.47158
0.50584 0.50384 0.49883
0.53350 0.53139 0.52610
0.56113 0.55891 0.55336
0.58870 0.58637 0.58054
0.19197 0.19121 0.18931
0.21634 0.21548 0.21334
0.24124 0.24028 0.23789
0.26662 0.26556 0.26292
0.29244 0.29128 0.28838
0.31864 0.31738 0.31423
0.34520 0.34383 0.34041
0.37205 0.37057 0.36689
0.39915 0.39756 0.39361
0.42645 0.42476 0.42054
0.45391 0.45211 0.44762
0.48149 0.47958 0.47481
0.50912 0.50711 0.50207
0.53678 0.53466 0.52934
0.56441 0.56218 0.55659
0.59197 0.58962 0.58376
0.61940 0.61695 0.61081
0.21927 0.21840 0.21623
0.24422 0.24326 0.24084
0.26966 0.26859 0.26592
0.29553 0.29436 0.29143
0.32178 0.32050 0.31732
0.34837 0.34699 0.34354
0.37525 0.37376 0.37005
0.40238 0.40078 0.39680
0.42970 0.42800 0.42375
0.45718 0.45537 0.45084
0.48476 0.48284 0.47804
0.51241 0.51038 0.50530
0.54006 0.53792 0.53258
0.56769 0.56544 0.55982
0.59523 0.59287 0.58698
0.62265 0.62018 0.61401
0.64989 0.64732 0.64088
0.24722 0.24624 0.24379
0.27271 0.27163 0.26893
0.29862 0.29744 0.29448
0.32492 0.32363 0.32041
0.35154 0.35015 0.34667
0.37846 0.37696 0.37321
0.40561 0.40400 0.39999
0.43296 0.43124 0.42695
0.46045 0.45863 0.45407
0.48804 0.48611 0.48128
0.51569 0.51365 0.50854
0.54334 0.54119 0.53581
0.57096 0.56870 0.56305
0.59849 0.59612 0.59019
0.62589 0.62341 0.61721
0.65311 0.65052 0.64406
0.68010 0.67741 0.67068
0.27576 0.27467 0.27194
0.30173 0.30053 0.29754
0.32806 0.32676 0.32351
0.35472 0.35332 0.34981
0.38167 0.38016 0.37638
0.40885 0.40723 0.40318
0.43621 0.43448 0.43017
0.46372 0.46188 0.45729
0.49132 0.48938 0.48451
0.51897 0.51692 0.51178
0.54662 0.54446 0.53905
0.57423 0.57196 0.56627
0.60175 0.59937 0.59341
0.62913 0.62664 0.62041
0.65633 0.65373 0.64723
0.68329 0.68059 0.67382
0.70998 0.70717 0.70014
0.30483 0.30363 0.30061
0.33121 0.32990 0.32662
0.35791 0.35649 0.35295
0.38488 0.38336 0.37955
0.41209 0.41045 0.40637
0.43947 0.43773 0.43338
0.46699 0.46514 0.46052
0.49460 0.49264 0.48775
0.52226 0.52019 0.51502
0.54990 0.54773 0.54228
0.57750 0.57522 0.56950
0.60501 0.60261 0.59662
0.63237 0.62986 0.62360
0.65954 0.65693 0.65040
0.68647 0.68376 0.67696
0.71313 0.71030 0.70324
0.73945 0.73652 0.72920
0.33436 0.33304 0.32973
0.36110 0.35967 0.35609
0.38810 0.38656 0.38272
0.41533 0.41368 0.40957
0.44273 0.44098 0.43659
0.47026 0.46840 0.46375
0.49788 0.49591 0.49098
0.52554 0.52346 0.51825
0.55318 0.55099 0.54552
0.58077 0.57847 0.57272
0.60826 0.60585 0.59983
0.63560 0.63309 0.62679
0.66275 0.66012 0.65356
0.68965 0.68692 0.68009
0.71627 0.71343 0.70634
0.74255 0.73961 0.73226
0.76845 0.76541 0.75780
0.36429 0.36285 0.35924
0.39132 0.38977 0.38590
0.41857 0.41691 0.41277
0.44599 0.44423 0.43981
0.47354 0.47166 0.46698
0.50116 0.49918 0.49422
0.52882 0.52673 0.52149
0.55646 0.55426 0.54875
0.58404 0.58173 0.57595
0.61152 0.60910 0.60304
0.63884 0.63631 0.62998
0.66596 0.66332 0.65672
0.69283 0.69008 0.68322
0.71941 0.71656 0.70944
0.74565 0.74269 0.73531
0.77150 0.76844 0.76081
0.79692 0.79376 0.78587
0.39454 0.39298 0.38908
0.42182 0.42015 0.41597
0.44926 0.44748 0.44303
0.47681 0.47493 0.47021
0.50445 0.50245 0.49745
0.53210 0.53000 0.52473
0.55974 0.55752 0.55198
0.58731 0.58498 0.57917
0.61477 0.61233 0.60625
0.64207 0.63952 0.63317
0.66916 0.66651 0.65988
0.69600 0.69324 0.68635
0.72254 0.71968 0.71252
0.74874 0.74577 0.73836
0.77454 0.77147 0.76380
0.79991 0.79674 0.78882
0.82479 0.82152 0.81336
0.42507 0.42338 0.41917
0.45252 0.45073 0.44625
0.48009 0.47819 0.47344
0.50773 0.50572 0.50069
0.53538 0.53326 0.52796
0.56302 0.56079 0.55521
0.59058 0.58824 0.58239
0.61802 0.61557 0.60945
0.64529 0.64274 0.63635
0.67236 0.66970 0.66304
0.69917 0.69640 0.68947
0.72567 0.72279 0.71561
0.75182 0.74884 0.74140
0.77758 0.77450 0.76680
0.80289 0.79971 0.79176
0.82771 0.82443 0.81623
0.85199 0.84862 0.84018
0.45579 0.45398 0.44947
0.48337 0.48145 0.47667
0.51101 0.50899 0.50393
0.53867 0.53653 0.53120
0.56629 0.56405 0.55844
0.59384 0.59149 0.58561
0.62126 0.61880 0.61265
0.64852 0.64595 0.63953
0.67555 0.67288 0.66619
0.70233 0.69955 0.69259
0.72879 0.72591 0.71869
0.75490 0.75191 0.74443
0.78060 0.77751 0.76978
0.80586 0.80267 0.79469
0.83062 0.82733 0.81910
0.85484 0.85145 0.84299
0.87847 0.87499 0.86629
0.48665 0.48472 0.47990
0.51429 0.51226 0.50716
0.54195 0.53980 0.53444
0.56957 0.56731 0.56167
0.59710 0.59474 0.58883
0.62451 0.62204 0.61585
0.65174 0.64916 0.64271
0.67875 0.67606 0.66934
0.70549 0.70269 0.69571
0.73191 0.72901 0.72176
0.75797 0.75497 0.74747
0.78363 0.78052 0.77276
0.80882 0.80562 0.79761
0.83352 0.83022 0.82197
0.85767 0.85428 0.84578
0.88123 0.87774 0.86901
0.90414 0.90056 0.89161
0.05347 0.05325 0.05272
0.07343 0.07313 0.07241
0.09421 0.09384 0.09290
0.11577 0.11531 0.11416
0.13806 0.13751 0.13614
0.16103 0.16039 0.15879
0.18463 0.18390 0.18208
0.20883 0.20801 0.20594
0.23357 0.23265 0.23034
0.25881 0.25779 0.25523
0.28450 0.28338 0.28056
0.31060 0.30937 0.30629
0.33705 0.33571 0.33238
0.36381 0.36237 0.35877
0.39084 0.38929 0.38542
0.41809 0.41643 0.41229
0.44551 0.44374 0.43933
0.07585 0.07555 0.07480
0.09673 0.09634 0.09539
0.11838 0.11791 0.11673
0.14075 0.14019 0.13880
0.16380 0.16315 0.16153
0.18748 0.18673 0.18488
0.21174 0.21090 0.20881
0.23655 0.23561 0.23327
0.26184 0.26080 0.25821
0.28758 0.28644 0.28359
0.31372 0.31248 0.30937
0.34021 0.33886 0.33549
0.36701 0.36555 0.36192
0.39406 0.39250 0.38860
0.42133 0.41967 0.41549
0.44877 0.44699 0.44255
