luts/silver-mono.cube
# silver-mono  (original film-style LUT, free for any use)
LUT_3D_SIZE 5
0.03030 0.03018 0.02988
0.11097 0.11053 0.10943
0.20347 0.20266 0.20065
0.30483 0.30363 0.30061
0.41209 0.41045 0.40637
0.12138 0.12090 0.11970
0.21509 0.21424 0.21211
0.31731 0.31606 0.31291
0.42507 0.42338 0.41917
0.53538 0.53326 0.52796
0.22684 0.22594 0.22369
0.32987 0.32856 0.32530
0.43808 0.43635 0.43201
0.54851 0.54634 0.54091
0.65817 0.65557 0.64905
0.34250 0.34114 0.33775
0.45113 0.44935 0.44488
0.56162 0.55940 0.55384
0.67100 0.66834 0.66170
0.77628 0.77321 0.76552
0.46421 0.46237 0.45777
0.57472 0.57244 0.56675
0.68377 0.68106 0.67429
0.78837 0.78525 0.77744
0.88556 0.88205 0.87329
0.06148 0.06123 0.06063
0.14732 0.14673 0.14527
0.24378 0.24281 0.24040
0.34790 0.34652 0.34307
0.45669 0.45488 0.45036
0.15827 0.15764 0.15607
0.25579 0.25478 0.25225
0.36062 0.35919 0.35562
0.46978 0.46792 0.46327
0.58029 0.57799 0.57224
0.26791 0.26685 0.26420
0.37341 0.37193 0.36823
0.48288 0.48097 0.47619
0.59335 0.59100 0.58513
0.70186 0.69908 0.69213
0.38625 0.38472 0.38090
0.49600 0.49403 0.48912
0.60639 0.60399 0.59799
0.71447 0.71164 0.70456
0.81724 0.81400 0.80591
0.50912 0.50711 0.50207
0.61940 0.61695 0.61081
0.72700 0.72412 0.71692
0.82895 0.82566 0.81746
0.92227 0.91862 0.90949
0.09490 0.09453 0.09359
0.18542 0.18469 0.18285
0.28535 0.28422 0.28140
0.39173 0.39018 0.38630
0.50158 0.49960 0.49463
0.19685 0.19607 0.19412
0.29770 0.29652 0.29357
0.40465 0.40304 0.39904
0.51471 0.51267 0.50758
0.62492 0.62245 0.61626
0.31013 0.30890 0.30583
0.41760 0.41595 0.41182
0.52784 0.52575 0.52053
0.63787 0.63535 0.62903
0.74473 0.74178 0.73440
0.43060 0.42890 0.42463
0.54097 0.53883 0.53347
0.65078 0.64820 0.64176
0.75706 0.75406 0.74656
0.85683 0.85344 0.84495
0.55409 0.55190 0.54641
0.66364 0.66101 0.65444
0.76930 0.76625 0.75863
0.86810 0.86466 0.85607
0.95707 0.95328 0.94380
0.13038 0.12986 0.12857
0.22508 0.22419 0.22196
0.32799 0.32670 0.32345
0.43614 0.43442 0.43010
0.54655 0.54439 0.53898
0.23692 0.23599 0.23364
0.34061 0.33927 0.33589
0.44919 0.44741 0.44296
0.55967 0.55745 0.55191
0.66909 0.66644 0.65982
0.35330 0.35190 0.34841
0.46226 0.46043 0.45585
0.57277 0.57050 0.56483
0.68187 0.67917 0.67242
0.78658 0.78346 0.77567
0.47535 0.47347 0.46876
0.58585 0.58353 0.57773
0.69458 0.69183 0.68495
0.79857 0.79541 0.78750
0.89485 0.89131 0.88245
0.59891 0.59653 0.59060
0.70723 0.70443 0.69743
0.81046 0.80725 0.79923
0.90563 0.90204 0.89307
0.98975 0.98583 0.97603
0.16770 0.16704 0.16538
0.26610 0.26505 0.26241
0.37150 0.37003 0.36635
0.48093 0.47902 0.47426
0.59141 0.58907 0.58321
0.27830 0.27720 0.27444
0.38434 0.38281 0.37901
0.49404 0.49209 0.48720
0.60445 0.60206 0.59607
0.71259 0.70977 0.70271
0.39722 0.39565 0.39172
0.50717 0.50516 0.50014
0.61746 0.61502 0.60891
0.72514 0.72226 0.71508
0.82721 0.82393 0.81574
0.52030 0.51824 0.51309
0.63044 0.62794 0.62170
0.73760 0.73468 0.72738
0.83881 0.83549 0.82719
0.93111 0.92742 0.91820
0.64337 0.64082 0.63445
0.74998 0.74701 0.73959
0.85029 0.84693 0.83851
0.94133 0.93760 0.92828
1.00000 1.00000 1.00000
