luts/vintage-fade.cube
# vintage-fade  (original film-style LUT, free for any use)
LUT_3D_SIZE 17
0.13200 0.12200 0.07800
0.17593 0.12795 0.08327
0.22055 0.13395 0.08858
0.26579 0.14000 0.09394
0.31154 0.14609 0.09933
0.35772 0.15222 0.10474
0.40423 0.15838 0.11019
0.45098 0.16455 0.11564
0.49787 0.17074 0.12111
0.54482 0.17694 0.12659
0.59173 0.18314 0.13207
0.63851 0.18933 0.13754
0.68507 0.19550 0.14300
0.73131 0.20165 0.14844
0.77715 0.20778 0.15386
0.82248 0.21387 0.15925
0.86722 0.21991 0.16460
0.14053 0.16668 0.08536
0.18450 0.17267 0.09064
0.22917 0.17872 0.09596
0.27444 0.18482 0.10132
0.32022 0.19095 0.10672
0.36642 0.19712 0.11215
0.41295 0.20332 0.11760
0.45972 0.20954 0.12306
0.50662 0.21577 0.12854
0.55358 0.22201 0.13402
0.60049 0.22824 0.13950
0.64727 0.23447 0.14498
0.69381 0.24068 0.15044
0.74004 0.24688 0.15589
0.78586 0.25304 0.16132
0.83117 0.25916 0.16671
0.87588 0.26524 0.17207
0.14915 0.21205 0.09280
0.19317 0.21808 0.09808
0.23787 0.22417 0.10342
0.28318 0.23030 0.10879
0.32899 0.23648 0.11419
0.37522 0.24269 0.11963
0.42177 0.24892 0.12508
0.46855 0.25518 0.13056
0.51546 0.26144 0.13604
0.56242 0.26772 0.14153
0.60933 0.27399 0.14702
0.65611 0.28025 0.15250
0.70264 0.28649 0.15797
0.74886 0.29272 0.16342
0.79465 0.29891 0.16885
0.83994 0.30507 0.17425
0.88462 0.31118 0.17961
0.15786 0.25802 0.10031
0.20192 0.26409 0.10560
0.24666 0.27021 0.11094
0.29200 0.27638 0.11632
0.33785 0.28259 0.12173
0.38410 0.28883 0.12717
0.43067 0.29510 0.13264
0.47746 0.30138 0.13812
0.52438 0.30768 0.14361
0.57135 0.31398 0.14910
0.61826 0.32028 0.15459
0.66502 0.32657 0.16008
0.71155 0.33285 0.16555
0.75775 0.33910 0.17101
0.80352 0.34532 0.17644
0.84878 0.35150 0.18184
0.89344 0.35764 0.18721
0.16664 0.30450 0.10788
0.21074 0.31060 0.11318
0.25553 0.31675 0.11853
0.30090 0.32295 0.12391
0.34677 0.32919 0.12933
0.39304 0.33546 0.13478
0.43963 0.34175 0.14025
0.48643 0.34806 0.14573
0.53337 0.35439 0.15123
0.58033 0.36072 0.15673
0.62724 0.36704 0.16222
0.67400 0.37335 0.16771
0.72052 0.37965 0.17319
0.76670 0.38592 0.17865
0.81245 0.39217 0.18409
0.85769 0.39837 0.18949
0.90231 0.40453 0.19486
0.17549 0.35142 0.11550
0.21963 0.35754 0.12081
0.26445 0.36372 0.12616
0.30985 0.36994 0.13156
0.35575 0.37620 0.13698
0.40205 0.38249 0.14243
0.44865 0.38881 0.14791
0.49547 0.39514 0.15340
0.54241 0.40149 0.15890
0.58937 0.40783 0.16440
0.63628 0.41418 0.16990
0.68303 0.42051 0.17539
0.72954 0.42683 0.18088
0.77570 0.43312 0.18634
0.82143 0.43938 0.19178
0.86664 0.44560 0.19718
0.91123 0.45177 0.20255
0.18438 0.39868 0.12316
0.22856 0.40482 0.12848
0.27342 0.41102 0.13384
0.31886 0.41726 0.13924
0.36478 0.42354 0.14467
0.41110 0.42985 0.15013
0.45771 0.43618 0.15560
0.50454 0.44253 0.16110
0.55149 0.44889 0.16660
0.59846 0.45525 0.17211
0.64536 0.46161 0.17761
0.69210 0.46796 0.18311
0.73859 0.47429 0.18859
0.78474 0.48059 0.19406
0.83044 0.48686 0.19950
0.87562 0.49309 0.20491
0.92018 0.49927 0.21028
0.19331 0.44619 0.13086
0.23754 0.45235 0.13618
0.28243 0.45856 0.14154
0.32789 0.46482 0.14695
0.37384 0.47111 0.15238
0.42018 0.47743 0.15785
0.46681 0.48378 0.16333
0.51365 0.49014 0.16883
0.56060 0.49651 0.17433
0.60757 0.50288 0.17984
0.65447 0.50925 0.18535
0.70120 0.51561 0.19085
0.74767 0.52194 0.19633
0.79380 0.52825 0.20180
0.83948 0.53453 0.20724
0.88463 0.54077 0.21265
0.92915 0.54696 0.21802
0.20227 0.49388 0.13857
0.24654 0.50005 0.14390
0.29146 0.50627 0.14927
0.33695 0.51254 0.15468
0.38292 0.51884 0.16012
0.42928 0.52517 0.16558
0.47593 0.53152 0.17107
0.52277 0.53789 0.17657
0.56973 0.54426 0.18208
0.61670 0.55064 0.18759
0.66359 0.55701 0.19310
0.71031 0.56337 0.19860
0.75677 0.56971 0.20409
0.80288 0.57602 0.20956
0.84854 0.58230 0.21500
0.89365 0.58854 0.22041
0.93814 0.59473 0.22578
0.21125 0.54166 0.14630
0.25555 0.54784 0.15163
0.30050 0.55406 0.15701
0.34603 0.56033 0.16242
0.39202 0.56663 0.16786
0.43839 0.57296 0.17333
0.48505 0.57932 0.17882
0.53191 0.58569 0.18432
0.57887 0.59206 0.18984
0.62583 0.59844 0.19535
0.67272 0.60481 0.20086
0.71943 0.61117 0.20636
0.76587 0.61751 0.21185
0.81196 0.62382 0.21732
0.85759 0.63009 0.22276
0.90268 0.63633 0.22817
0.94713 0.64251 0.23354
0.22022 0.58944 0.15403
0.26456 0.59561 0.15937
0.30955 0.60184 0.16475
0.35510 0.60810 0.17016
0.40111 0.61441 0.17561
0.44750 0.62074 0.18108
0.49418 0.62709 0.18657
0.54104 0.63345 0.19208
0.58800 0.63983 0.19759
0.63496 0.64620 0.20311
0.68184 0.65256 0.20862
0.72854 0.65892 0.21412
0.77496 0.66525 0.21961
0.82103 0.67155 0.22508
0.86663 0.67782 0.23052
0.91168 0.68404 0.23593
0.95610 0.69022 0.24130
0.22919 0.63713 0.16175
0.27356 0.64330 0.16709
0.31858 0.64952 0.17248
0.36415 0.65578 0.17789
0.41019 0.66208 0.18334
0.45660 0.66840 0.18882
0.50328 0.67474 0.19431
0.55015 0.68110 0.19982
0.59711 0.68746 0.20533
0.64407 0.69383 0.21085
0.69094 0.70018 0.21636
0.73763 0.70652 0.22186
0.78403 0.71284 0.22735
0.83007 0.71913 0.23282
0.87565 0.72538 0.23826
0.92067 0.73159 0.24366
0.96505 0.73775 0.24903
0.23813 0.68465 0.16946
0.28254 0.69082 0.17480
0.32759 0.69702 0.18019
0.37319 0.70327 0.18561
0.41925 0.70956 0.19106
0.46567 0.71587 0.19653
0.51236 0.72220 0.20203
0.55924 0.72854 0.20753
0.60620 0.73489 0.21305
0.65315 0.74124 0.21857
0.70001 0.74758 0.22408
0.74668 0.75390 0.22958
0.79307 0.76020 0.23507
0.83909 0.76647 0.24053
0.88463 0.77271 0.24597
0.92962 0.77890 0.25138
0.97396 0.78504 0.25674
0.24704 0.73192 0.17714
0.29148 0.73807 0.18248
0.33656 0.74426 0.18787
0.38219 0.75050 0.19329
0.42826 0.75676 0.19874
0.47470 0.76306 0.20422
0.52140 0.76937 0.20971
0.56828 0.77569 0.21522
0.61524 0.78202 0.22074
0.66219 0.78835 0.22625
0.70904 0.79467 0.23176
0.75570 0.80097 0.23726
0.80206 0.80725 0.24275
0.84805 0.81350 0.24821
0.89357 0.81971 0.25365
0.93852 0.82588 0.25905
0.98282 0.83199 0.26441
0.25591 0.77885 0.18478
0.30038 0.78498 0.19013
0.34549 0.79115 0.19551
0.39114 0.79736 0.20094
0.43723 0.80361 0.20639
0.48368 0.80988 0.21187
0.53039 0.81617 0.21736
0.57727 0.82247 0.22287
0.62423 0.82877 0.22838
0.67118 0.83507 0.23390
0.71802 0.84137 0.23941
0.76465 0.84764 0.24491
0.81100 0.85389 0.25039
0.85696 0.86012 0.25585
0.90245 0.86630 0.26128
0.94736 0.87244 0.26668
0.99162 0.87853 0.27204
0.26472 0.82535 0.19238
0.30922 0.83145 0.19772
0.35436 0.83760 0.20311
0.40003 0.84378 0.20853
0.44614 0.85000 0.21399
0.49260 0.85625 0.21946
0.53932 0.86251 0.22496
0.58620 0.86878 0.23046
0.63316 0.87505 0.23598
0.68010 0.88133 0.24149
0.72692 0.88759 0.24700
0.77354 0.89383 0.25249
0.81987 0.90005 0.25797
0.86580 0.90624 0.26343
0.91126 0.91239 0.26886
0.95613 0.91850 0.27426
1.00000 0.92455 0.27961
0.27346 0.87134 0.19992
0.31799 0.87741 0.20526
0.36315 0.88352 0.21065
0.40884 0.88968 0.21607
0.45497 0.89587 0.22153
0.50144 0.90208 0.22700
0.54817 0.90830 0.23249
0.59505 0.91454 0.23800
0.64201 0.92078 0.24351
0.68894 0.92702 0.24902
0.73575 0.93325 0.25453
0.78235 0.93946 0.26002
0.82865 0.94564 0.26550
0.87456 0.95179 0.27095
0.91998 0.95790 0.27638
0.96482 0.96397 0.28177
1.00000 0.96998 0.28712
0.13563 0.12563 0.11567
0.17960 0.13158 0.12098
0.22426 0.13759 0.12633
0.26952 0.14365 0.13172
0.31530 0.14975 0.13714
0.36150 0.15588 0.14260
0.40802 0.16204 0.14808
0.45478 0.16822 0.15357
0.50168 0.17441 0.15907
0.54863 0.18061 0.16458
0.59554 0.18681 0.17009
0.64231 0.19301 0.17560
0.68886 0.19918 0.18109
0.73508 0.20534 0.18656
0.78090 0.21146 0.19201
0.82621 0.21755 0.19743
0.87092 0.22360 0.20282
0.14417 0.17035 0.12307
0.18818 0.17635 0.12838
0.23288 0.18240 0.13374
0.27818 0.18850 0.13914
0.32399 0.19465 0.14458
0.37021 0.20082 0.15004
0.41675 0.20702 0.15552
0.46353 0.21324 0.16102
0.51044 0.21948 0.16654
0.55740 0.22572 0.17205
0.60430 0.23196 0.17757
0.65107 0.23819 0.18308
0.69761 0.24440 0.18857
0.74382 0.25059 0.19405
0.78961 0.25676 0.19951
0.83490 0.26288 0.20493
0.87958 0.26897 0.21032
0.15280 0.21576 0.13054
0.19685 0.22179 0.13587
0.24159 0.22789 0.14124
0.28693 0.23403 0.14664
0.33277 0.24021 0.15209
0.37901 0.24642 0.15756
0.42558 0.25266 0.16305
0.47237 0.25892 0.16855
0.51929 0.26519 0.17407
0.56625 0.27146 0.17959
0.61316 0.27773 0.18511
0.65992 0.28400 0.19063
0.70644 0.29024 0.19613
0.75264 0.29647 0.20161
0.79841 0.30266 0.20707
0.84367 0.30882 0.21250
0.88833 0.31493 0.21789
0.16151 0.26176 0.13809
0.20561 0.26783 0.14342
0.25039 0.27396 0.14880
0.29576 0.28013 0.15421
0.34162 0.28634 0.15966
0.38790 0.29259 0.16514
0.43448 0.29886 0.17064
0.48128 0.30515 0.17615
0.52821 0.31145 0.18167
0.57517 0.31775 0.18720
0.62208 0.32405 0.19273
0.66884 0.33035 0.19824
0.71535 0.33662 0.20375
0.76153 0.34287 0.20924
0.80729 0.34909 0.21470
0.85252 0.35528 0.22013
0.89714 0.36141 0.22553
0.17030 0.30827 0.14570
0.21444 0.31437 0.15104
0.25926 0.32053 0.15642
0.30466 0.32673 0.16184
0.35055 0.33297 0.16730
0.39685 0.33924 0.17278
0.44345 0.34554 0.17828
0.49026 0.35185 0.18380
0.53720 0.35818 0.18933
0.58417 0.36451 0.19486
0.63107 0.37084 0.20039
0.67782 0.37715 0.20591
0.72432 0.38345 0.21142
0.77049 0.38972 0.21691
0.81622 0.39597 0.22238
0.86142 0.40217 0.22781
0.90601 0.40833 0.23321
0.17915 0.35520 0.15335
0.22333 0.36133 0.15870
0.26819 0.36751 0.16409
0.31362 0.37374 0.16952
0.35954 0.38000 0.17498
0.40585 0.38630 0.18047
0.45247 0.39262 0.18597
0.49930 0.39895 0.19150
0.54624 0.40530 0.19703
0.59321 0.41165 0.20257
0.64011 0.41799 0.20810
0.68685 0.42433 0.21362
0.73334 0.43064 0.21914
0.77949 0.43693 0.22463
0.82520 0.44319 0.23010
0.87038 0.44941 0.23553
0.91493 0.45558 0.24093
0.18805 0.40248 0.16105
0.23227 0.40863 0.16640
0.27716 0.41483 0.17180
0.32263 0.42107 0.17723
0.36857 0.42735 0.18270
0.41491 0.43367 0.18819
0.46154 0.44000 0.19370
0.50838 0.44635 0.19923
0.55533 0.45272 0.20477
0.60230 0.45908 0.21031
0.64919 0.46544 0.21584
0.69593 0.47179 0.22137
0.74240 0.47812 0.22689
0.78853 0.48442 0.23238
0.83421 0.49069 0.23785
0.87936 0.49692 0.24329
0.92389 0.50310 0.24869
0.19699 0.45001 0.16878
0.24125 0.45617 0.17414
0.28617 0.46239 0.17954
0.33167 0.46864 0.18498
0.37764 0.47494 0.19045
0.42399 0.48126 0.19594
0.47064 0.48761 0.20146
0.51748 0.49398 0.20699
0.56444 0.50035 0.21253
0.61141 0.50672 0.21807
0.65830 0.51309 0.22361
0.70502 0.51945 0.22914
0.75149 0.52578 0.23466
0.79759 0.53209 0.24015
0.84325 0.53837 0.24562
0.88837 0.54460 0.25106
0.93286 0.55079 0.25646
0.20595 0.49770 0.17653
0.25025 0.50388 0.18189
0.29521 0.51010 0.18730
0.34073 0.51637 0.19274
0.38672 0.52267 0.19822
0.43310 0.52900 0.20372
0.47976 0.53536 0.20923
0.52661 0.54173 0.21477
0.57357 0.54811 0.22031
0.62054 0.55448 0.22585
0.66743 0.56086 0.23140
0.71414 0.56722 0.23693
0.76058 0.57356 0.24244
0.80667 0.57987 0.24794
0.85230 0.58615 0.25341
0.89739 0.59238 0.25885
0.94185 0.59857 0.26425
0.21493 0.54548 0.18429
0.25927 0.55166 0.18966
0.30426 0.55789 0.19507
0.34980 0.56416 0.20051
0.39582 0.57047 0.20599
0.44221 0.57680 0.21149
0.48888 0.58316 0.21702
0.53575 0.58953 0.22255
0.58271 0.59591 0.22810
0.62968 0.60229 0.23364
0.67656 0.60866 0.23918
0.72326 0.61502 0.24472
0.76968 0.62135 0.25023
0.81575 0.62766 0.25573
0.86136 0.63394 0.26120
0.90641 0.64017 0.26664
0.95083 0.64635 0.27204
0.22391 0.59326 0.19205
0.26828 0.59944 0.19742
0.31330 0.60567 0.20284
0.35888 0.61194 0.20829
0.40491 0.61824 0.21377
0.45132 0.62457 0.21927
0.49801 0.63093 0.22480
0.54488 0.63729 0.23033
0.59184 0.64367 0.23588
0.63881 0.65004 0.24143
0.68568 0.65640 0.24697
0.73236 0.66276 0.25250
0.77877 0.66909 0.25802
0.82482 0.67539 0.26352
0.87040 0.68165 0.26899
0.91542 0.68787 0.27442
0.95980 0.69405 0.27982
0.23288 0.64095 0.19981
0.27728 0.64712 0.20518
0.32234 0.65334 0.21060
0.36794 0.65961 0.21605
0.41399 0.66590 0.22153
0.46042 0.67223 0.22704
0.50711 0.67857 0.23256
0.55399 0.68493 0.23810
0.60096 0.69129 0.24365
0.64792 0.69766 0.24920
0.69478 0.70401 0.25474
0.74145 0.71035 0.26027
0.78784 0.71667 0.26579
0.83386 0.72296 0.27128
0.87941 0.72921 0.27675
0.92440 0.73542 0.28219
0.96875 0.74158 0.28758
0.24182 0.68846 0.20754
0.28626 0.69463 0.21292
0.33135 0.70084 0.21834
0.37697 0.70709 0.22379
0.42305 0.71337 0.22928
0.46949 0.71969 0.23478
0.51619 0.72602 0.24031
0.56308 0.73236 0.24585
0.61004 0.73871 0.25140
0.65699 0.74506 0.25694
0.70385 0.75140 0.26249
0.75051 0.75772 0.26802
0.79688 0.76402 0.27353
0.84287 0.77029 0.27903
0.88839 0.77652 0.28449
0.93335 0.78271 0.28993
0.97765 0.78885 0.29532
0.25073 0.73571 0.21525
0.29521 0.74186 0.22063
0.34032 0.74806 0.22605
0.38597 0.75429 0.23151
0.43207 0.76056 0.23699
0.47852 0.76686 0.24250
0.52523 0.77317 0.24803
0.57212 0.77949 0.25356
0.61908 0.78582 0.25911
0.66603 0.79215 0.26466
0.71287 0.79847 0.27020
0.75952 0.80477 0.27573
0.80587 0.81105 0.28124
0.85184 0.81729 0.28673
0.89733 0.82350 0.29220
0.94225 0.82967 0.29763
0.98651 0.83578 0.30302
0.25960 0.78262 0.22292
0.30411 0.78875 0.22830
0.34925 0.79493 0.23372
0.39492 0.80114 0.23918
0.44103 0.80739 0.24466
0.48750 0.81366 0.25017
0.53422 0.81995 0.25570
0.58111 0.82625 0.26124
0.62807 0.83255 0.26678
0.67501 0.83885 0.27233
0.72184 0.84514 0.27787
0.76847 0.85142 0.28339
0.81480 0.85767 0.28891
0.86074 0.86389 0.29440
0.90620 0.87007 0.29986
0.95109 0.87621 0.30528
0.99531 0.88229 0.31067
0.26841 0.82910 0.23054
0.31295 0.83520 0.23593
0.35811 0.84135 0.24135
0.40381 0.84754 0.24680
0.44994 0.85376 0.25229
0.49641 0.86000 0.25780
0.54315 0.86626 0.26332
0.59004 0.87253 0.26886
0.63699 0.87881 0.27440
0.68393 0.88508 0.27995
0.73075 0.89134 0.28548
0.77736 0.89758 0.29101
0.82366 0.90380 0.29652
0.86958 0.90999 0.30200
0.91500 0.91613 0.30746
0.95985 0.92224 0.31288
1.00000 0.92828 0.31826
0.27714 0.87506 0.23811
0.32172 0.88113 0.24349
0.36691 0.88725 0.24891
0.41262 0.89340 0.25437
0.45877 0.89959 0.25985
0.50526 0.90580 0.26536
0.55199 0.91203 0.27089
0.59889 0.91827 0.27642
0.64584 0.92451 0.28196
0.69277 0.93074 0.28750
0.73957 0.93697 0.29304
0.78616 0.94317 0.29856
0.83245 0.94935 0.30406
0.87833 0.95550 0.30954
0.92372 0.96161 0.31500
0.96854 0.96767 0.32041
1.00000 0.97368 0.32579
0.13928 0.12928 0.15389
0.18329 0.13524 0.15923
0.22798 0.14125 0.16461
0.27328 0.14732 0.17004
0.31908 0.15342 0.17550
0.36530 0.15956 0.18098
0.41184 0.16572 0.18649
0.45860 0.17191 0.19202
0.50551 0.17810 0.19755
0.55246 0.18431 0.20309
0.59937 0.19051 0.20863
0.64613 0.19670 0.21416
0.69266 0.20288 0.21968
0.73887 0.20904 0.22519
0.78466 0.21517 0.23066
0.82994 0.22126 0.23611
0.87462 0.22730 0.24152
0.14782 0.17404 0.16132
0.19187 0.18005 0.16667
0.23661 0.18610 0.17206
0.28194 0.19221 0.17750
0.32777 0.19836 0.18296
0.37401 0.20454 0.18846
0.42057 0.21074 0.19397
0.46736 0.21697 0.19950
0.51427 0.22320 0.20505
0.56123 0.22945 0.21059
0.60814 0.23569 0.21614
0.65490 0.24192 0.22167
0.70142 0.24814 0.22720
0.74761 0.25433 0.23271
0.79338 0.26049 0.23819
0.83864 0.26662 0.24364
0.88329 0.27270 0.24905
0.15646 0.21948 0.16883
0.20055 0.22552 0.17419
0.24533 0.23162 0.17959
0.29069 0.23777 0.18503
0.33656 0.24395 0.19051
0.38282 0.25017 0.19601
0.42940 0.25641 0.20153
0.47620 0.26267 0.20707
0.52313 0.26894 0.21261
0.57009 0.27522 0.21817
0.61699 0.28150 0.22372
0.66375 0.28776 0.22926
0.71026 0.29401 0.23479
0.75644 0.30024 0.24030
0.80219 0.30643 0.24578
0.84742 0.31259 0.25124
0.89204 0.31870 0.25666
0.16519 0.26551 0.17641
0.20932 0.27159 0.18178
0.25413 0.27772 0.18719
0.29953 0.28390 0.19263
0.34542 0.29012 0.19811
0.39171 0.29636 0.20362
0.43831 0.30264 0.20915
0.48512 0.30893 0.21469
0.53205 0.31523 0.22025
0.57902 0.32154 0.22580
0.62592 0.32784 0.23136
0.67267 0.33414 0.23690
0.71917 0.34041 0.24244
0.76533 0.34667 0.24795
0.81106 0.35289 0.25344
0.85627 0.35907 0.25890
0.90086 0.36521 0.26432
0.17398 0.31205 0.18405
0.21816 0.31815 0.18942
0.26301 0.32432 0.19484
0.30844 0.33052 0.20029
0.35435 0.33677 0.20578
0.40067 0.34304 0.21129
0.44728 0.34934 0.21683
0.49410 0.35566 0.22237
0.54105 0.36199 0.22793
0.58801 0.36832 0.23349
0.63491 0.37465 0.23905
0.68165 0.38097 0.24460
0.72814 0.38726 0.25014
0.77429 0.39354 0.25565
0.82000 0.39978 0.26115
0.86517 0.40598 0.26661
0.90973 0.41214 0.27203
0.18284 0.35900 0.19174
0.22706 0.36514 0.19712
0.27194 0.37132 0.20254
0.31740 0.37755 0.20800
0.36334 0.38382 0.21349
0.40968 0.39012 0.21901
0.45631 0.39644 0.22455
0.50314 0.40278 0.23010
0.55009 0.40913 0.23566
0.59706 0.41548 0.24123
0.64396 0.42182 0.24679
0.69069 0.42816 0.25234
0.73717 0.43448 0.25788
0.78329 0.44077 0.26340
0.82898 0.44702 0.26889
0.87413 0.45324 0.27436
0.91865 0.45942 0.27978
0.19174 0.40630 0.19947
0.23600 0.41245 0.20485
0.28092 0.41865 0.21028
0.32641 0.42490 0.21575
0.37238 0.43119 0.22124
0.41873 0.43750 0.22677
0.46538 0.44384 0.23231
0.51223 0.45019 0.23786
0.55918 0.45656 0.24343
0.60615 0.46292 0.24900
0.65304 0.46928 0.25456
0.69976 0.47563 0.26012
0.74623 0.48196 0.26566
0.79233 0.48826 0.27118
0.83799 0.49453 0.27667
0.88312 0.50076 0.28214
0.92761 0.50694 0.28756
0.20068 0.45384 0.20723
0.24498 0.46000 0.21262
0.28994 0.46622 0.21805
0.33546 0.47248 0.22352
0.38145 0.47878 0.22902
0.42782 0.48511 0.23455
0.47448 0.49146 0.24009
0.52134 0.49783 0.24565
0.56830 0.50420 0.25122
0.61526 0.51057 0.25679
0.66215 0.51694 0.26236
0.70886 0.52330 0.26792
0.75531 0.52964 0.27346
0.80140 0.53595 0.27898
0.84703 0.54222 0.28447
0.89213 0.54846 0.28994
0.93658 0.55464 0.29536
0.20965 0.50154 0.21501
0.25399 0.50772 0.22040
0.29897 0.51395 0.22584
0.34452 0.52022 0.23131
0.39054 0.52652 0.23682
0.43693 0.53286 0.24235
0.48360 0.53921 0.24790
0.53047 0.54558 0.25346
0.57743 0.55196 0.25903
0.62440 0.55834 0.26460
0.67128 0.56472 0.27017
0.71798 0.57108 0.27573
0.76441 0.57741 0.28127
0.81048 0.58373 0.28679
0.85609 0.59000 0.29229
0.90115 0.59624 0.29775
0.94557 0.60242 0.30317
0.21863 0.54932 0.22280
0.26300 0.55551 0.22819
0.30802 0.56174 0.23364
0.35360 0.56801 0.23911
0.39964 0.57432 0.24462
0.44605 0.58066 0.25015
0.49273 0.58701 0.25570
0.53960 0.59339 0.26127
0.58657 0.59977 0.26684
0.63353 0.60614 0.27241
0.68041 0.61252 0.27798
0.72710 0.61887 0.28354
0.77351 0.62521 0.28909
0.81955 0.63152 0.29461
0.86514 0.63779 0.30010
0.91017 0.64402 0.30556
0.95455 0.65020 0.31099
0.22761 0.59710 0.23059
0.27202 0.60328 0.23599
0.31707 0.60951 0.24143
0.36267 0.61578 0.24691
0.40873 0.62209 0.25242
0.45516 0.62842 0.25796
0.50186 0.63478 0.26351
0.54873 0.64115 0.26908
0.59570 0.64752 0.27465
0.64266 0.65389 0.28022
0.68953 0.66026 0.28579
0.73620 0.66661 0.29135
0.78260 0.67294 0.29690
0.82862 0.67924 0.30242
0.87417 0.68550 0.30791
0.91917 0.69172 0.31337
0.96352 0.69789 0.31879
0.23658 0.64478 0.23837
0.28103 0.65096 0.24377
0.32611 0.65718 0.24922
0.37173 0.66345 0.25470
0.41781 0.66975 0.26021
0.46425 0.67607 0.26575
0.51096 0.68242 0.27130
0.55785 0.68878 0.27687
0.60481 0.69514 0.28244
0.65177 0.70150 0.28802
0.69863 0.70786 0.29359
0.74529 0.71420 0.29915
0.79167 0.72051 0.30469
0.83766 0.72680 0.31021
0.88319 0.73305 0.31570
0.92815 0.73926 0.32116
0.97246 0.74541 0.32658
0.24553 0.69228 0.24613
0.29001 0.69845 0.25154
0.33512 0.70466 0.25699
0.38077 0.71092 0.26247
0.42687 0.71720 0.26798
0.47332 0.72352 0.27352
0.52004 0.72985 0.27908
0.56693 0.73619 0.28464
0.61390 0.74254 0.29022
0.66085 0.74889 0.29579
0.70770 0.75523 0.30136
0.75434 0.76155 0.30691
0.80070 0.76785 0.31246
0.84667 0.77412 0.31797
0.89217 0.78035 0.32346
0.93710 0.78653 0.32892
0.98136 0.79267 0.33434
0.25444 0.73952 0.25386
0.29895 0.74567 0.25927
0.34409 0.75187 0.26472
0.38977 0.75811 0.27021
0.43588 0.76438 0.27572
0.48235 0.77067 0.28126
0.52908 0.77698 0.28681
0.57597 0.78331 0.29238
0.62294 0.78964 0.29795
0.66988 0.79596 0.30353
0.71672 0.80228 0.30909
0.76335 0.80858 0.31465
0.80969 0.81486 0.32019
0.85563 0.82110 0.32570
0.90110 0.82731 0.33119
0.94599 0.83347 0.33664
0.99022 0.83958 0.34206
0.26331 0.78641 0.26156
0.30785 0.79254 0.26697
0.35302 0.79872 0.27242
0.39871 0.80493 0.27791
0.44485 0.81118 0.28342
0.49133 0.81745 0.28896
0.53807 0.82374 0.29451
0.58496 0.83004 0.30008
0.63192 0.83634 0.30565
0.67886 0.84265 0.31122
0.72569 0.84894 0.31678
0.77230 0.85521 0.32234
0.81861 0.86146 0.32787
0.86453 0.86767 0.33339
0.90997 0.87385 0.33887
0.95482 0.87998 0.34432
0.99901 0.88606 0.34973
0.27211 0.83286 0.26921
0.31669 0.83897 0.27462
0.36188 0.84512 0.28007
0.40760 0.85130 0.28555
0.45375 0.85752 0.29107
0.50025 0.86377 0.29660
0.54699 0.87003 0.30216
0.59388 0.87630 0.30772
0.64084 0.88257 0.31329
0.68778 0.88884 0.31886
0.73459 0.89510 0.32442
0.78118 0.90134 0.32997
0.82747 0.90756 0.33550
0.87337 0.91374 0.34101
0.91877 0.91989 0.34649
0.96358 0.92599 0.35194
1.00000 0.93203 0.35734
0.28085 0.87879 0.27680
0.32546 0.88486 0.28221
0.37067 0.89098 0.28766
0.41641 0.89714 0.29314
0.46258 0.90333 0.29866
0.50909 0.90954 0.30419
0.55583 0.91577 0.30974
0.60273 0.92200 0.31530
0.64969 0.92824 0.32087
0.69661 0.93448 0.32644
0.74341 0.94070 0.33200
0.78998 0.94690 0.33754
0.83625 0.95308 0.34307
0.88211 0.95923 0.34858
0.92748 0.96533 0.35405
0.97226 0.97139 0.35949
1.00000 0.97739 0.36489
0.14295 0.13295 0.19259
0.18699 0.13891 0.19797
0.23172 0.14493 0.20338
0.27704 0.15100 0.20883
0.32287 0.15711 0.21432
0.36911 0.16325 0.21984
0.41566 0.16942 0.22537
0.46244 0.17561 0.23092
0.50935 0.18181 0.23649
0.55631 0.18801 0.24205
0.60321 0.19422 0.24762
0.64996 0.20042 0.25317
0.69648 0.20660 0.25872
0.74267 0.21275 0.26424
0.78844 0.21888 0.26974
0.83370 0.22497 0.27521
0.87834 0.23102 0.28065
0.15150 0.17775 0.20006
0.19559 0.18376 0.20544
0.24035 0.18982 0.21086
0.28571 0.19593 0.21632
0.33157 0.20208 0.22182
0.37783 0.20827 0.22734
0.42440 0.21448 0.23288
0.47120 0.22071 0.23844
0.51812 0.22695 0.24401
0.56508 0.23319 0.24958
0.61198 0.23943 0.25515
0.65873 0.24567 0.26071
0.70524 0.25189 0.26626
0.75142 0.25808 0.27179
0.79717 0.26425 0.27730
0.84240 0.27037 0.28277
