luts/vintage-fade.cube
# vintage-fade  (original film-style LUT, free for any use)
LUT_3D_SIZE 5
0.13200 0.12200 0.07800
0.31154 0.14609 0.09933
0.49787 0.17074 0.12111
0.68507 0.19550 0.14300
0.86722 0.21991 0.16460
0.16664 0.30450 0.10788
0.34677 0.32919 0.12933
0.53337 0.35439 0.15123
0.72052 0.37965 0.17319
0.90231 0.40453 0.19486
0.20227 0.49388 0.13857
0.38292 0.51884 0.16012
0.56973 0.54426 0.18208
0.75677 0.56971 0.20409
0.93814 0.59473 0.22578
0.23813 0.68465 0.16946
0.41925 0.70956 0.19106
0.60620 0.73489 0.21305
0.79307 0.76020 0.23507
0.97396 0.78504 0.25674
0.27346 0.87134 0.19992
0.45497 0.89587 0.22153
0.64201 0.92078 0.24351
0.82865 0.94564 0.26550
1.00000 0.96998 0.28712
0.14663 0.13663 0.23172
0.32668 0.16081 0.25355
0.51321 0.18553 0.27581
0.70031 0.21032 0.29812
0.88207 0.23475 0.32013
0.18139 0.31965 0.26211
0.36200 0.34441 0.28405
0.54878 0.36965 0.30639
0.73582 0.39493 0.32877
0.91720 0.41981 0.35082
0.21709 0.50926 0.29326
0.39821 0.53426 0.31527
0.58518 0.55971 0.33767
0.77209 0.58517 0.36008
0.95303 0.61016 0.38213
0.25299 0.69996 0.32456
0.43455 0.72490 0.34661
0.62165 0.75024 0.36901
0.80837 0.77554 0.39141
0.98881 0.80034 0.41343
0.28830 0.88629 0.35538
0.47024 0.91083 0.37742
0.65741 0.93574 0.39980
0.84389 0.96056 0.42215
1.00000 0.98485 0.44410
0.16147 0.15147 0.39114
0.34200 0.17573 0.41322
0.52871 0.20050 0.43569
0.71569 0.22533 0.45819
0.89704 0.24976 0.48034
0.19633 0.33498 0.42179
0.37741 0.35980 0.44396
0.56435 0.38508 0.46650
0.75125 0.41037 0.48904
0.93220 0.43524 0.51122
0.23210 0.52479 0.45316
0.41366 0.54984 0.47538
0.60078 0.57531 0.49796
0.78753 0.60075 0.52051
0.96802 0.62572 0.54267
0.26802 0.71541 0.48462
0.45000 0.74037 0.50686
0.63723 0.76571 0.52943
0.82378 0.79098 0.55196
1.00000 0.81573 0.57407
0.30332 0.90136 0.51556
0.48566 0.92591 0.53778
0.67294 0.95080 0.56031
0.85922 0.97558 0.58276
1.00000 0.99979 0.60479
0.17639 0.16639 0.55211
0.35737 0.19072 0.57418
0.54424 0.21554 0.59661
0.73109 0.24038 0.61903
0.91200 0.26481 0.64107
0.21135 0.35038 0.58278
0.39286 0.37524 0.60492
0.57994 0.40055 0.62740
0.76669 0.42585 0.64985
0.94718 0.45068 0.67190
0.24718 0.54037 0.61411
0.42915 0.56544 0.63630
0.61639 0.59092 0.65879
0.80297 0.61635 0.68123
0.98298 0.64128 0.70325
0.28310 0.73088 0.64550
0.46549 0.75585 0.66768
0.65281 0.78118 0.69015
0.83917 0.80641 0.71255
1.00000 0.83110 0.73450
0.31837 0.91643 0.67632
0.50110 0.94097 0.69846
0.68846 0.96583 0.72087
0.87453 0.99055 0.74318
1.00000 1.00000 0.76502
0.19127 0.18127 0.71048
0.37268 0.20566 0.73229
0.55969 0.23051 0.75442
0.74637 0.25536 0.77650
0.92682 0.27978 0.79817
0.22631 0.36570 0.74092
0.40824 0.39061 0.76278
0.59544 0.41593 0.78494
0.78200 0.44122 0.80704
0.96201 0.46603 0.82871
0.26218 0.55585 0.77198
0.44455 0.58095 0.79386
0.63189 0.60642 0.81602
0.81827 0.63182 0.83810
0.99778 0.65670 0.85971
0.29811 0.74623 0.80305
0.48087 0.77120 0.82491
0.66828 0.79651 0.84703
0.85441 0.82170 0.86904
1.00000 0.84632 0.89057
0.33334 0.93136 0.83349
0.51643 0.95588 0.85530
0.70384 0.98070 0.87734
0.88968 1.00000 0.89924
1.00000 1.00000 0.92065
