luts/vintage-fade.cube
# vintage-fade  (original film-style LUT, free for any use)
LUT_3D_SIZE 9
0.13200 0.12200 0.07800
0.22055 0.13395 0.08858
0.31154 0.14609 0.09933
0.40423 0.15838 0.11019
0.49787 0.17074 0.12111
0.59173 0.18314 0.13207
0.68507 0.19550 0.14300
0.77715 0.20778 0.15386
0.86722 0.21991 0.16460
0.14915 0.21205 0.09280
0.23787 0.22417 0.10342
0.32899 0.23648 0.11419
0.42177 0.24892 0.12508
0.51546 0.26144 0.13604
0.60933 0.27399 0.14702
0.70264 0.28649 0.15797
0.79465 0.29891 0.16885
0.88462 0.31118 0.17961
0.16664 0.30450 0.10788
0.25553 0.31675 0.11853
0.34677 0.32919 0.12933
0.43963 0.34175 0.14025
0.53337 0.35439 0.15123
0.62724 0.36704 0.16222
0.72052 0.37965 0.17319
0.81245 0.39217 0.18409
0.90231 0.40453 0.19486
0.18438 0.39868 0.12316
0.27342 0.41102 0.13384
0.36478 0.42354 0.14467
0.45771 0.43618 0.15560
0.55149 0.44889 0.16660
0.64536 0.46161 0.17761
0.73859 0.47429 0.18859
0.83044 0.48686 0.19950
0.92018 0.49927 0.21028
0.20227 0.49388 0.13857
0.29146 0.50627 0.14927
0.38292 0.51884 0.16012
0.47593 0.53152 0.17107
0.56973 0.54426 0.18208
0.66359 0.55701 0.19310
0.75677 0.56971 0.20409
0.84854 0.58230 0.21500
0.93814 0.59473 0.22578
0.22022 0.58944 0.15403
0.30955 0.60184 0.16475
0.40111 0.61441 0.17561
0.49418 0.62709 0.18657
0.58800 0.63983 0.19759
0.68184 0.65256 0.20862
0.77496 0.66525 0.21961
0.86663 0.67782 0.23052
0.95610 0.69022 0.24130
0.23813 0.68465 0.16946
0.32759 0.69702 0.18019
0.41925 0.70956 0.19106
0.51236 0.72220 0.20203
0.60620 0.73489 0.21305
0.70001 0.74758 0.22408
0.79307 0.76020 0.23507
0.88463 0.77271 0.24597
0.97396 0.78504 0.25674
0.25591 0.77885 0.18478
0.34549 0.79115 0.19551
0.43723 0.80361 0.20639
0.53039 0.81617 0.21736
0.62423 0.82877 0.22838
0.71802 0.84137 0.23941
0.81100 0.85389 0.25039
0.90245 0.86630 0.26128
0.99162 0.87853 0.27204
0.27346 0.87134 0.19992
0.36315 0.88352 0.21065
0.45497 0.89587 0.22153
0.54817 0.90830 0.23249
0.64201 0.92078 0.24351
0.73575 0.93325 0.25453
0.82865 0.94564 0.26550
0.91998 0.95790 0.27638
1.00000 0.96998 0.28712
0.13928 0.12928 0.15389
0.22798 0.14125 0.16461
0.31908 0.15342 0.17550
0.41184 0.16572 0.18649
0.50551 0.17810 0.19755
0.59937 0.19051 0.20863
0.69266 0.20288 0.21968
0.78466 0.21517 0.23066
0.87462 0.22730 0.24152
0.15646 0.21948 0.16883
0.24533 0.23162 0.17959
0.33656 0.24395 0.19051
0.42940 0.25641 0.20153
0.52313 0.26894 0.21261
0.61699 0.28150 0.22372
0.71026 0.29401 0.23479
0.80219 0.30643 0.24578
0.89204 0.31870 0.25666
0.17398 0.31205 0.18405
0.26301 0.32432 0.19484
0.35435 0.33677 0.20578
0.44728 0.34934 0.21683
0.54105 0.36199 0.22793
0.63491 0.37465 0.23905
0.72814 0.38726 0.25014
0.82000 0.39978 0.26115
0.90973 0.41214 0.27203
0.19174 0.40630 0.19947
0.28092 0.41865 0.21028
0.37238 0.43119 0.22124
0.46538 0.44384 0.23231
0.55918 0.45656 0.24343
0.65304 0.46928 0.25456
0.74623 0.48196 0.26566
0.83799 0.49453 0.27667
0.92761 0.50694 0.28756
0.20965 0.50154 0.21501
0.29897 0.51395 0.22584
0.39054 0.52652 0.23682
0.48360 0.53921 0.24790
0.57743 0.55196 0.25903
0.67128 0.56472 0.27017
0.76441 0.57741 0.28127
0.85609 0.59000 0.29229
0.94557 0.60242 0.30317
0.22761 0.59710 0.23059
0.31707 0.60951 0.24143
0.40873 0.62209 0.25242
0.50186 0.63478 0.26351
0.59570 0.64752 0.27465
0.68953 0.66026 0.28579
0.78260 0.67294 0.29690
0.87417 0.68550 0.30791
0.96352 0.69789 0.31879
0.24553 0.69228 0.24613
0.33512 0.70466 0.25699
0.42687 0.71720 0.26798
0.52004 0.72985 0.27908
0.61390 0.74254 0.29022
0.70770 0.75523 0.30136
0.80070 0.76785 0.31246
0.89217 0.78035 0.32346
0.98136 0.79267 0.33434
0.26331 0.78641 0.26156
0.35302 0.79872 0.27242
0.44485 0.81118 0.28342
0.53807 0.82374 0.29451
0.63192 0.83634 0.30565
0.72569 0.84894 0.31678
0.81861 0.86146 0.32787
0.90997 0.87385 0.33887
0.99901 0.88606 0.34973
0.28085 0.87879 0.27680
0.37067 0.89098 0.28766
0.46258 0.90333 0.29866
0.55583 0.91577 0.30974
0.64969 0.92824 0.32087
0.74341 0.94070 0.33200
0.83625 0.95308 0.34307
0.92748 0.96533 0.35405
1.00000 0.97739 0.36489
0.14663 0.13663 0.23172
0.23547 0.14863 0.24256
0.32668 0.16081 0.25355
0.41950 0.17313 0.26465
0.51321 0.18553 0.27581
0.60706 0.19794 0.28698
0.70031 0.21032 0.29812
0.79223 0.22261 0.30919
0.88207 0.23475 0.32013
0.16384 0.22698 0.24678
0.25285 0.23914 0.25765
0.34418 0.25148 0.26867
0.43709 0.26396 0.27979
0.53084 0.27650 0.29097
0.62470 0.28906 0.30217
0.71792 0.30158 0.31333
0.80977 0.31401 0.32441
0.89950 0.32627 0.33536
0.18139 0.31965 0.26211
0.27055 0.33194 0.27300
0.36200 0.34441 0.28405
0.45499 0.35699 0.29519
0.54878 0.36965 0.30639
0.64264 0.38231 0.31760
0.73582 0.39493 0.32877
0.82759 0.40745 0.33986
0.91720 0.41981 0.35082
0.19917 0.41397 0.27763
0.28848 0.42635 0.28854
0.38004 0.43889 0.29961
0.47310 0.45156 0.31077
0.56692 0.46428 0.32198
0.66077 0.47701 0.33320
0.75391 0.48969 0.34438
0.84559 0.50226 0.35548
0.93507 0.51467 0.36644
0.21709 0.50926 0.29326
0.30655 0.52167 0.30420
0.39821 0.53426 0.31527
0.49133 0.54696 0.32645
0.58518 0.55971 0.33767
0.67901 0.57247 0.34889
0.77209 0.58517 0.36008
0.86368 0.59775 0.37117
0.95303 0.61016 0.38213
0.23506 0.60481 0.30893
0.32466 0.61724 0.31988
0.41641 0.62983 0.33097
0.50959 0.64252 0.34214
0.60345 0.65526 0.35337
0.69726 0.66800 0.36460
0.79028 0.68068 0.37578
0.88176 0.69323 0.38687
0.97097 0.70562 0.39782
0.25299 0.69996 0.32456
0.34270 0.71235 0.33551
0.43455 0.72490 0.34661
0.52777 0.73755 0.35779
0.62165 0.75024 0.36901
0.71542 0.76292 0.38024
0.80837 0.77554 0.39141
0.89974 0.78803 0.40249
0.98881 0.80034 0.41343
0.27076 0.79402 0.34007
0.36060 0.80633 0.35103
0.45252 0.81880 0.36212
0.54579 0.83136 0.37330
0.63966 0.84396 0.38452
0.73340 0.85655 0.39573
0.82627 0.86906 0.40690
0.91753 0.88144 0.41796
1.00000 0.89364 0.42889
0.28830 0.88629 0.35538
0.37825 0.89849 0.36633
0.47024 0.91083 0.37742
0.56354 0.92327 0.38859
0.65741 0.93574 0.39980
0.75110 0.94819 0.41100
0.84389 0.96056 0.42215
0.93502 0.97280 0.43320
1.00000 0.98485 0.44410
0.15403 0.14403 0.31098
0.24301 0.15605 0.32190
0.33432 0.16825 0.33296
0.42721 0.18059 0.34413
0.52094 0.19300 0.35536
0.61478 0.20542 0.36660
0.70799 0.21781 0.37780
0.79983 0.23010 0.38892
0.88955 0.24224 0.39991
0.17127 0.23452 0.32612
0.26042 0.24670 0.33707
0.35185 0.25906 0.34816
0.44482 0.27155 0.35935
0.53860 0.28411 0.37060
0.63245 0.29667 0.38186
0.72562 0.30920 0.39307
0.81738 0.32162 0.40420
0.90699 0.33389 0.41521
0.18884 0.32730 0.34153
0.27814 0.33961 0.35250
0.36969 0.35209 0.36361
0.46274 0.36469 0.37482
0.55655 0.37735 0.38609
0.65040 0.39002 0.39736
0.74353 0.40264 0.40858
0.83520 0.41516 0.41972
0.92469 0.42751 0.43073
0.20664 0.42169 0.35712
0.29609 0.43408 0.36811
0.38774 0.44664 0.37924
0.48086 0.45931 0.39047
0.57471 0.47204 0.40174
0.66854 0.48478 0.41302
0.76162 0.49745 0.42425
0.85321 0.51002 0.43539
0.94257 0.52242 0.44640
0.22458 0.51701 0.37282
0.31417 0.52944 0.38382
0.40592 0.54204 0.39497
0.49910 0.55474 0.40620
0.59297 0.56750 0.41748
0.68678 0.58026 0.42876
0.77981 0.59295 0.44000
0.87130 0.60553 0.45114
0.96052 0.61793 0.46214
0.24256 0.61257 0.38855
0.33228 0.62500 0.39956
0.42413 0.63760 0.41072
0.51736 0.65029 0.42196
0.61124 0.66304 0.43324
0.70503 0.67577 0.44452
0.79799 0.68845 0.45575
0.88937 0.70099 0.46688
0.97845 0.71337 0.47787
0.26049 0.70768 0.40423
0.35033 0.72008 0.41525
0.44226 0.73263 0.42641
0.53554 0.74528 0.43765
0.62943 0.75797 0.44893
0.72318 0.77065 0.46020
0.81607 0.78325 0.47142
0.90734 0.79573 0.48254
0.99627 0.80803 0.49352
0.27826 0.80166 0.41979
0.36822 0.81398 0.43081
0.46023 0.82645 0.44196
0.55355 0.83901 0.45320
0.64743 0.85161 0.46447
0.74115 0.86419 0.47573
0.83395 0.87669 0.48694
0.92511 0.88906 0.49804
1.00000 0.90124 0.50900
0.29580 0.89382 0.43514
0.38587 0.90602 0.44616
0.47794 0.91837 0.45730
0.57129 0.93080 0.46853
0.66517 0.94327 0.47979
0.75883 0.95571 0.49103
0.85155 0.96807 0.50222
0.94258 0.98029 0.51331
1.00000 0.99232 0.52424
0.16147 0.15147 0.39114
0.25059 0.16351 0.40211
0.34200 0.17573 0.41322
0.43495 0.18808 0.42443
0.52871 0.20050 0.43569
0.62254 0.21293 0.44696
0.71569 0.22533 0.45819
0.80744 0.23762 0.46933
0.89704 0.24976 0.48034
0.17874 0.24210 0.40634
0.26802 0.25430 0.41733
0.35955 0.26668 0.42846
0.45258 0.27917 0.43970
0.54638 0.29174 0.45098
0.64021 0.30431 0.46226
0.73333 0.31684 0.47350
0.82500 0.32927 0.48465
0.91449 0.34153 0.49567
0.19633 0.33498 0.42179
0.28577 0.34731 0.43280
0.37741 0.35980 0.44396
0.47051 0.37241 0.45521
0.56435 0.38508 0.46650
0.65817 0.39775 0.47779
0.75125 0.41037 0.48904
0.84284 0.42289 0.50020
0.93220 0.43524 0.51122
0.21415 0.42944 0.43742
0.30373 0.44185 0.44846
0.39548 0.45441 0.45962
0.48865 0.46710 0.47088
0.58251 0.47983 0.48219
0.67633 0.49256 0.49349
0.76935 0.50524 0.50474
0.86085 0.51780 0.51590
0.95007 0.53019 0.52692
0.23210 0.52479 0.45316
0.32182 0.53724 0.46420
0.41366 0.54984 0.47538
0.50689 0.56255 0.48665
0.60078 0.57531 0.49796
0.69457 0.58806 0.50926
0.78753 0.60075 0.52051
0.87893 0.61332 0.53166
0.96802 0.62572 0.54267
0.25009 0.62034 0.46892
0.33994 0.63279 0.47997
0.43187 0.64539 0.49116
0.52515 0.65809 0.50242
0.61905 0.67083 0.51373
0.71281 0.68356 0.52503
0.80571 0.69623 0.53627
0.89700 0.70877 0.54742
0.98594 0.72113 0.55842
0.26802 0.71541 0.48462
0.35799 0.72782 0.49568
0.45000 0.74037 0.50686
0.54333 0.75302 0.51813
0.63723 0.76571 0.52943
0.73096 0.77838 0.54072
0.82378 0.79098 0.55196
0.91495 0.80345 0.56309
1.00000 0.81573 0.57407
0.28579 0.80932 0.50020
0.37587 0.82164 0.51125
0.46797 0.83411 0.52243
0.56133 0.84667 0.53369
0.65522 0.85926 0.54498
0.74891 0.87183 0.55626
0.84165 0.88433 0.56748
0.93270 0.89668 0.57859
1.00000 0.90885 0.58955
0.30332 0.90136 0.51556
0.39350 0.91357 0.52661
0.48566 0.92591 0.53778
0.57905 0.93834 0.54903
0.67294 0.95080 0.56031
0.76657 0.96323 0.57157
0.85922 0.97558 0.58276
0.95014 0.98778 0.59385
1.00000 0.99979 0.60479
0.16893 0.15893 0.47169
0.25818 0.17099 0.48268
0.34968 0.18323 0.49380
0.44270 0.19559 0.50502
0.53648 0.20802 0.51628
0.63029 0.22046 0.52755
0.72340 0.23286 0.53877
0.81506 0.24515 0.54990
0.90453 0.25729 0.56090
0.18623 0.24969 0.48691
0.27564 0.26191 0.49792
0.36726 0.27430 0.50906
0.46035 0.28681 0.52030
0.55417 0.29939 0.53158
0.64798 0.31196 0.54286
0.74105 0.32449 0.55409
0.83263 0.33692 0.56523
0.92198 0.34918 0.57623
0.20384 0.34268 0.50238
0.29340 0.35502 0.51341
0.38513 0.36752 0.52457
0.47830 0.38014 0.53582
0.57215 0.39282 0.54711
0.66596 0.40549 0.55840
0.75898 0.41811 0.56964
0.85047 0.43062 0.58078
0.93970 0.44297 0.59178
0.22168 0.43721 0.51802
0.31138 0.44962 0.52907
0.40322 0.46220 0.54024
0.49644 0.47488 0.55150
0.59032 0.48762 0.56280
0.68411 0.50036 0.57409
0.77708 0.51303 0.58533
0.86848 0.52559 0.59647
0.95757 0.53797 0.60747
0.23964 0.53258 0.53376
0.32948 0.54504 0.54482
0.42141 0.55765 0.55600
0.51469 0.57036 0.56726
0.60859 0.58312 0.57856
0.70236 0.59587 0.58986
0.79526 0.60856 0.60109
0.88656 0.62112 0.61223
0.97551 0.63351 0.62322
0.25763 0.62813 0.54952
0.34760 0.64058 0.56058
0.43962 0.65318 0.57177
0.53295 0.66588 0.58303
0.62685 0.67863 0.59433
0.72059 0.69136 0.60562
0.81343 0.70401 0.61684
0.90462 0.71654 0.62797
0.99342 0.72889 0.63894
0.27556 0.72315 0.56522
0.36565 0.73556 0.57628
0.45775 0.74812 0.58746
0.55112 0.76077 0.59872
0.64503 0.77345 0.61001
0.73873 0.78612 0.62129
0.83148 0.79871 0.63251
0.92256 0.81116 0.64361
1.00000 0.82343 0.65457
0.29333 0.81697 0.58078
0.38353 0.82930 0.59184
0.47570 0.84177 0.60301
0.56911 0.85433 0.61427
0.66301 0.86691 0.62554
0.75666 0.87948 0.63681
0.84933 0.89196 0.64800
0.94028 0.90430 0.65909
1.00000 0.91645 0.67002
0.31085 0.90891 0.59613
0.40115 0.92111 0.60718
0.49339 0.93345 0.61834
0.58682 0.94588 0.62958
0.68070 0.95833 0.64084
0.77431 0.97075 0.65208
0.86689 0.98308 0.66326
0.95770 0.99527 0.67432
1.00000 1.00000 0.68522
0.17639 0.16639 0.55211
0.26578 0.17847 0.56308
0.35737 0.19072 0.57418
0.45044 0.20310 0.58537
0.54424 0.21554 0.59661
0.63804 0.22798 0.60784
0.73109 0.24038 0.61903
0.82265 0.25268 0.63012
0.91200 0.26481 0.64107
0.19372 0.25729 0.56732
0.28326 0.26952 0.57831
0.37497 0.28193 0.58943
0.46811 0.29445 0.60064
0.56195 0.30703 0.61189
0.65575 0.31961 0.62314
0.74875 0.33214 0.63433
0.84024 0.34456 0.64543
0.92946 0.35682 0.65638
0.21135 0.35038 0.58278
0.30104 0.36273 0.59378
0.39286 0.37524 0.60492
0.48607 0.38787 0.61614
0.57994 0.40055 0.62740
0.67373 0.41323 0.63865
0.76669 0.42585 0.64985
0.85808 0.43835 0.66095
0.94718 0.45068 0.67190
0.22920 0.44496 0.59840
0.31903 0.45739 0.60942
0.41095 0.46998 0.62057
0.50423 0.48267 0.63180
0.59812 0.49541 0.64306
0.69189 0.50814 0.65431
0.78479 0.52081 0.66551
0.87609 0.53336 0.67660
0.96505 0.54573 0.68755
0.24718 0.54037 0.61411
0.33714 0.55283 0.62514
0.42915 0.56544 0.63630
0.52248 0.57816 0.64753
0.61639 0.59092 0.65879
0.71013 0.60367 0.67004
0.80297 0.61635 0.68123
0.89416 0.62890 0.69232
0.98298 0.64128 0.70325
0.26517 0.63590 0.62984
0.35526 0.64836 0.64087
0.44736 0.66096 0.65203
0.54074 0.67367 0.66326
0.63465 0.68641 0.67452
0.72836 0.69913 0.68576
0.82113 0.71178 0.69694
0.91221 0.72430 0.70801
1.00000 0.73663 0.71893
0.28310 0.73088 0.64550
0.37331 0.74329 0.65653
0.46549 0.75585 0.66768
0.55890 0.76850 0.67891
0.65281 0.78118 0.69015
0.74648 0.79383 0.70138
0.83917 0.80641 0.71255
0.93013 0.81885 0.72360
1.00000 0.83110 0.73450
0.30087 0.82462 0.66102
0.39118 0.83694 0.67205
0.48343 0.84941 0.68319
0.57688 0.86197 0.69440
0.67078 0.87455 0.70563
0.76440 0.88710 0.71684
0.85700 0.89957 0.72799
0.94784 0.91189 0.73902
1.00000 0.92402 0.74989
0.31837 0.91643 0.67632
0.40879 0.92863 0.68733
0.50110 0.94097 0.69846
0.59457 0.95339 0.70965
0.68846 0.96583 0.72087
0.78202 0.97824 0.73206
0.87453 0.99055 0.74318
0.96523 1.00000 0.75418
1.00000 1.00000 0.76502
0.18385 0.17385 0.63188
0.27336 0.18594 0.64280
0.36505 0.19820 0.65385
0.45817 0.21059 0.66499
0.55198 0.22304 0.67616
0.64576 0.23549 0.68733
0.73875 0.24789 0.69845
0.83022 0.26018 0.70946
0.91943 0.27232 0.72033
0.20119 0.26488 0.64705
0.29086 0.27712 0.65799
0.38266 0.28954 0.66906
0.47586 0.30207 0.68021
0.56971 0.31465 0.69140
0.66348 0.32724 0.70257
0.75643 0.33977 0.71370
0.84782 0.35218 0.72472
0.93690 0.36443 0.73559
0.21885 0.35806 0.66246
0.30866 0.37042 0.67342
0.40057 0.38294 0.68450
0.49383 0.39557 0.69566
0.58771 0.40826 0.70685
0.68147 0.42093 0.71803
0.77437 0.43355 0.72916
0.86566 0.44605 0.74018
0.95462 0.45838 0.75105
0.23671 0.45270 0.67804
0.32666 0.46514 0.68900
0.41867 0.47773 0.70009
0.51199 0.49042 0.71125
0.60589 0.50317 0.72245
0.69963 0.51590 0.73363
0.79247 0.52856 0.74475
0.88367 0.54110 0.75577
0.97249 0.55346 0.76663
0.25470 0.54813 0.69369
0.34478 0.56060 0.70467
0.43687 0.57322 0.71576
0.53025 0.58594 0.72692
0.62416 0.59869 0.73812
0.71787 0.61144 0.74929
0.81064 0.62411 0.76041
0.90173 0.63665 0.77141
0.99041 0.64901 0.78225
0.27270 0.64365 0.70936
0.36290 0.65611 0.72033
0.45508 0.66872 0.73142
0.54850 0.68142 0.74258
0.64242 0.69416 0.75377
0.73609 0.70687 0.76494
0.82879 0.71951 0.77604
0.91977 0.73202 0.78702
1.00000 0.74433 0.79785
0.29063 0.73858 0.72495
0.38094 0.75099 0.73592
0.47320 0.76355 0.74701
0.56665 0.77619 0.75816
0.66057 0.78887 0.76933
0.75420 0.80152 0.78048
0.84682 0.81408 0.79157
0.93767 0.82651 0.80253
1.00000 0.83874 0.81334
0.30838 0.83223 0.74040
0.39881 0.84456 0.75136
0.49113 0.85702 0.76243
0.58462 0.86957 0.77357
0.67852 0.88214 0.78473
0.77210 0.89468 0.79586
0.86463 0.90714 0.80692
0.95536 0.91944 0.81786
1.00000 0.93155 0.82864
0.32587 0.92392 0.75561
0.41640 0.93612 0.76656
0.50879 0.94845 0.77762
0.60229 0.96086 0.78874
0.69618 0.97329 0.79987
0.78970 0.98569 0.81098
0.88213 0.99799 0.82201
0.97272 1.00000 0.83293
1.00000 1.00000 0.84367
0.19127 0.18127 0.71048
0.28091 0.19338 0.72132
0.37268 0.20566 0.73229
0.46586 0.21805 0.74333
0.55969 0.23051 0.75442
0.65344 0.24296 0.76549
0.74637 0.25536 0.77650
0.83774 0.26766 0.78741
0.92682 0.27978 0.79817
0.20864 0.27243 0.72558
0.29843 0.28469 0.73644
0.39032 0.29712 0.74742
0.48356 0.30965 0.75848
0.57743 0.32224 0.76957
0.67117 0.33483 0.78065
0.76406 0.34735 0.79167
0.85534 0.35977 0.80258
0.94429 0.37201 0.81334
0.22631 0.36570 0.74092
0.31625 0.37807 0.75179
0.40824 0.39061 0.76278
0.50155 0.40324 0.77385
0.59544 0.41593 0.78494
0.68917 0.42861 0.79602
0.78200 0.44122 0.80704
0.87319 0.45371 0.81795
0.96201 0.46603 0.82871
0.24419 0.46040 0.75641
0.33426 0.47285 0.76729
0.42635 0.48545 0.77829
0.51971 0.49814 0.78936
0.61362 0.51088 0.80045
0.70733 0.52361 0.81153
0.80010 0.53627 0.82254
0.89119 0.54880 0.83344
0.97987 0.56115 0.84419
0.26218 0.55585 0.77198
0.35238 0.56832 0.78286
0.44455 0.58095 0.79386
0.53797 0.59367 0.80493
0.63189 0.60642 0.81602
0.72557 0.61916 0.82709
0.81827 0.63182 0.83810
0.90925 0.64436 0.84898
0.99778 0.65670 0.85971
0.28019 0.65135 0.78755
0.37050 0.66382 0.79844
0.46276 0.67643 0.80943
0.55622 0.68913 0.82049
0.65014 0.70186 0.83157
0.74378 0.71457 0.84263
0.83640 0.72720 0.85362
0.92727 0.73969 0.86449
1.00000 0.75199 0.87520
0.29811 0.74623 0.80305
0.38854 0.75865 0.81392
0.48087 0.77120 0.82491
0.57436 0.78384 0.83596
0.66828 0.79651 0.84703
0.76187 0.80915 0.85807
0.85441 0.82170 0.86904
0.94516 0.83411 0.87989
1.00000 0.84632 0.89057
0.31586 0.83979 0.81839
0.40640 0.85212 0.82925
0.49879 0.86458 0.84023
0.59231 0.87712 0.85126
0.68621 0.88969 0.86231
0.77976 0.90221 0.87333
0.87220 0.91465 0.88427
0.96282 0.92694 0.89509
1.00000 0.93903 0.90575
0.33334 0.93136 0.83349
0.42397 0.94356 0.84434
0.51643 0.95588 0.85530
0.60996 0.96829 0.86631
0.70384 0.98070 0.87734
0.79733 0.99308 0.88833
0.88968 1.00000 0.89924
0.98015 1.00000 0.91003
1.00000 1.00000 0.92065
